;FLAVOR:Marlin
;TIME:5728
;Filament used: 2.57814m
;Layer height: 0.2
;MINX:71.141
;MINY:47.615
;MINZ:0.2
;MAXX:148.859
;MAXY:172.389
;MAXZ:7.2
;Generated with Cura_SteamEngine 4.9.0
M140 S85
M105
M190 S85
M104 S235
M105
M109 S235
M82 ;absolute extrusion mode
; Ender 3 Custom Start G-code
G92 E0 ; Reset Extruder
G28 ; Home all axes
M117 Auto bed-level GO!
G29 ; Auto bed-level (BL-Touch)
G92 E0 ; Reset Extruder
G1 Z2.0 F3000 ; Move Z Axis up little to prevent scratching of Heat Bed
G1 X0.1 Y20 Z0.3 F5000.0 ; Move to start position
G1 X0.1 Y200.0 Z0.3 F1500.0 E15 ; Draw the first line
G1 X0.4 Y200.0 Z0.3 F5000.0 ; Move to side a little
G1 X0.4 Y20 Z0.3 F1500.0 E30 ; Draw the second line
G92 E0 ; Reset Extruder
G1 Z2.0 F3000 ; Move Z Axis up little to prevent scratching of Heat Bed
G1 X5 Y20 Z0.3 F5000.0 ; Move over to prevent blob squish
G92 E0
G92 E0
G1 F3000 E-8
;LAYER_COUNT:35
;LAYER:0
M107
G1 F300 Z0.4
G0 F3000 X76.124 Y53.523 Z0.4
;TYPE:SKIRT
G1 F300 Z0.2
G1 F3000 E0.41575
G1 F600 X76.942 Y52.575 E0.45532
G1 X77.416 Y52.085 E0.47686
G1 X77.668 Y51.833 E0.48812
G1 X78.054 Y51.459 E0.5051
G1 X78.754 Y50.836 E0.53471
G1 X79.506 Y50.274 E0.56437
G1 X80.55 Y49.643 E0.60292
G1 X81.117 Y49.342 E0.6232
G1 X81.409 Y49.193 E0.63356
G1 X81.926 Y48.938 E0.65177
G1 X82.784 Y48.559 E0.68141
G1 X83.671 Y48.255 E0.71104
G1 X84.91 Y47.965 E0.75124
G1 X85.555 Y47.853 E0.77193
G1 X85.865 Y47.804 E0.78185
G1 X86.419 Y47.724 E0.79953
G1 X87.352 Y47.63 E0.82916
G1 X88.29 Y47.615 E0.8588
G1 X89.549 Y47.722 E0.89873
G1 X90.213 Y47.817 E0.91992
G1 X90.529 Y47.867 E0.93003
G1 X91.061 Y47.959 E0.94709
G1 X91.368 Y48.016 E0.95696
G1 X92.292 Y48.203 E0.98674
G1 X94.818 Y48.677 E1.06795
G1 X97.292 Y49.07 E1.1471
G1 X99.813 Y49.398 E1.22743
G1 X102.284 Y49.647 E1.3059
G1 X104.815 Y49.831 E1.38609
G1 X107.31 Y49.942 E1.465
G1 X109.861 Y49.983 E1.54561
G1 X112.349 Y49.952 E1.62423
G1 X114.88 Y49.849 E1.70427
G1 X117.381 Y49.677 E1.78348
G1 X119.893 Y49.432 E1.86323
G1 X122.379 Y49.119 E1.9424
G1 X124.878 Y48.731 E2.02231
G1 X128.039 Y48.138 E2.12393
G1 X128.526 Y48.038 E2.13964
G1 X128.845 Y47.977 E2.1499
G1 X129.543 Y47.855 E2.17229
G1 X129.868 Y47.804 E2.18269
G1 X130.423 Y47.724 E2.2004
G1 X131.356 Y47.629 E2.23004
G1 X132.294 Y47.615 E2.25968
G1 X133.552 Y47.722 E2.29957
G1 X134.215 Y47.817 E2.32073
G1 X134.525 Y47.866 E2.33065
G1 X135.064 Y47.959 E2.34793
G1 X135.981 Y48.158 E2.37758
G1 X136.877 Y48.434 E2.4072
G1 X138.039 Y48.924 E2.44705
G1 X138.626 Y49.212 E2.46771
G1 X138.918 Y49.36 E2.47805
G1 X139.416 Y49.623 E2.49585
G1 X140.226 Y50.096 E2.52549
G1 X140.992 Y50.636 E2.5551
G1 X141.926 Y51.443 E2.5941
G1 X142.414 Y51.915 E2.61555
G1 X142.667 Y52.168 E2.62686
G1 X143.041 Y52.554 E2.64384
G1 X143.664 Y53.254 E2.67345
G1 X144.226 Y54.006 E2.70311
G1 X144.857 Y55.05 E2.74166
G1 X145.158 Y55.617 E2.76194
G1 X145.311 Y55.917 E2.77258
G1 X145.564 Y56.431 E2.79068
G1 X145.942 Y57.29 E2.82034
G1 X146.246 Y58.177 E2.84997
G1 X146.529 Y59.383 E2.88911
G1 X146.643 Y60.031 E2.9099
G1 X146.697 Y60.371 E2.92077
G1 X146.778 Y60.934 E2.93875
G1 X146.849 Y61.548 E2.95828
G1 X146.891 Y62.035 E2.97372
G1 X147.144 Y64.541 E3.05331
G1 X147.474 Y67.082 E3.13427
G1 X147.864 Y69.547 E3.21312
G1 X148.404 Y72.395 E3.30472
G1 X148.454 Y72.641 E3.31265
G1 X148.514 Y72.957 E3.32281
G1 X148.637 Y73.659 E3.34533
G1 X148.692 Y74.008 E3.35649
G1 X148.754 Y74.444 E3.37041
G1 X148.847 Y75.378 E3.40007
G1 X148.859 Y76.315 E3.42968
G1 X148.754 Y77.543 E3.46862
G1 X148.673 Y78.112 E3.48678
G1 X148.622 Y78.436 E3.49714
G1 X148.539 Y78.916 E3.51253
G1 X148.302 Y79.974 E3.54679
G1 X147.61 Y82.474 E3.62875
G1 X147.011 Y84.905 E3.70786
G1 X146.472 Y87.389 E3.78818
G1 X146.013 Y89.85 E3.86728
G1 X145.616 Y92.357 E3.94748
G1 X145.297 Y94.829 E4.02624
G1 X145.047 Y97.306 E4.1049
G1 X144.862 Y99.875 E4.18628
G1 X144.754 Y102.335 E4.26409
G1 X144.714 Y104.894 E4.34495
G1 X144.746 Y107.383 E4.42361
G1 X144.85 Y109.927 E4.50406
G1 X145.023 Y112.407 E4.58261
G1 X145.271 Y114.945 E4.66318
G1 X145.582 Y117.396 E4.74125
G1 X145.972 Y119.908 E4.82157
G1 X146.434 Y122.408 E4.9019
G1 X146.955 Y124.843 E4.98058
G1 X147.543 Y127.259 E5.05915
G1 X148.157 Y129.475 E5.13181
G1 X148.322 Y130.097 E5.15214
G1 X148.525 Y131.021 E5.18203
G1 X148.637 Y131.661 E5.20256
G1 X148.692 Y132.008 E5.21366
G1 X148.754 Y132.444 E5.22758
G1 X148.847 Y133.378 E5.25723
G1 X148.859 Y134.315 E5.28684
G1 X148.754 Y135.543 E5.32579
G1 X148.673 Y136.112 E5.34395
G1 X148.622 Y136.435 E5.35428
G1 X148.413 Y137.64 E5.39292
G1 X148.139 Y139.105 E5.44001
G1 X147.743 Y141.603 E5.51993
G1 X147.422 Y144.089 E5.59913
G1 X147.17 Y146.588 E5.67849
G1 X146.987 Y149.138 E5.75927
G1 X146.879 Y151.598 E5.83708
G1 X146.839 Y154.139 E5.91738
G1 X146.88 Y156.993 E6.00756
G1 X146.885 Y157.139 E6.01218
G1 X146.874 Y158.077 E6.04182
G1 X146.779 Y159.042 E6.07246
G1 X146.683 Y159.713 E6.09388
G1 X146.635 Y160.016 E6.10357
G1 X146.543 Y160.552 E6.12075
G1 X146.346 Y161.469 E6.15039
G1 X146.07 Y162.365 E6.18001
G1 X145.581 Y163.53 E6.21993
G1 X145.292 Y164.12 E6.24069
G1 X145.14 Y164.418 E6.25126
G1 X144.877 Y164.916 E6.26906
G1 X144.404 Y165.726 E6.2987
G1 X143.864 Y166.492 E6.32831
G1 X143.057 Y167.426 E6.36731
G1 X142.585 Y167.914 E6.38876
G1 X142.332 Y168.167 E6.40007
G1 X141.946 Y168.541 E6.41705
G1 X141.246 Y169.164 E6.44666
G1 X140.494 Y169.726 E6.47632
G1 X139.451 Y170.356 E6.51482
G1 X138.886 Y170.656 E6.53504
G1 X138.593 Y170.806 E6.54544
G1 X138.074 Y171.062 E6.56372
G1 X137.216 Y171.441 E6.59336
G1 X136.329 Y171.745 E6.62299
G1 X135.09 Y172.035 E6.66319
G1 X134.445 Y172.147 E6.68388
G1 X134.111 Y172.2 E6.69456
G1 X133.541 Y172.281 E6.71276
G1 X132.607 Y172.373 E6.74241
G1 X131.686 Y172.386 E6.77151
G1 X131.421 Y172.379 E6.77989
G1 X128.879 Y172.346 E6.86022
G1 X126.193 Y172.389 E6.9451
G1 X125.256 Y172.364 E6.97471
G1 X124.474 Y172.281 E6.99956
G1 X121.539 Y171.864 E7.09323
G1 X119.01 Y171.571 E7.17367
G1 X116.515 Y171.352 E7.25281
G1 X114 Y171.203 E7.33242
G1 X111.478 Y171.126 E7.41214
G1 X108.954 Y171.119 E7.4919
G1 X106.457 Y171.184 E7.57082
G1 X103.954 Y171.319 E7.65002
G1 X101.422 Y171.528 E7.7303
G1 X98.948 Y171.802 E7.80895
G1 X96.953 Y172.086 E7.87262
G1 X96.783 Y172.103 E7.87802
G1 X95.552 Y172.279 E7.91731
G1 X94.619 Y172.372 E7.94694
G1 X93.686 Y172.386 E7.97642
G1 X93.421 Y172.379 E7.9848
G1 X90.878 Y172.346 E8.06515
G1 X88.193 Y172.389 E8.15
G1 X87.256 Y172.364 E8.17962
G1 X86.465 Y172.28 E8.20475
G1 X85.792 Y172.184 E8.22623
G1 X85.465 Y172.132 E8.2367
G1 X84.923 Y172.038 E8.25408
G1 X84.007 Y171.839 E8.2837
G1 X83.111 Y171.562 E8.31333
G1 X81.951 Y171.072 E8.35312
G1 X81.367 Y170.785 E8.37368
G1 X81.082 Y170.64 E8.38378
G1 X80.584 Y170.377 E8.40158
G1 X79.774 Y169.904 E8.43121
G1 X79.008 Y169.364 E8.46083
G1 X78.074 Y168.557 E8.49983
G1 X77.586 Y168.085 E8.52128
G1 X77.333 Y167.833 E8.53256
G1 X76.958 Y167.446 E8.54959
G1 X76.335 Y166.745 E8.57922
G1 X75.774 Y165.994 E8.60884
G1 X75.139 Y164.942 E8.64767
G1 X74.839 Y164.376 E8.66791
G1 X74.693 Y164.091 E8.67803
G1 X74.438 Y163.574 E8.69624
G1 X74.059 Y162.716 E8.72588
G1 X73.755 Y161.829 E8.75551
G1 X73.465 Y160.59 E8.79571
G1 X73.353 Y159.945 E8.8164
G1 X73.301 Y159.613 E8.82702
G1 X73.22 Y159.044 E8.84518
G1 X73.127 Y158.111 E8.8748
G1 X73.114 Y157.197 E8.90369
G1 X73.127 Y156.711 E8.91905
G1 X73.16 Y154.145 E9.00013
G1 X73.119 Y151.58 E9.08119
G1 X73.01 Y149.096 E9.15975
G1 X72.828 Y146.585 E9.2393
G1 X72.578 Y144.107 E9.318
G1 X72.25 Y141.58 E9.39851
G1 X71.859 Y139.109 E9.47756
G1 X71.683 Y138.173 E9.50765
G1 X71.362 Y136.335 E9.56661
G1 X71.308 Y135.995 E9.57749
G1 X71.246 Y135.56 E9.59137
G1 X71.153 Y134.627 E9.621
G1 X71.141 Y133.689 E9.65064
G1 X71.245 Y132.46 E9.68961
G1 X71.326 Y131.89 E9.7078
G1 X71.381 Y131.546 E9.71881
G1 X71.465 Y131.065 E9.73423
G1 X71.578 Y130.502 E9.75238
G1 X71.709 Y129.98 E9.76938
G1 X72.394 Y127.508 E9.85044
G1 X72.996 Y125.068 E9.92984
G1 X73.521 Y122.64 E10.00833
G1 X73.988 Y120.149 E10.08841
G1 X74.379 Y117.679 E10.16743
G1 X74.706 Y115.14 E10.24832
G1 X74.954 Y112.689 E10.32616
G1 X75.138 Y110.127 E10.40732
G1 X75.246 Y107.665 E10.48519
G1 X75.286 Y105.105 E10.56608
G1 X75.254 Y102.617 E10.6447
G1 X75.15 Y100.072 E10.72519
G1 X74.977 Y97.592 E10.80374
G1 X74.729 Y95.055 E10.88428
G1 X74.418 Y92.604 E10.96235
G1 X74.028 Y90.092 E11.04267
G1 X73.568 Y87.602 E11.12268
G1 X73.05 Y85.177 E11.20103
G1 X72.451 Y82.723 E11.28085
G1 X71.843 Y80.525 E11.3529
G1 X71.678 Y79.903 E11.37324
G1 X71.475 Y78.979 E11.40313
G1 X71.363 Y78.339 E11.42366
G1 X71.308 Y77.995 E11.43467
G1 X71.246 Y77.56 E11.44855
G1 X71.153 Y76.627 E11.47818
G1 X71.141 Y75.689 E11.50782
G1 X71.245 Y74.46 E11.54679
G1 X71.326 Y73.89 E11.56498
G1 X71.378 Y73.564 E11.57541
G1 X71.461 Y73.084 E11.5908
G1 X71.518 Y72.777 E11.60067
G1 X71.667 Y72.04 E11.62443
G1 X72.143 Y69.503 E11.70599
G1 X72.539 Y66.996 E11.78618
G1 X72.855 Y64.552 E11.86405
G1 X73.148 Y61.597 E11.95788
G1 X73.218 Y60.982 E11.97744
G1 X73.316 Y60.294 E11.99939
G1 X73.366 Y59.975 E12.0096
G1 X73.459 Y59.436 E12.02688
G1 X73.658 Y58.519 E12.05653
G1 X73.934 Y57.623 E12.08615
G1 X74.424 Y56.461 E12.126
G1 X74.712 Y55.874 E12.14666
G1 X74.852 Y55.597 E12.15646
G1 X75.113 Y55.101 E12.17417
G1 X75.585 Y54.29 E12.20382
G1 X76.124 Y53.523 E12.23344
G0 F3000 X76.462 Y53.739
G1 F600 X77.229 Y52.853 E12.27047
G1 X77.703 Y52.363 E12.29201
G1 X77.946 Y52.12 E12.30287
G1 X78.332 Y51.746 E12.31985
G1 X79.02 Y51.135 E12.34893
G1 X79.759 Y50.586 E12.37802
G1 X80.738 Y49.996 E12.41413
G1 X81.305 Y49.695 E12.43442
G1 X81.586 Y49.551 E12.44439
G1 X82.103 Y49.296 E12.46261
G1 X82.946 Y48.925 E12.49171
G1 X83.817 Y48.629 E12.52078
G1 X84.979 Y48.359 E12.55847
G1 X85.624 Y48.247 E12.57916
G1 X85.922 Y48.2 E12.58869
G1 X86.476 Y48.12 E12.60637
G1 X87.392 Y48.028 E12.63546
G1 X88.313 Y48.016 E12.66457
G1 X89.492 Y48.118 E12.70196
G1 X90.156 Y48.213 E12.72315
G1 X90.461 Y48.261 E12.73291
G1 X90.993 Y48.353 E12.74997
G1 X91.289 Y48.408 E12.75948
G1 X92.218 Y48.596 E12.78943
G1 X94.753 Y49.072 E12.87093
G1 X97.249 Y49.468 E12.95078
G1 X99.754 Y49.794 E13.0306
G1 X102.251 Y50.046 E13.1099
G1 X104.804 Y50.231 E13.19078
G1 X107.285 Y50.342 E13.26925
G1 X109.86 Y50.383 E13.35062
G1 X112.369 Y50.352 E13.4299
G1 X114.89 Y50.249 E13.50963
G1 X117.411 Y50.076 E13.58947
G1 X119.946 Y49.828 E13.66995
G1 X122.459 Y49.512 E13.74998
G1 X124.917 Y49.131 E13.82857
G1 X128.138 Y48.526 E13.93213
G1 X128.607 Y48.43 E13.94725
G1 X128.914 Y48.371 E13.95713
G1 X129.612 Y48.249 E13.97952
G1 X129.925 Y48.199 E13.98954
G1 X130.48 Y48.119 E14.00725
G1 X131.396 Y48.028 E14.03634
G1 X132.316 Y48.016 E14.06541
G1 X133.495 Y48.118 E14.1028
G1 X134.158 Y48.213 E14.12397
G1 X134.457 Y48.26 E14.13353
G1 X134.996 Y48.353 E14.15081
G1 X135.896 Y48.549 E14.17992
G1 X136.775 Y48.822 E14.209
G1 X137.863 Y49.283 E14.24634
G1 X138.45 Y49.571 E14.26699
G1 X138.731 Y49.714 E14.27696
G1 X139.229 Y49.977 E14.29475
G1 X140.024 Y50.442 E14.32385
G1 X140.775 Y50.974 E14.35293
G1 X141.648 Y51.731 E14.38944
G1 X142.136 Y52.203 E14.4109
G1 X142.38 Y52.446 E14.42178
G1 X142.754 Y52.832 E14.43876
G1 X143.365 Y53.52 E14.46783
G1 X143.914 Y54.259 E14.49692
G1 X144.504 Y55.238 E14.53304
G1 X144.805 Y55.805 E14.55332
G1 X144.952 Y56.094 E14.56357
G1 X145.205 Y56.608 E14.58167
G1 X145.576 Y57.451 E14.61077
G1 X145.871 Y58.323 E14.63986
G1 X146.135 Y59.452 E14.67649
G1 X146.249 Y60.1 E14.69728
G1 X146.301 Y60.427 E14.70774
G1 X146.382 Y60.99 E14.72572
G1 X146.45 Y61.583 E14.74458
G1 X146.49 Y62.042 E14.75913
G1 X146.748 Y64.597 E14.84028
G1 X147.075 Y67.12 E14.92066
G1 X147.47 Y69.617 E15.00054
G1 X148.016 Y72.497 E15.09316
G1 X148.062 Y72.722 E15.10042
G1 X148.12 Y73.026 E15.1102
G1 X148.243 Y73.728 E15.13272
G1 X148.296 Y74.065 E15.14349
G1 X148.358 Y74.501 E15.15741
G1 X148.448 Y75.417 E15.18649
G1 X148.458 Y76.338 E15.21559
G1 X148.358 Y77.487 E15.25204
G1 X148.277 Y78.056 E15.2702
G1 X148.228 Y78.368 E15.28018
G1 X148.145 Y78.848 E15.29557
G1 X147.916 Y79.868 E15.3286
G1 X147.229 Y82.353 E15.41006
G1 X146.618 Y84.83 E15.49068
G1 X146.082 Y87.303 E15.57063
G1 X145.618 Y89.785 E15.65041
G1 X145.224 Y92.275 E15.73007
G1 X144.897 Y94.809 E15.8108
G1 X144.648 Y97.273 E15.88905
G1 X144.464 Y99.827 E15.96996
G1 X144.354 Y102.347 E16.04966
G1 X144.314 Y104.893 E16.13012
G1 X144.346 Y107.404 E16.20946
G1 X144.45 Y109.938 E16.2896
G1 X144.625 Y112.438 E16.36878
G1 X144.871 Y114.963 E16.44894
G1 X145.195 Y117.512 E16.53013
G1 X145.577 Y119.971 E16.60876
G1 X146.036 Y122.46 E16.68873
G1 X146.567 Y124.942 E16.76893
G1 X147.151 Y127.341 E16.84695
G1 X147.771 Y129.577 E16.92026
G1 X147.936 Y130.199 E16.9406
G1 X148.131 Y131.09 E16.96942
G1 X148.243 Y131.73 E16.98995
G1 X148.296 Y132.065 E17.00066
G1 X148.358 Y132.501 E17.01458
G1 X148.448 Y133.417 E17.04366
G1 X148.458 Y134.338 E17.07276
G1 X148.358 Y135.487 E17.10921
G1 X148.277 Y136.056 E17.12737
G1 X148.228 Y136.367 E17.13731
G1 X148.02 Y137.567 E17.1758
G1 X147.743 Y139.047 E17.22337
G1 X147.345 Y141.56 E17.30376
G1 X147.026 Y144.029 E17.38243
G1 X146.772 Y146.555 E17.46264
G1 X146.589 Y149.09 E17.54295
G1 X146.479 Y151.61 E17.62265
G1 X146.439 Y154.139 E17.70257
G1 X146.481 Y157.01 E17.79329
G1 X146.485 Y157.151 E17.79775
G1 X146.474 Y158.072 E17.82685
G1 X146.383 Y158.985 E17.85585
G1 X146.287 Y159.656 E17.87726
G1 X146.241 Y159.948 E17.8866
G1 X146.149 Y160.484 E17.90379
G1 X145.954 Y161.384 E17.93288
G1 X145.682 Y162.263 E17.96196
G1 X145.221 Y163.354 E17.99938
G1 X144.932 Y163.944 E18.02014
G1 X144.786 Y164.231 E18.03031
G1 X144.523 Y164.729 E18.04811
G1 X144.058 Y165.524 E18.07721
G1 X143.526 Y166.275 E18.10629
G1 X142.769 Y167.148 E18.1428
G1 X142.297 Y167.636 E18.16425
G1 X142.054 Y167.88 E18.17513
G1 X141.668 Y168.254 E18.19212
G1 X140.98 Y168.865 E18.22119
G1 X140.241 Y169.414 E18.25028
G1 X139.263 Y170.003 E18.28635
G1 X138.698 Y170.303 E18.30656
G1 X138.416 Y170.447 E18.31657
G1 X137.897 Y170.703 E18.33486
G1 X137.055 Y171.074 E18.36393
G1 X136.183 Y171.371 E18.39303
G1 X135.021 Y171.641 E18.43073
G1 X134.376 Y171.753 E18.45141
G1 X134.054 Y171.804 E18.46172
G1 X133.484 Y171.885 E18.47991
G1 X132.568 Y171.974 E18.50899
G1 X131.697 Y171.986 E18.53651
G1 X131.437 Y171.979 E18.54473
G1 X128.878 Y171.946 E18.62559
G1 X126.187 Y171.989 E18.71063
G1 X125.266 Y171.963 E18.73974
G1 X124.53 Y171.885 E18.76313
G1 X121.569 Y171.464 E18.85763
G1 X119.055 Y171.173 E18.93759
G1 X116.575 Y170.955 E19.01626
G1 X114 Y170.803 E19.09776
G1 X111.491 Y170.726 E19.17708
G1 X108.945 Y170.719 E19.25752
G1 X106.461 Y170.783 E19.33604
G1 X103.898 Y170.921 E19.41714
G1 X101.381 Y171.129 E19.49694
G1 X98.913 Y171.403 E19.5754
G1 X96.897 Y171.69 E19.63974
G1 X96.73 Y171.706 E19.64504
G1 X95.495 Y171.883 E19.68446
G1 X94.579 Y171.974 E19.71355
G1 X93.697 Y171.986 E19.74142
G1 X93.437 Y171.979 E19.74964
G1 X90.877 Y171.946 E19.83053
G1 X88.187 Y171.989 E19.91554
G1 X87.267 Y171.963 E19.94462
G1 X86.521 Y171.884 E19.96832
G1 X85.848 Y171.788 E19.9898
G1 X85.534 Y171.738 E19.99985
G1 X84.992 Y171.644 E20.01723
G1 X84.092 Y171.448 E20.04634
G1 X83.213 Y171.174 E20.07543
G1 X82.128 Y170.713 E20.11268
G1 X81.544 Y170.426 E20.13324
G1 X81.269 Y170.286 E20.14299
G1 X80.771 Y170.023 E20.16078
G1 X79.976 Y169.558 E20.18988
G1 X79.225 Y169.026 E20.21896
G1 X78.352 Y168.269 E20.25547
G1 X77.864 Y167.797 E20.27693
G1 X77.621 Y167.554 E20.28778
G1 X77.246 Y167.167 E20.30481
G1 X76.634 Y166.479 E20.33391
G1 X76.085 Y165.74 E20.363
G1 X75.492 Y164.755 E20.39932
G1 X75.192 Y164.189 E20.41956
G1 X75.051 Y163.914 E20.42933
G1 X74.796 Y163.397 E20.44754
G1 X74.425 Y162.554 E20.47665
G1 X74.129 Y161.683 E20.50571
G1 X73.859 Y160.521 E20.54341
G1 X73.747 Y159.876 E20.56409
G1 X73.697 Y159.557 E20.57429
G1 X73.616 Y158.988 E20.59245
G1 X73.526 Y158.072 E20.62154
G1 X73.514 Y157.208 E20.64884
G1 X73.527 Y156.728 E20.66401
G1 X73.56 Y154.126 E20.74623
G1 X73.519 Y151.593 E20.82628
G1 X73.408 Y149.051 E20.90668
G1 X73.227 Y146.546 E20.98603
G1 X72.975 Y144.056 E21.06511
G1 X72.648 Y141.532 E21.14553
G1 X72.254 Y139.044 E21.22512
G1 X72.077 Y138.105 E21.25532
