;FLAVOR:Marlin
;TIME:4906
;Filament used: 1.68322m
;Layer height: 0.2
;MINX:27.5
;MINY:56.467
;MINZ:0.2
;MAXX:192.5
;MAXY:163.467
;MAXZ:5.4
;Generated with Cura_SteamEngine 4.9.0
M140 S80
M105
M190 S80
M104 S250
M105
M109 S250
M82 ;absolute extrusion mode
; Ender 3 Custom Start G-code
G92 E0 ; Reset Extruder
G28 ; Home all axes
M117 Auto bed-level GO!
G29 ; Auto bed-level (BL-Touch)
G92 E0 ; Reset Extruder
G1 Z2.0 F3000 ; Move Z Axis up little to prevent scratching of Heat Bed
G1 X0.1 Y20 Z0.3 F5000.0 ; Move to start position
G1 X0.1 Y200.0 Z0.3 F1500.0 E15 ; Draw the first line
G1 X0.4 Y200.0 Z0.3 F5000.0 ; Move to side a little
G1 X0.4 Y20 Z0.3 F1500.0 E30 ; Draw the second line
G92 E0 ; Reset Extruder
G1 Z2.0 F3000 ; Move Z Axis up little to prevent scratching of Heat Bed
G1 X5 Y20 Z0.3 F5000.0 ; Move over to prevent blob squish
G92 E0
G92 E0
G1 F2700 E-6
;LAYER_COUNT:27
;LAYER:0
M107
G0 F3000 X32.912 Y58.006 Z0.2
;TYPE:SKIRT
G1 F2700 E0
G1 F600 X33.739 Y57.564 E0.03119
G1 X34.601 Y57.194 E0.06239
G1 X35.491 Y56.898 E0.09358
G1 X36.403 Y56.68 E0.12477
G1 X37.33 Y56.539 E0.15596
G1 X38.201 Y56.48 E0.18499
G1 X38.522 Y56.471 E0.19567
G1 X38.83 Y56.467 E0.20592
G1 X180.793 Y56.467 E4.92763
G1 X181.649 Y56.478 E4.9561
G1 X182.585 Y56.532 E4.98728
G1 X183.513 Y56.664 E5.01846
G1 X184.427 Y56.876 E5.04967
G1 X185.319 Y57.165 E5.08085
G1 X186.184 Y57.528 E5.11205
G1 X187.014 Y57.964 E5.14324
G1 X187.805 Y58.469 E5.17445
G1 X188.549 Y59.04 E5.20564
G1 X189.242 Y59.672 E5.23684
G1 X189.879 Y60.36 E5.26802
G1 X190.454 Y61.101 E5.29922
G1 X190.965 Y61.887 E5.3304
G1 X191.407 Y62.715 E5.36162
G1 X191.776 Y63.577 E5.39281
G1 X192.071 Y64.467 E5.42399
G1 X192.289 Y65.379 E5.45518
G1 X192.429 Y66.307 E5.48639
G1 X192.487 Y67.168 E5.5151
G1 X192.496 Y67.488 E5.52574
G1 X192.5 Y67.797 E5.53602
G1 X192.499 Y151.867 E8.3322
G1 X192.49 Y152.594 E8.35638
G1 X192.439 Y153.531 E8.38759
G1 X192.307 Y154.459 E8.41877
G1 X192.098 Y155.373 E8.44995
G1 X191.811 Y156.266 E8.48115
G1 X191.449 Y157.132 E8.51237
G1 X191.015 Y157.963 E8.54355
G1 X190.511 Y158.754 E8.57475
G1 X189.942 Y159.499 E8.60593
G1 X189.311 Y160.194 E8.63715
G1 X188.624 Y160.832 E8.66833
G1 X187.885 Y161.409 E8.69952
G1 X187.099 Y161.921 E8.73071
G1 X186.273 Y162.364 E8.76189
G1 X185.411 Y162.736 E8.79312
G1 X184.522 Y163.032 E8.82428
G1 X183.61 Y163.252 E8.85548
G1 X182.683 Y163.393 E8.88667
G1 X181.799 Y163.454 E8.91614
G1 X181.478 Y163.463 E8.92682
G1 X181.17 Y163.467 E8.93707
G1 X39.065 Y163.466 E13.6635
G1 X38.367 Y163.457 E13.68672
G1 X37.431 Y163.405 E13.7179
G1 X36.502 Y163.273 E13.7491
G1 X35.588 Y163.063 E13.7803
G1 X34.695 Y162.776 E13.81149
G1 X33.83 Y162.413 E13.84269
G1 X32.999 Y161.979 E13.87388
G1 X32.208 Y161.475 E13.90507
G1 X31.463 Y160.905 E13.93627
G1 X30.769 Y160.274 E13.96747
G1 X30.132 Y159.587 E13.99863
G1 X29.555 Y158.847 E14.02984
G1 X29.043 Y158.061 E14.06104
G1 X28.6 Y157.234 E14.09224
G1 X28.229 Y156.373 E14.12343
G1 X27.933 Y155.483 E14.15462
G1 X27.714 Y154.571 E14.18582
G1 X27.573 Y153.644 E14.217
G1 X27.513 Y152.755 E14.24664
G1 X27.504 Y152.422 E14.25772
G1 X27.5 Y152.125 E14.2676
G1 X27.501 Y67.992 E17.06587
G1 X27.51 Y67.327 E17.08799
G1 X27.563 Y66.391 E17.11917
G1 X27.695 Y65.462 E17.15038
G1 X27.906 Y64.548 E17.18158
G1 X28.194 Y63.656 E17.21276
G1 X28.557 Y62.791 E17.24396
G1 X28.992 Y61.96 E17.27516
G1 X29.496 Y61.17 E17.30632
G1 X30.066 Y60.425 E17.33752
G1 X30.698 Y59.731 E17.36874
G1 X31.386 Y59.094 E17.39993
G1 X32.126 Y58.518 E17.43112
G1 X32.912 Y58.006 E17.46232
G0 F3000 X33.291 Y58.249
G1 F600 X34.111 Y57.831 E17.49293
G1 X34.965 Y57.486 E17.52356
G1 X35.845 Y57.216 E17.55418
G1 X36.745 Y57.024 E17.58479
G1 X37.659 Y56.91 E17.61542
G1 X38.212 Y56.88 E17.63384
G1 X38.533 Y56.871 E17.64452
G1 X38.83 Y56.867 E17.6544
G1 X180.793 Y56.867 E22.37611
G1 X181.643 Y56.878 E22.40438
G1 X182.562 Y56.931 E22.435
G1 X183.473 Y57.064 E22.46562
G1 X184.369 Y57.275 E22.49624
G1 X185.243 Y57.563 E22.52685
G1 X186.09 Y57.926 E22.55749
G1 X186.901 Y58.361 E22.5881
G1 X187.671 Y58.865 E22.61871
G1 X188.395 Y59.434 E22.64934
G1 X189.067 Y60.064 E22.67998
G1 X189.682 Y60.749 E22.71059
G1 X190.235 Y61.485 E22.74121
G1 X190.722 Y62.266 E22.77183
G1 X191.139 Y63.087 E22.80245
G1 X191.484 Y63.941 E22.83309
G1 X191.753 Y64.821 E22.86369
G1 X191.945 Y65.722 E22.89433
G1 X192.058 Y66.635 E22.92493
G1 X192.087 Y67.179 E22.94305
G1 X192.096 Y67.499 E22.9537
G1 X192.1 Y67.797 E22.96361
G1 X192.099 Y151.862 E25.75962
G1 X192.09 Y152.589 E25.78381
G1 X192.039 Y153.508 E25.81442
G1 X191.908 Y154.42 E25.84506
G1 X191.698 Y155.316 E25.87567
G1 X191.412 Y156.191 E25.90629
G1 X191.051 Y157.038 E25.93691
G1 X190.617 Y157.85 E25.96754
G1 X190.115 Y158.622 E25.99816
G1 X189.547 Y159.347 E26.0288
G1 X188.919 Y160.02 E26.05941
G1 X188.235 Y160.636 E26.09003
G1 X187.5 Y161.19 E26.12064
G1 X186.72 Y161.679 E26.15126
G1 X185.9 Y162.098 E26.18189
G1 X185.047 Y162.444 E26.21251
G1 X184.167 Y162.715 E26.24313
G1 X183.267 Y162.908 E26.27375
G1 X182.353 Y163.023 E26.30438
G1 X181.788 Y163.054 E26.3232
G1 X181.467 Y163.063 E26.33389
G1 X181.17 Y163.067 E26.34376
G1 X39.07 Y163.066 E31.07003
G1 X38.372 Y163.057 E31.09325
G1 X37.453 Y163.005 E31.12386
G1 X36.542 Y162.874 E31.15447
G1 X35.646 Y162.664 E31.18508
G1 X34.771 Y162.377 E31.21571
G1 X33.924 Y162.015 E31.24635
G1 X33.112 Y161.581 E31.27697
G1 X32.341 Y161.079 E31.30757
G1 X31.616 Y160.511 E31.3382
G1 X30.943 Y159.882 E31.36884
G1 X30.328 Y159.198 E31.39943
G1 X29.774 Y158.463 E31.43005
G1 X29.286 Y157.682 E31.46068
G1 X28.867 Y156.862 E31.49131
G1 X28.521 Y156.009 E31.52192
G1 X28.251 Y155.129 E31.55254
G1 X28.058 Y154.228 E31.58318
G1 X27.944 Y153.315 E31.61379
G1 X27.913 Y152.744 E31.63281
G1 X27.904 Y152.411 E31.64389
G1 X27.9 Y152.125 E31.6534
G1 X27.901 Y67.998 E34.45147
G1 X27.91 Y67.333 E34.47359
G1 X27.962 Y66.413 E34.50424
G1 X28.094 Y65.502 E34.53486
G1 X28.305 Y64.606 E34.56548
G1 X28.592 Y63.731 E34.5961
G1 X28.955 Y62.885 E34.62672
G1 X29.389 Y62.073 E34.65735
G1 X29.892 Y61.302 E34.68796
G1 X30.461 Y60.578 E34.71859
G1 X31.089 Y59.906 E34.74918
G1 X31.774 Y59.29 E34.77982
G1 X32.51 Y58.737 E34.81044
G1 X33.291 Y58.249 E34.84107
G0 F3000 X33.669 Y58.498
G1 F600 X34.482 Y58.105 E34.87111
G1 X35.327 Y57.785 E34.90116
G1 X36.196 Y57.542 E34.93117
G1 X37.084 Y57.376 E34.96122
G1 X38.223 Y57.28 E34.99923
G1 X38.544 Y57.271 E35.00992
G1 X38.83 Y57.267 E35.01943
G1 X180.793 Y57.267 E39.74114
G1 X181.637 Y57.278 E39.76921
G1 X182.539 Y57.331 E39.79926
G1 X183.432 Y57.463 E39.82929
G1 X184.31 Y57.674 E39.85932
G1 X185.166 Y57.962 E39.88936
G1 X185.993 Y58.324 E39.91939
G1 X186.785 Y58.759 E39.94944
G1 X187.536 Y59.261 E39.97948
G1 X188.239 Y59.828 E40.00952
G1 X188.889 Y60.455 E40.03956
G1 X189.481 Y61.137 E40.0696
G1 X190.011 Y61.868 E40.09963
G1 X190.473 Y62.644 E40.12967
G1 X190.866 Y63.457 E40.1597
G1 X191.184 Y64.302 E40.18973
G1 X191.427 Y65.172 E40.21978
G1 X191.592 Y66.06 E40.24982
G1 X191.687 Y67.19 E40.28753
G1 X191.696 Y67.51 E40.29818
G1 X191.7 Y67.797 E40.30773
G1 X191.699 Y151.857 E43.10357
G1 X191.69 Y152.584 E43.12776
G1 X191.639 Y153.486 E43.1578
G1 X191.508 Y154.38 E43.18786
G1 X191.299 Y155.258 E43.21787
G1 X191.013 Y156.115 E43.24792
G1 X190.652 Y156.943 E43.27797
G1 X190.22 Y157.735 E43.30797
G1 X189.719 Y158.487 E43.33803
G1 X189.153 Y159.191 E43.36807
G1 X188.528 Y159.842 E43.39809
G1 X187.847 Y160.436 E43.42814
G1 X187.116 Y160.967 E43.45819
G1 X186.342 Y161.431 E43.48821
G1 X185.529 Y161.825 E43.51826
G1 X184.685 Y162.145 E43.54828
G1 X183.815 Y162.39 E43.57834
G1 X182.928 Y162.556 E43.60835
G1 X181.777 Y162.654 E43.64677
G1 X181.456 Y162.663 E43.65746
G1 X181.17 Y162.667 E43.66697
G1 X39.075 Y162.666 E48.39307
G1 X38.377 Y162.657 E48.41628
G1 X37.476 Y162.606 E48.4463
G1 X36.582 Y162.474 E48.47636
G1 X35.704 Y162.265 E48.50638
G1 X34.847 Y161.978 E48.53644
G1 X34.02 Y161.617 E48.56645
G1 X33.227 Y161.184 E48.5965
G1 X32.476 Y160.683 E48.62653
G1 X31.772 Y160.117 E48.65657
G1 X31.121 Y159.491 E48.68661
G1 X30.528 Y158.81 E48.71664
G1 X29.998 Y158.079 E48.74667
G1 X29.534 Y157.304 E48.77672
G1 X29.14 Y156.491 E48.80677
G1 X28.82 Y155.647 E48.83679
G1 X28.576 Y154.777 E48.86684
G1 X28.41 Y153.889 E48.89689
G1 X28.313 Y152.734 E48.93544
G1 X28.304 Y152.401 E48.94652
G1 X28.3 Y152.125 E48.9557
G1 X28.301 Y68.003 E51.75361
G1 X28.31 Y67.338 E51.77573
G1 X28.362 Y66.436 E51.80578
G1 X28.494 Y65.543 E51.8358
G1 X28.704 Y64.665 E51.86583
G1 X28.991 Y63.808 E51.89589
G1 X29.353 Y62.981 E51.92591
G1 X29.786 Y62.189 E51.95593
G1 X30.288 Y61.438 E51.98598
G1 X30.855 Y60.734 E52.01604
G1 X31.481 Y60.084 E52.04606
G1 X32.162 Y59.491 E52.07609
G1 X32.894 Y58.961 E52.10615
G1 X33.669 Y58.498 E52.13618
G1 F2700 E46.13618
;MESH:HIK_Connections-pimount_v2.stl
G0 F3000 X50.153 Y70.62
G0 X49.1 Y69.567
G0 X166.928 Y69.539
G0 X166.928 Y76.539
G0 X171.535 Y76.528
G0 X177.928 Y77.039
G0 X177.928 Y122.895
G0 X171.535 Y123.406
G0 X166.928 Y123.395
G0 X166.935 Y128.554
G0 X168.902 Y130.011
G0 X169.611 Y130.373
G0 X171.836 Y131.008
;TYPE:WALL-INNER
G1 F2700 E52.13618
G1 F600 X171.897 Y130.998 E52.13823
G1 X172.418 Y130.733 E52.15768
G1 X172.932 Y130.471 E52.17686
G1 X173.754 Y129.649 E52.21553
G1 X174.281 Y128.614 E52.25416
G1 X174.462 Y127.467 E52.29278
G1 X174.281 Y126.319 E52.33143
G1 X173.754 Y125.285 E52.37003
G1 X172.932 Y124.462 E52.40872
G1 X172.418 Y124.201 E52.4279
G1 X171.896 Y123.936 E52.44737
G1 X171.835 Y123.926 E52.44942
G1 X171.892 Y123.917
G1 X172.471 Y123.826 E52.46009
G1 X172.74 Y123.783 E52.46915
G1 X173.36 Y123.467 E52.4923
G1 X178.5 Y123.467 E52.66326
G1 X178.5 Y76.467 E54.22648
G1 X177.457 Y76.467 E54.26117
G1 X176.75 Y76.467 E54.28469
G1 X176.043 Y76.467 E54.3082
G1 X173.36 Y76.467 E54.39744
G1 X172.797 Y76.18 E54.41846
G1 X172.74 Y76.15 E54.4206
G1 X171.578 Y75.967 E54.45972
G1 X167.5 Y75.967 E54.59536
G1 X167.5 Y68.967 E54.82818
G1 X48.5 Y68.967 E58.78614
G1 X48.5 Y75.967 E59.01896
G1 X48.422 Y75.967 E59.02155
G1 X47.26 Y76.15 E59.06068
G1 X46.64 Y76.467 E59.08384
G1 X43.957 Y76.467 E59.17307
G1 X43.25 Y76.467 E59.19659
G1 X42.543 Y76.467 E59.2201
G1 X41.5 Y76.467 E59.25479
G1 X41.5 Y123.467 E60.81802
G1 X42.543 Y123.467 E60.85271
G1 X43.25 Y123.467 E60.87622
G1 X43.957 Y123.467 E60.89974
G1 X46.64 Y123.467 E60.98898
G1 X47.26 Y123.783 E61.01212
G1 X48.422 Y123.967 E61.05125
G1 X48.5 Y123.967 E61.05385
G1 X48.5 Y130.967 E61.28667
G1 X48.422 Y130.967 E61.28926
G1 X47.26 Y131.15 E61.32839
G1 X46.141 Y131.722 E61.37018
G1 X45.897 Y131.967 E61.38168
G1 X41.5 Y131.967 E61.52793
G1 X41.5 Y149.967 E62.12661
G1 X178.5 Y149.967 E66.68325
G1 X178.5 Y131.967 E67.28193
G1 X174.103 Y131.967 E67.42818
G1 X173.859 Y131.722 E67.43968
G1 X172.797 Y131.18 E67.47933
G1 X172.74 Y131.15 E67.48148
G1 X172.472 Y131.108 E67.4905
G1 X171.894 Y131.018 E67.50116
G1 X171.836 Y131.008
G0 F3000 X171.772 Y130.613
G1 F600 X172.694 Y130.143 E67.53558
G1 X173.426 Y129.411 E67.57001
G1 X173.896 Y128.489 E67.60443
G1 X174.057 Y127.467 E67.63884
G1 X173.896 Y126.444 E67.67329
G1 X173.426 Y125.523 E67.70768
G1 X172.694 Y124.79 E67.74213
G1 X171.771 Y124.321 E67.77657
G1 X170.75 Y124.16 E67.81094
G1 X169.729 Y124.321 E67.84532
G1 X168.806 Y124.79 E67.87976
G1 X168.074 Y125.523 E67.91421
G1 X167.604 Y126.444 E67.9486
G1 X167.498 Y127.114 E67.97116
G1 X167.443 Y127.467 E67.98305
G1 X167.498 Y127.819 E67.9949
G1 X167.604 Y128.489 E68.01746
G1 X168.074 Y129.411 E68.05188
G1 X168.806 Y130.143 E68.08631
G1 X169.728 Y130.613 E68.12073
G1 X170.75 Y130.774 E68.15514
G1 X171.772 Y130.613 E68.18955
G1 F2700 E62.18955
G0 F3000 X170.75 Y130.611
G0 X169.876 Y130.475
G0 X168.832 Y130.026
G0 X169.044 Y129.815
;TYPE:WALL-OUTER
G1 F2700 E68.18955
G1 F600 X169.853 Y130.228 E68.21976
G1 X170.75 Y130.369 E68.24996
G1 X171.647 Y130.228 E68.28016
G1 X172.456 Y129.815 E68.31037
G1 X173.098 Y129.173 E68.34057
G1 X173.511 Y128.364 E68.37078
G1 X173.652 Y127.467 E68.40098
G1 X173.511 Y126.569 E68.43122
G1 X173.098 Y125.761 E68.4614
G1 X172.456 Y125.118 E68.49162
G1 X171.646 Y124.706 E68.52185
G1 X170.75 Y124.565 E68.55201
G1 X169.854 Y124.706 E68.58218
G1 X169.044 Y125.118 E68.61241
G1 X168.402 Y125.761 E68.64263
G1 X167.989 Y126.569 E68.67281
G1 X167.848 Y127.467 E68.70304
G1 X167.989 Y128.364 E68.73324
G1 X168.402 Y129.173 E68.76345
G1 X169.044 Y129.815 E68.79365
G0 F3000 X168.786 Y130.17
G1 F2700 E62.79365
G0 F3000 X168.206 Y129.315
G0 X167.758 Y128.439
G0 X167.606 Y127.467
G0 X167.758 Y126.494
G0 X168.206 Y125.619
G0 X169.636 Y123.406
G0 X171.535 Y123.406
G0 X177.928 Y122.895
G0 X177.928 Y77.039
G0 X175.603 Y75.998
;TYPE:WALL-INNER
G1 F2700 E68.79365
G1 F600 X176.052 Y76.069 E68.80877
G1 X176.75 Y76.179 E68.82901
G1 X177.448 Y76.069 E68.84925
G1 X177.897 Y75.998 E68.86437
G1 X178.932 Y75.471 E68.903
G1 X179.754 Y74.649 E68.94166
G1 X180.111 Y73.948 E68.96783
G1 X180.281 Y73.614 E68.98029
G1 X180.462 Y72.467 E69.01892
G1 X180.281 Y71.319 E69.05757
G1 X180.112 Y70.986 E69.06999
G1 X179.754 Y70.285 E69.09617
G1 X178.932 Y69.462 E69.13486
G1 X177.896 Y68.936 E69.1735
G1 X177.448 Y68.865 E69.18859
G1 X176.75 Y68.755 E69.21209
G1 X176.052 Y68.865 E69.23559
G1 X175.604 Y68.936 E69.25068
G1 X174.568 Y69.462 E69.28932
G1 X173.746 Y70.285 E69.32801
G1 X173.219 Y71.319 E69.36661
G1 X173.038 Y72.467 E69.40527
G1 X173.219 Y73.614 E69.44389
G1 X173.746 Y74.649 E69.48252
G1 X174.568 Y75.471 E69.52118
G1 X175.603 Y75.998 E69.55981
G0 F3000 X175.728 Y75.613
G1 F600 X176.75 Y75.774 E69.59422
G1 X177.772 Y75.613 E69.62863
G1 X178.694 Y75.143 E69.66305
G1 X179.426 Y74.411 E69.69749
G1 X179.896 Y73.489 E69.73191
G1 X180.057 Y72.467 E69.76632
G1 X179.896 Y71.444 E69.80076
G1 X179.426 Y70.523 E69.83515
G1 X178.694 Y69.79 E69.86961
G1 X177.771 Y69.321 E69.90404
G1 X176.75 Y69.16 E69.93842
G1 X175.729 Y69.321 E69.9728
G1 X174.806 Y69.79 E70.00723
G1 X174.074 Y70.523 E70.04169
G1 X173.604 Y71.444 E70.07608
G1 X173.443 Y72.467 E70.11052
G1 X173.604 Y73.489 E70.14493
G1 X174.074 Y74.411 E70.17935
G1 X174.806 Y75.143 E70.21378
G1 X175.728 Y75.613 E70.2482
G0 F3000 X175.853 Y75.228
;TYPE:WALL-OUTER
G1 F600 X176.75 Y75.369 E70.27841
G1 X177.647 Y75.228 E70.30861
G1 X178.456 Y74.815 E70.33882
G1 X179.098 Y74.173 E70.36901
G1 X179.511 Y73.364 E70.39923
G1 X179.652 Y72.467 E70.42943
G1 X179.511 Y71.569 E70.45966
G1 X179.098 Y70.761 E70.48984
G1 X178.456 Y70.118 E70.52006
G1 X177.646 Y69.706 E70.55029
G1 X176.75 Y69.565 E70.58046
G1 X175.854 Y69.706 E70.61062
G1 X175.044 Y70.118 E70.64085
G1 X174.402 Y70.761 E70.67107
G1 X173.989 Y71.569 E70.70125
G1 X173.848 Y72.467 E70.73148
G1 X173.989 Y73.364 E70.76169
G1 X174.402 Y74.173 E70.7919
G1 X175.044 Y74.815 E70.82209
G1 X175.853 Y75.228 E70.85231
G0 F3000 X175.718 Y75.646
G1 F2700 E64.85231
G0 F3000 X174.127 Y75.872
G0 X173.498 Y75.895
G0 X166.939 Y75.668
G0 X166.928 Y69.539
G0 X49.072 Y69.539
G0 X49.059 Y75.984
G0 X44.397 Y75.998
;TYPE:WALL-INNER
G1 F2700 E70.85231
G1 F600 X45.432 Y75.471 E70.89093
G1 X46.254 Y74.649 E70.9296
G1 X46.781 Y73.614 E70.96823
G1 X46.962 Y72.467 E71.00685
G1 X46.781 Y71.319 E71.0455
G1 X46.254 Y70.285 E71.08411
G1 X45.432 Y69.462 E71.12279
G1 X44.396 Y68.936 E71.16144
G1 X43.948 Y68.865 E71.17652
G1 X43.25 Y68.755 E71.20003
G1 X42.552 Y68.865 E71.22353
G1 X42.104 Y68.936 E71.23861
G1 X41.068 Y69.462 E71.27726
G1 X40.246 Y70.285 E71.31595
G1 X39.888 Y70.986 E71.34213
G1 X39.719 Y71.319 E71.35455
G1 X39.538 Y72.467 E71.3932
G1 X39.719 Y73.614 E71.43182
G1 X39.889 Y73.948 E71.44429
G1 X40.246 Y74.649 E71.47045
G1 X41.068 Y75.471 E71.50912
G1 X42.103 Y75.998 E71.54775
G1 X42.552 Y76.069 E71.56287
G1 X43.25 Y76.179 E71.58311
G1 X43.948 Y76.069 E71.60335
G1 X44.397 Y75.998 E71.61847
G0 F3000 X44.272 Y75.613
G1 F600 X45.194 Y75.143 E71.65289
G1 X45.926 Y74.411 E71.68732
G1 X46.396 Y73.489 E71.72174
G1 X46.557 Y72.467 E71.75615
G1 X46.396 Y71.444 E71.79059
G1 X45.926 Y70.523 E71.82498
G1 X45.194 Y69.79 E71.85944
G1 X44.271 Y69.321 E71.89387
G1 X43.25 Y69.16 E71.92825
G1 X42.229 Y69.321 E71.96263
G1 X41.306 Y69.79 E71.99706
G1 X40.574 Y70.523 E72.03152
G1 X40.104 Y71.444 E72.06591
