;FLAVOR:Marlin
;TIME:8097
;Filament used: 3.17673m
;Layer height: 0.2
;MINX:77.5
;MINY:82.265
;MINZ:0.2
;MAXX:142.5
;MAXY:165.265
;MAXZ:23
;Generated with Cura_SteamEngine 4.9.0
M140 S80
M105
M190 S80
M104 S250
M105
M109 S250
M82 ;absolute extrusion mode
; Ender 3 Custom Start G-code
G92 E0 ; Reset Extruder
G28 ; Home all axes
M117 Auto bed-level GO!
G29 ; Auto bed-level (BL-Touch)
G92 E0 ; Reset Extruder
G1 Z2.0 F3000 ; Move Z Axis up little to prevent scratching of Heat Bed
G1 X0.1 Y20 Z0.3 F5000.0 ; Move to start position
G1 X0.1 Y200.0 Z0.3 F1500.0 E15 ; Draw the first line
G1 X0.4 Y200.0 Z0.3 F5000.0 ; Move to side a little
G1 X0.4 Y20 Z0.3 F1500.0 E30 ; Draw the second line
G92 E0 ; Reset Extruder
G1 Z2.0 F3000 ; Move Z Axis up little to prevent scratching of Heat Bed
G1 X5 Y20 Z0.3 F5000.0 ; Move over to prevent blob squish
G92 E0
G92 E0
G1 F2700 E-6
;LAYER_COUNT:115
;LAYER:0
M107
G0 F3000 X80.694 Y85.533 Z0.2
;TYPE:SKIRT
G1 F2700 E0
G1 F600 X81.382 Y84.895 E0.03121
G1 X82.121 Y84.319 E0.06237
G1 X82.907 Y83.807 E0.09357
G1 X83.734 Y83.364 E0.12477
G1 X84.596 Y82.994 E0.15597
G1 X85.486 Y82.698 E0.18717
G1 X86.398 Y82.479 E0.21837
G1 X87.325 Y82.338 E0.24955
G1 X88.201 Y82.278 E0.27876
G1 X88.522 Y82.269 E0.28944
G1 X88.83 Y82.265 E0.29968
G1 X92.293 Y82.265 E0.41486
G1 X93.172 Y82.277 E0.4441
G1 X94.108 Y82.332 E0.47529
G1 X95.036 Y82.466 E0.50647
G1 X95.95 Y82.679 E0.53769
G1 X96.842 Y82.968 E0.56887
G1 X97.393 Y83.191 E0.58864
G1 X98.383 Y83.623 E0.62457
G1 X99.037 Y83.918 E0.64843
G1 X101.339 Y84.882 E0.73144
G1 X103.748 Y85.814 E0.81735
G1 X106.062 Y86.629 E0.89895
G1 X108.48 Y87.407 E0.98343
G1 X110.887 Y88.109 E1.06682
G1 X113.335 Y88.746 E1.15096
G1 X115.785 Y89.312 E1.23459
G1 X118.271 Y89.813 E1.31894
G1 X120.731 Y90.233 E1.40194
G1 X123.207 Y90.587 E1.48513
G1 X125.724 Y90.874 E1.56939
G1 X128.24 Y91.09 E1.65338
G1 X130.836 Y91.237 E1.73986
G1 X131.962 Y91.285 E1.77734
G1 X132.897 Y91.365 E1.80856
G1 X133.821 Y91.525 E1.83975
G1 X134.728 Y91.762 E1.87093
G1 X135.612 Y92.076 E1.90213
G1 X136.466 Y92.464 E1.93333
G1 X137.283 Y92.924 E1.96451
G1 X138.059 Y93.451 E1.99571
G1 X138.787 Y94.043 E2.02692
G1 X139.461 Y94.694 E2.05808
G1 X140.078 Y95.4 E2.08927
G1 X140.633 Y96.157 E2.12049
G1 X141.121 Y96.958 E2.15169
G1 X141.539 Y97.798 E2.18289
G1 X141.883 Y98.67 E2.21407
G1 X142.153 Y99.568 E2.24526
G1 X142.345 Y100.486 E2.27645
G1 X142.457 Y101.417 E2.30764
G1 X142.487 Y101.966 E2.32593
G1 X142.496 Y102.286 E2.33658
G1 X142.5 Y102.595 E2.34685
G1 X142.499 Y144.68 E3.74661
G1 X142.489 Y145.407 E3.77079
G1 X142.436 Y146.344 E3.802
G1 X142.304 Y147.272 E3.83318
G1 X142.093 Y148.186 E3.86438
G1 X141.804 Y149.078 E3.89557
G1 X141.441 Y149.943 E3.92677
G1 X141.006 Y150.774 E3.95796
G1 X140.501 Y151.564 E3.98915
G1 X139.931 Y152.309 E4.02035
G1 X139.3 Y153.003 E4.05154
G1 X138.611 Y153.64 E4.08275
G1 X137.871 Y154.216 E4.11394
G1 X137.085 Y154.727 E4.14513
G1 X136.258 Y155.169 E4.17631
G1 X135.396 Y155.539 E4.20751
G1 X134.506 Y155.834 E4.2387
G1 X133.594 Y156.053 E4.26989
G1 X132.667 Y156.193 E4.30108
G1 X132.1 Y156.239 E4.32
G1 X131.828 Y156.253 E4.32906
G1 X129.409 Y156.359 E4.40959
G1 X126.917 Y156.539 E4.49269
G1 X124.379 Y156.795 E4.57753
G1 X121.904 Y157.115 E4.66054
G1 X119.41 Y157.509 E4.74452
G1 X116.911 Y157.978 E4.82908
G1 X114.517 Y158.498 E4.91056
G1 X112.034 Y159.109 E4.99561
G1 X109.612 Y159.779 E5.07919
G1 X107.169 Y160.531 E5.16421
G1 X104.843 Y161.319 E5.24589
G1 X102.444 Y162.208 E5.33099
G1 X100.116 Y163.147 E5.41448
G1 X97.828 Y164.144 E5.49749
G1 X97.576 Y164.259 E5.5067
G1 X96.706 Y164.611 E5.53792
G1 X95.848 Y164.878 E5.5678
G1 X94.933 Y165.083 E5.59899
G1 X94.003 Y165.209 E5.63021
G1 X93.299 Y165.252 E5.65366
G1 X92.981 Y165.261 E5.66425
G1 X92.67 Y165.265 E5.67459
G1 X89.065 Y165.264 E5.79449
G1 X88.367 Y165.255 E5.81771
G1 X87.431 Y165.203 E5.84889
G1 X86.502 Y165.071 E5.8801
G1 X85.588 Y164.861 E5.91129
G1 X84.695 Y164.574 E5.94249
G1 X83.83 Y164.211 E5.97369
G1 X82.999 Y163.777 E6.00487
G1 X82.208 Y163.273 E6.03607
G1 X81.463 Y162.703 E6.06727
G1 X80.769 Y162.072 E6.09846
G1 X80.132 Y161.385 E6.12962
G1 X79.555 Y160.645 E6.16083
G1 X79.043 Y159.859 E6.19203
G1 X78.6 Y159.032 E6.22324
G1 X78.229 Y158.171 E6.25442
G1 X77.933 Y157.281 E6.28561
G1 X77.714 Y156.369 E6.31681
G1 X77.573 Y155.442 E6.348
G1 X77.513 Y154.553 E6.37763
G1 X77.504 Y154.22 E6.38871
G1 X77.5 Y153.923 E6.39859
G1 X77.501 Y93.819 E8.39766
G1 X77.51 Y93.13 E8.42058
G1 X77.562 Y92.194 E8.45176
G1 X77.694 Y91.265 E8.48297
G1 X77.904 Y90.351 E8.51416
G1 X78.192 Y89.459 E8.54533
G1 X78.554 Y88.594 E8.57652
G1 X78.989 Y87.763 E8.60772
G1 X79.493 Y86.972 E8.63891
G1 X80.063 Y86.227 E8.67011
G1 X80.694 Y85.533 E8.70131
G0 F3000 X81.086 Y85.707
G1 F600 X81.771 Y85.092 E8.73193
G1 X82.506 Y84.538 E8.76254
G1 X83.287 Y84.05 E8.79317
G1 X84.107 Y83.631 E8.8238
G1 X84.96 Y83.286 E8.8544
G1 X85.84 Y83.015 E8.88503
G1 X86.74 Y82.823 E8.91564
G1 X87.654 Y82.709 E8.94627
G1 X88.212 Y82.678 E8.96486
G1 X88.533 Y82.669 E8.97554
G1 X88.83 Y82.665 E8.98542
G1 X92.293 Y82.665 E9.1006
G1 X93.166 Y82.677 E9.12964
G1 X94.085 Y82.732 E9.16026
G1 X94.996 Y82.865 E9.19088
G1 X95.891 Y83.078 E9.22148
G1 X96.765 Y83.367 E9.2521
G1 X97.233 Y83.557 E9.2689
G1 X98.085 Y83.928 E9.2998
G1 X98.853 Y84.275 E9.32783
G1 X101.232 Y85.271 E9.41361
G1 X103.568 Y86.174 E9.49691
G1 X105.955 Y87.015 E9.58109
G1 X108.35 Y87.786 E9.66477
G1 X110.78 Y88.494 E9.74895
G1 X113.249 Y89.137 E9.83381
G1 X115.688 Y89.7 E9.91707
G1 X118.19 Y90.205 E10.00196
G1 X120.685 Y90.631 E10.08615
G1 X123.137 Y90.981 E10.16853
G1 X125.716 Y91.276 E10.25486
G1 X128.184 Y91.487 E10.33725
G1 X130.867 Y91.639 E10.42663
G1 X131.945 Y91.685 E10.46252
G1 X132.862 Y91.764 E10.49313
G1 X133.769 Y91.923 E10.52376
G1 X134.659 Y92.159 E10.55438
G1 X135.525 Y92.472 E10.58501
G1 X136.36 Y92.859 E10.61562
G1 X137.159 Y93.318 E10.64627
G1 X137.915 Y93.843 E10.67688
G1 X138.622 Y94.432 E10.70749
G1 X139.276 Y95.081 E10.73813
G1 X139.871 Y95.783 E10.76874
G1 X140.402 Y96.535 E10.79936
G1 X140.867 Y97.33 E10.82999
G1 X141.26 Y98.162 E10.86059
G1 X141.581 Y99.025 E10.89122
G1 X141.824 Y99.913 E10.92184
G1 X141.99 Y100.819 E10.95247
G1 X142.087 Y101.977 E10.99112
G1 X142.096 Y102.297 E11.00177
G1 X142.1 Y102.595 E11.01168
G1 X142.099 Y144.675 E12.41127
G1 X142.089 Y145.402 E12.43545
G1 X142.036 Y146.321 E12.46607
G1 X141.904 Y147.232 E12.49669
G1 X141.693 Y148.128 E12.5273
G1 X141.406 Y149.003 E12.55793
G1 X141.043 Y149.849 E12.58855
G1 X140.609 Y150.661 E12.61917
G1 X140.105 Y151.432 E12.64981
G1 X139.537 Y152.156 E12.68041
G1 X138.908 Y152.828 E12.71103
G1 X138.223 Y153.443 E12.74165
G1 X137.487 Y153.996 E12.77227
G1 X136.706 Y154.484 E12.8029
G1 X135.886 Y154.902 E12.83351
G1 X135.032 Y155.247 E12.86414
G1 X134.152 Y155.516 E12.89475
G1 X133.251 Y155.709 E12.9254
G1 X132.078 Y155.84 E12.96465
G1 X131.81 Y155.854 E12.97358
G1 X129.365 Y155.961 E13.05498
G1 X126.882 Y156.141 E13.13778
G1 X124.324 Y156.398 E13.22329
G1 X121.862 Y156.717 E13.30586
G1 X119.34 Y157.116 E13.39078
G1 X116.858 Y157.581 E13.47477
G1 X114.408 Y158.113 E13.55816
G1 X111.913 Y158.727 E13.64362
G1 X109.483 Y159.399 E13.72747
G1 X107.102 Y160.132 E13.81033
G1 X104.681 Y160.953 E13.89536
G1 X102.305 Y161.833 E13.97963
G1 X99.943 Y162.785 E14.06433
G1 X97.681 Y163.771 E14.14641
G1 X97.41 Y163.895 E14.15632
G1 X96.556 Y164.24 E14.18695
G1 X95.744 Y164.492 E14.21523
G1 X94.845 Y164.692 E14.24586
G1 X93.933 Y164.814 E14.27647
G1 X93.288 Y164.852 E14.29796
G1 X92.97 Y164.861 E14.30854
G1 X92.67 Y164.865 E14.31852
G1 X89.07 Y164.864 E14.43825
G1 X88.372 Y164.855 E14.46147
G1 X87.453 Y164.803 E14.49208
G1 X86.542 Y164.672 E14.5227
G1 X85.646 Y164.462 E14.5533
G1 X84.771 Y164.175 E14.58393
G1 X83.924 Y163.813 E14.61457
G1 X83.112 Y163.379 E14.64519
G1 X82.341 Y162.877 E14.67579
G1 X81.616 Y162.309 E14.70642
G1 X80.943 Y161.68 E14.73706
G1 X80.328 Y160.996 E14.76766
G1 X79.774 Y160.261 E14.79827
G1 X79.286 Y159.48 E14.8289
G1 X78.867 Y158.66 E14.85953
G1 X78.521 Y157.807 E14.89014
G1 X78.251 Y156.927 E14.92076
G1 X78.058 Y156.026 E14.95141
G1 X77.944 Y155.113 E14.98201
G1 X77.913 Y154.542 E15.00103
G1 X77.904 Y154.209 E15.01211
G1 X77.9 Y153.923 E15.02162
G1 X77.901 Y93.825 E17.02049
G1 X77.91 Y93.136 E17.04341
G1 X77.962 Y92.216 E17.07405
G1 X78.093 Y91.305 E17.10467
G1 X78.304 Y90.409 E17.13528
G1 X78.591 Y89.534 E17.16591
G1 X78.953 Y88.688 E17.19652
G1 X79.387 Y87.876 E17.22714
G1 X79.889 Y87.104 E17.25777
G1 X80.457 Y86.38 E17.28837
G1 X81.086 Y85.707 E17.31901
G0 F3000 X81.477 Y85.885
G1 F600 X82.159 Y85.292 E17.34907
G1 X82.89 Y84.762 E17.3791
G1 X83.664 Y84.298 E17.40912
G1 X84.477 Y83.905 E17.43915
G1 X85.322 Y83.585 E17.4692
G1 X86.192 Y83.341 E17.49926
G1 X87.079 Y83.175 E17.52927
G1 X88.223 Y83.078 E17.56746
G1 X88.544 Y83.069 E17.57814
G1 X88.83 Y83.065 E17.58765
G1 X92.293 Y83.065 E17.70283
G1 X93.159 Y83.077 E17.73164
G1 X94.061 Y83.131 E17.76169
G1 X94.954 Y83.265 E17.79173
G1 X95.832 Y83.477 E17.82177
G1 X97.073 Y83.924 E17.86564
G1 X98.053 Y84.352 E17.90121
G1 X98.713 Y84.65 E17.92529
G1 X101.069 Y85.637 E18.01025
G1 X103.427 Y86.548 E18.09433
G1 X105.837 Y87.397 E18.17931
G1 X108.231 Y88.168 E18.26297
G1 X110.672 Y88.879 E18.34753
G1 X113.164 Y89.528 E18.43318
G1 X115.59 Y90.089 E18.516
G1 X118.115 Y90.598 E18.60167
G1 X120.632 Y91.027 E18.68659
G1 X123.102 Y91.38 E18.76958
G1 X125.638 Y91.67 E18.85447
G1 X128.162 Y91.886 E18.93873
G1 X130.83 Y92.037 E19.02761
G1 X131.928 Y92.084 E19.06416
G1 X132.828 Y92.163 E19.09421
G1 X133.717 Y92.321 E19.12424
G1 X134.589 Y92.557 E19.15429
G1 X135.436 Y92.869 E19.18431
G1 X136.253 Y93.255 E19.21437
G1 X137.032 Y93.711 E19.24439
G1 X137.768 Y94.235 E19.27444
G1 X138.454 Y94.822 E19.30447
G1 X139.086 Y95.467 E19.3345
G1 X139.659 Y96.165 E19.36454
G1 X140.167 Y96.912 E19.39458
G1 X140.607 Y97.7 E19.4246
G1 X140.976 Y98.524 E19.45463
G1 X141.271 Y99.378 E19.48468
G1 X141.489 Y100.254 E19.51471
G1 X141.628 Y101.147 E19.54476
G1 X141.687 Y101.988 E19.57281
G1 X141.696 Y102.308 E19.58345
G1 X141.7 Y102.595 E19.593
G1 X141.699 Y144.669 E20.99239
G1 X141.689 Y145.396 E21.01657
G1 X141.637 Y146.298 E21.04662
G1 X141.505 Y147.191 E21.07664
G1 X141.294 Y148.07 E21.10671
G1 X141.007 Y148.926 E21.13674
G1 X140.645 Y149.753 E21.16676
G1 X140.211 Y150.545 E21.1968
G1 X139.709 Y151.296 E21.22685
G1 X139.143 Y151.999 E21.25686
G1 X138.516 Y152.65 E21.28693
G1 X137.835 Y153.242 E21.31694
G1 X137.104 Y153.772 E21.34697
G1 X136.328 Y154.235 E21.37702
G1 X135.515 Y154.628 E21.40706
G1 X134.67 Y154.948 E21.43711
G1 X133.801 Y155.191 E21.46712
G1 X132.913 Y155.356 E21.49716
G1 X132.056 Y155.44 E21.5258
G1 X131.793 Y155.454 E21.53456
G1 X129.353 Y155.561 E21.6158
G1 X126.849 Y155.742 E21.6993
G1 X124.304 Y155.998 E21.78437
G1 X121.78 Y156.325 E21.86902
G1 X119.275 Y156.721 E21.95337
G1 X116.778 Y157.189 E22.03787
G1 X114.299 Y157.727 E22.12224
G1 X111.84 Y158.333 E22.20647
G1 X109.374 Y159.015 E22.29157
G1 X106.951 Y159.76 E22.37589
G1 X104.561 Y160.571 E22.45983
G1 X102.152 Y161.463 E22.54527
G1 X99.812 Y162.406 E22.62918
G1 X97.499 Y163.415 E22.71311
G1 X97.244 Y163.531 E22.72243
G1 X96.406 Y163.868 E22.75247
G1 X95.64 Y164.105 E22.77914
G1 X94.758 Y164.301 E22.80919
G1 X93.863 Y164.418 E22.83921
G1 X93.277 Y164.452 E22.85874
G1 X92.959 Y164.461 E22.86932
G1 X92.67 Y164.465 E22.87893
G1 X89.075 Y164.464 E22.9985
G1 X88.377 Y164.455 E23.02172
G1 X87.476 Y164.404 E23.05173
G1 X86.582 Y164.272 E23.08179
G1 X85.704 Y164.063 E23.11181
G1 X84.847 Y163.776 E23.14187
G1 X84.02 Y163.415 E23.17188
G1 X83.227 Y162.982 E23.20193
G1 X82.476 Y162.481 E23.23196
G1 X81.772 Y161.915 E23.262
G1 X81.121 Y161.289 E23.29204
G1 X80.528 Y160.608 E23.32207
G1 X79.998 Y159.877 E23.35211
G1 X79.534 Y159.102 E23.38215
G1 X79.14 Y158.289 E23.4122
G1 X78.82 Y157.445 E23.44222
G1 X78.576 Y156.575 E23.47227
G1 X78.41 Y155.687 E23.50232
G1 X78.313 Y154.532 E23.54087
G1 X78.304 Y154.199 E23.55195
G1 X78.3 Y153.923 E23.56113
G1 X78.301 Y93.83 E25.55983
G1 X78.31 Y93.141 E25.58275
G1 X78.362 Y92.239 E25.6128
G1 X78.493 Y91.346 E25.64282
G1 X78.703 Y90.467 E25.67288
G1 X78.989 Y89.611 E25.70289
G1 X79.351 Y88.783 E25.73295
G1 X79.784 Y87.991 E25.76297
G1 X80.285 Y87.24 E25.793
G1 X80.851 Y86.536 E25.82304
G1 X81.477 Y85.885 E25.85308
G1 F2700 E19.85308
;MESH:HIK_Fan-pimount_v2.stl
G0 F3000 X88.914 Y92.6
G0 X88.914 Y93.679
G0 X91.418 Y94.847
G0 X92.572 Y102.693
G0 X103.492 Y103.871
G0 X95.145 Y108.784
G0 X92 Y114.848
G0 X90.82 Y117.695
G0 X90.101 Y120.693
G0 X89.858 Y123.765
G0 X90.101 Y126.836
G0 X90.82 Y129.834
G0 X92 Y132.681
G0 X93.611 Y135.309
G0 X95.612 Y137.653
G0 X97.956 Y139.654
G0 X100.583 Y141.265
G0 X103.431 Y142.445
G0 X106.129 Y143.091
G0 X109.5 Y143.567
;TYPE:WALL-INNER
G1 F2700 E25.85308
G1 F600 X112.597 Y143.322 E25.95641
G1 X115.619 Y142.598 E26.05977
G1 X118.49 Y141.408 E26.16314
G1 X121.139 Y139.785 E26.26646
G1 X123.502 Y137.767 E26.36982
G1 X125.52 Y135.404 E26.47317
G1 X127.143 Y132.754 E26.57653
G1 X128.333 Y129.884 E26.67986
G1 X129.058 Y126.862 E26.78323
G1 X129.302 Y123.765 E26.88655
G1 X129.058 Y120.667 E26.98991
G1 X128.333 Y117.645 E27.09328
G1 X127.143 Y114.775 E27.19661
G1 X125.52 Y112.125 E27.29997
G1 X123.502 Y109.762 E27.40332
G1 X121.139 Y107.744 E27.50668
G1 X118.49 Y106.121 E27.61
G1 X115.619 Y104.931 E27.71337
G1 X112.597 Y104.207 E27.81673
G1 X109.5 Y103.963 E27.92005
G1 X106.403 Y104.207 E28.02338
G1 X103.381 Y104.931 E28.12674
G1 X100.51 Y106.121 E28.2301
G1 X97.861 Y107.744 E28.33343
G1 X95.498 Y109.762 E28.43678
G1 X93.48 Y112.125 E28.54014
G1 X91.857 Y114.775 E28.64349
G1 X90.667 Y117.645 E28.74683
G1 X89.942 Y120.667 E28.8502
G1 X89.698 Y123.765 E28.95355
G1 X89.942 Y126.862 E29.05688
G1 X90.667 Y129.884 E29.16024
G1 X91.857 Y132.754 E29.26358
G1 X93.48 Y135.404 E29.36694
G1 X95.498 Y137.767 E29.47029
G1 X97.861 Y139.785 E29.57364
G1 X100.51 Y141.408 E29.67697
G1 X103.381 Y142.598 E29.78034
G1 X106.403 Y143.322 E29.8837
G1 X109.5 Y143.567 E29.98702
G0 F3000 X109.5 Y143.166
;TYPE:WALL-OUTER
G1 F600 X112.534 Y142.926 E30.08825
G1 X115.495 Y142.216 E30.18953
G1 X118.308 Y141.051 E30.29079
G1 X120.903 Y139.46 E30.39203
G1 X123.218 Y137.483 E30.49329
G1 X125.195 Y135.168 E30.59454
G1 X126.786 Y132.572 E30.69581
G1 X127.951 Y129.76 E30.79705
G1 X128.662 Y126.799 E30.89833
G1 X128.901 Y123.765 E30.99955
G1 X128.662 Y120.73 E31.10081
G1 X127.951 Y117.769 E31.20209
G1 X126.786 Y114.957 E31.30333
G1 X125.195 Y112.361 E31.4046
G1 X123.218 Y110.046 E31.50585
G1 X120.903 Y108.069 E31.60711
G1 X118.308 Y106.478 E31.70835
G1 X115.495 Y105.313 E31.80961
G1 X112.534 Y104.603 E31.91089
G1 X109.5 Y104.364 E32.01211
G1 X106.466 Y104.603 E32.11334
G1 X103.505 Y105.313 E32.21461
G1 X100.692 Y106.478 E32.31588
G1 X98.097 Y108.069 E32.41712
G1 X95.782 Y110.046 E32.51837
G1 X93.805 Y112.361 E32.61963
G1 X92.214 Y114.957 E32.72089
G1 X91.049 Y117.769 E32.82213
G1 X90.338 Y120.73 E32.92341
G1 X90.099 Y123.765 E33.02467
G1 X90.338 Y126.799 E33.12589
G1 X91.049 Y129.76 E33.22718
G1 X92.214 Y132.572 E33.32841
G1 X93.805 Y135.168 E33.42968
G1 X95.782 Y137.483 E33.53094
G1 X98.097 Y139.46 E33.63219
G1 X100.692 Y141.051 E33.73343
G1 X103.505 Y142.216 E33.8347
G1 X106.466 Y142.926 E33.93597
G1 X109.5 Y143.166 E34.0372
G0 F3000 X109.5 Y143.606
G1 F2700 E28.0372
G0 F3000 X106.429 Y143.163
G0 X103.431 Y142.445
G0 X100.583 Y141.265
G0 X97.956 Y139.654
G0 X95.612 Y137.653
G0 X93.611 Y135.309
G0 X92 Y132.681
G0 X90.82 Y129.834
G0 X90.101 Y126.836
G0 X89.883 Y124.073
G0 X89.903 Y117.397
;TYPE:WALL-INNER
G1 F2700 E34.0372
G1 F600 X89.903 Y116.399 E34.07039
G1 X89.903 Y116.398 E34.07043
G1 X89.9 Y94.864 E34.78665
G1 X89.9 Y94.665 E34.79327
G1 X90.099 Y94.665 E34.79755
G1 X91.6 Y94.665 E34.84747
G1 X91.6 Y103.665 E35.14681
G1 X103.541 Y103.665 E35.54397
G1 X103.542 Y103.665 E35.54401
G1 X105.232 Y103.665 E35.60022
G1 X103.588 Y104.058 E35.62852
G1 X103.133 Y104.167 E35.64408
G1 X100.146 Y105.407 E35.75165
G1 X97.389 Y107.094 E35.85915
G1 X94.93 Y109.194 E35.9667
G1 X92.83 Y111.653 E36.07426
