;FLAVOR:Marlin
;TIME:4336
;Filament used: 1.72993m
;Layer height: 0.2
;MINX:71.141
;MINY:47.615
;MINZ:0.2
;MAXX:148.859
;MAXY:172.385
;MAXZ:7
;Generated with Cura_SteamEngine 4.9.0
M140 S80
M105
M190 S80
M104 S250
M105
M109 S250
M82 ;absolute extrusion mode
; Ender 3 Custom Start G-code
G92 E0 ; Reset Extruder
G28 ; Home all axes
M117 Auto bed-level GO!
G29 ; Auto bed-level (BL-Touch)
G92 E0 ; Reset Extruder
G1 Z2.0 F3000 ; Move Z Axis up little to prevent scratching of Heat Bed
G1 X0.1 Y20 Z0.3 F5000.0 ; Move to start position
G1 X0.1 Y200.0 Z0.3 F1500.0 E15 ; Draw the first line
G1 X0.4 Y200.0 Z0.3 F5000.0 ; Move to side a little
G1 X0.4 Y20 Z0.3 F1500.0 E30 ; Draw the second line
G92 E0 ; Reset Extruder
G1 Z2.0 F3000 ; Move Z Axis up little to prevent scratching of Heat Bed
G1 X5 Y20 Z0.3 F5000.0 ; Move over to prevent blob squish
G92 E0
G92 E0
G1 F2700 E-6
;LAYER_COUNT:35
;LAYER:0
M107
G0 F3000 X76.124 Y53.523 Z0.2
;TYPE:SKIRT
G1 F2700 E0
G1 F600 X76.942 Y52.575 E0.04165
G1 X77.416 Y52.085 E0.06432
G1 X77.668 Y51.833 E0.07617
G1 X78.054 Y51.459 E0.09405
G1 X78.754 Y50.836 E0.12522
G1 X79.506 Y50.274 E0.15644
G1 X80.55 Y49.643 E0.19702
G1 X81.117 Y49.342 E0.21837
G1 X81.409 Y49.193 E0.22927
G1 X81.926 Y48.938 E0.24844
G1 X82.784 Y48.559 E0.27964
G1 X83.671 Y48.255 E0.31083
G1 X84.91 Y47.965 E0.35315
G1 X85.555 Y47.853 E0.37492
G1 X85.865 Y47.804 E0.38536
G1 X86.419 Y47.724 E0.40398
G1 X87.352 Y47.63 E0.43517
G1 X88.29 Y47.615 E0.46637
G1 X89.549 Y47.722 E0.5084
G1 X90.213 Y47.817 E0.53071
G1 X90.529 Y47.867 E0.54135
G1 X91.061 Y47.959 E0.5593
G1 X91.368 Y48.016 E0.56969
G1 X92.292 Y48.203 E0.60104
G1 X94.818 Y48.677 E0.68653
G1 X97.292 Y49.07 E0.76984
G1 X99.813 Y49.398 E0.8544
G1 X102.284 Y49.647 E0.937
G1 X104.815 Y49.831 E1.0214
G1 X107.31 Y49.942 E1.10447
G1 X109.861 Y49.983 E1.18933
G1 X112.349 Y49.952 E1.27209
G1 X114.88 Y49.849 E1.35634
G1 X117.381 Y49.677 E1.43972
G1 X119.893 Y49.432 E1.52366
G1 X122.379 Y49.119 E1.607
G1 X124.878 Y48.731 E1.69111
G1 X128.039 Y48.138 E1.79808
G1 X128.526 Y48.038 E1.81462
G1 X128.845 Y47.977 E1.82542
G1 X129.543 Y47.855 E1.84899
G1 X129.868 Y47.804 E1.85993
G1 X130.423 Y47.724 E1.87858
G1 X131.356 Y47.629 E1.90977
G1 X132.294 Y47.615 E1.94097
G1 X133.552 Y47.722 E1.98297
G1 X134.215 Y47.817 E2.00524
G1 X134.525 Y47.866 E2.01568
G1 X135.064 Y47.959 E2.03387
G1 X135.981 Y48.158 E2.06508
G1 X136.877 Y48.434 E2.09627
G1 X138.039 Y48.924 E2.13821
G1 X138.626 Y49.212 E2.15996
G1 X138.918 Y49.36 E2.17085
G1 X139.416 Y49.623 E2.18958
G1 X140.226 Y50.096 E2.22077
G1 X140.992 Y50.636 E2.25195
G1 X141.926 Y51.443 E2.293
G1 X142.414 Y51.915 E2.31558
G1 X142.667 Y52.168 E2.32748
G1 X143.041 Y52.554 E2.34536
G1 X143.664 Y53.254 E2.37653
G1 X144.226 Y54.006 E2.40775
G1 X144.857 Y55.05 E2.44832
G1 X145.158 Y55.617 E2.46967
G1 X145.311 Y55.917 E2.48088
G1 X145.564 Y56.431 E2.49993
G1 X145.942 Y57.29 E2.53114
G1 X146.246 Y58.177 E2.56233
G1 X146.529 Y59.383 E2.60353
G1 X146.643 Y60.031 E2.62542
G1 X146.698 Y60.381 E2.6372
G1 X146.779 Y60.948 E2.65625
G1 X146.872 Y61.882 E2.68747
G1 X146.874 Y63.103 E2.72808
G1 X146.813 Y64.226 E2.76548
G1 X146.706 Y66.83 E2.85217
G1 X146.675 Y69.294 E2.93413
G1 X146.716 Y71.87 E3.01982
G1 X146.826 Y74.366 E3.10291
G1 X147.007 Y76.86 E3.18608
G1 X147.262 Y79.383 E3.27042
G1 X147.585 Y81.879 E3.35413
G1 X147.978 Y84.358 E3.43762
G1 X148.468 Y86.945 E3.52519
G1 X148.637 Y87.911 E3.55781
G1 X148.692 Y88.258 E3.56949
G1 X148.754 Y88.694 E3.58414
G1 X148.847 Y89.628 E3.61536
G1 X148.859 Y90.565 E3.64653
G1 X148.754 Y91.793 E3.68752
G1 X148.673 Y92.362 E3.70663
G1 X148.622 Y92.686 E3.71754
G1 X148.539 Y93.166 E3.73374
G1 X148.302 Y94.224 E3.76981
G1 X147.61 Y96.724 E3.85608
G1 X147.011 Y99.155 E3.93936
G1 X146.472 Y101.639 E4.0239
G1 X146.013 Y104.1 E4.10716
G1 X145.616 Y106.607 E4.19158
G1 X145.297 Y109.079 E4.27449
G1 X145.047 Y111.556 E4.35729
G1 X144.862 Y114.125 E4.44296
G1 X144.754 Y116.585 E4.52485
G1 X144.714 Y119.144 E4.60998
G1 X144.746 Y121.633 E4.69277
G1 X144.85 Y124.177 E4.77745
G1 X145.023 Y126.657 E4.86014
G1 X145.271 Y129.195 E4.94496
G1 X145.582 Y131.646 E5.02713
G1 X145.972 Y134.158 E5.11168
G1 X146.434 Y136.658 E5.19624
G1 X146.955 Y139.093 E5.27906
G1 X147.543 Y141.509 E5.36176
G1 X148.157 Y143.725 E5.43824
G1 X148.322 Y144.347 E5.45965
G1 X148.525 Y145.271 E5.49111
G1 X148.637 Y145.911 E5.51272
G1 X148.692 Y146.258 E5.52441
G1 X148.754 Y146.694 E5.53905
G1 X148.847 Y147.628 E5.57027
G1 X148.859 Y148.565 E5.60144
G1 X148.754 Y149.793 E5.64243
G1 X148.673 Y150.362 E5.66155
G1 X148.617 Y150.715 E5.67344
G1 X148.532 Y151.199 E5.68978
G1 X148.377 Y151.932 E5.7147
G1 X147.714 Y154.617 E5.80668
G1 X147.171 Y157.117 E5.89177
G1 X146.703 Y159.625 E5.97663
G1 X146.538 Y160.575 E6.0087
G1 X146.339 Y161.491 E6.03988
G1 X146.062 Y162.387 E6.07107
G1 X145.576 Y163.541 E6.11272
G1 X145.289 Y164.126 E6.13439
G1 X145.14 Y164.418 E6.14529
G1 X144.877 Y164.916 E6.16402
G1 X144.404 Y165.726 E6.19522
G1 X143.864 Y166.492 E6.22639
G1 X143.057 Y167.426 E6.26745
G1 X142.585 Y167.914 E6.29003
G1 X142.332 Y168.167 E6.30193
G1 X141.946 Y168.541 E6.31981
G1 X141.246 Y169.164 E6.35097
G1 X140.494 Y169.726 E6.3822
G1 X139.451 Y170.356 E6.42273
G1 X138.886 Y170.656 E6.444
G1 X138.593 Y170.806 E6.45495
G1 X138.074 Y171.062 E6.4742
G1 X137.216 Y171.441 E6.5054
G1 X136.329 Y171.745 E6.53658
G1 X135.09 Y172.035 E6.5789
G1 X134.445 Y172.147 E6.60068
G1 X134.132 Y172.196 E6.61122
G1 X133.577 Y172.276 E6.62987
G1 X132.644 Y172.371 E6.66106
G1 X131.706 Y172.385 E6.69226
G1 X130.448 Y172.278 E6.73425
G1 X129.785 Y172.183 E6.75653
G1 X129.471 Y172.133 E6.7671
G1 X128.939 Y172.041 E6.78506
G1 X128.63 Y171.983 E6.79552
G1 X127.748 Y171.804 E6.82545
G1 X125.183 Y171.323 E6.91225
G1 X122.704 Y170.93 E6.99573
G1 X120.195 Y170.603 E7.07989
G1 X117.711 Y170.353 E7.16292
G1 X115.187 Y170.169 E7.24709
G1 X112.69 Y170.058 E7.33023
G1 X110.138 Y170.017 E7.41512
G1 X107.65 Y170.048 E7.49788
G1 X105.117 Y170.151 E7.58219
G1 X102.624 Y170.322 E7.66531
G1 X100.103 Y170.569 E7.74956
G1 X97.625 Y170.88 E7.83262
G1 X95.119 Y171.27 E7.91697
G1 X91.962 Y171.862 E8.02381
G1 X91.475 Y171.962 E8.04034
G1 X91.156 Y172.023 E8.05114
G1 X90.458 Y172.145 E8.07471
G1 X90.133 Y172.196 E8.08565
G1 X89.578 Y172.276 E8.1043
G1 X88.645 Y172.371 E8.1355
G1 X87.707 Y172.385 E8.1667
G1 X86.451 Y172.278 E8.20862
G1 X85.787 Y172.183 E8.23093
G1 X85.488 Y172.136 E8.241
G1 X84.945 Y172.043 E8.25932
G1 X84.028 Y171.846 E8.29052
G1 X83.132 Y171.571 E8.32169
G1 X81.93 Y171.063 E8.36509
G1 X81.347 Y170.775 E8.38672
G1 X81.082 Y170.64 E8.39661
G1 X80.584 Y170.377 E8.41535
G1 X79.774 Y169.904 E8.44654
G1 X79.008 Y169.364 E8.47771
G1 X78.074 Y168.557 E8.51877
G1 X77.586 Y168.085 E8.54135
G1 X77.333 Y167.833 E8.55323
G1 X76.958 Y167.446 E8.57115
G1 X76.335 Y166.745 E8.60234
G1 X75.774 Y165.994 E8.63352
G1 X75.139 Y164.942 E8.67439
G1 X74.839 Y164.376 E8.6957
G1 X74.689 Y164.083 E8.70664
G1 X74.435 Y163.567 E8.72577
G1 X74.057 Y162.709 E8.75696
G1 X73.753 Y161.821 E8.78817
G1 X73.468 Y160.599 E8.82991
G1 X73.293 Y159.593 E8.86387
G1 X72.794 Y156.95 E8.95333
G1 X72.266 Y154.534 E9.03558
G1 X71.663 Y152.115 E9.1185
G1 X71.603 Y151.86 E9.12722
G1 X71.475 Y151.231 E9.14857
G1 X71.362 Y150.583 E9.17044
G1 X71.308 Y150.245 E9.18183
G1 X71.246 Y149.81 E9.19644
G1 X71.153 Y148.877 E9.22763
G1 X71.141 Y147.939 E9.25883
G1 X71.245 Y146.71 E9.29985
G1 X71.326 Y146.14 E9.319
G1 X71.381 Y145.796 E9.33059
G1 X71.465 Y145.315 E9.34683
G1 X71.578 Y144.752 E9.36593
G1 X71.709 Y144.23 E9.38383
G1 X72.394 Y141.758 E9.46914
G1 X72.996 Y139.318 E9.55273
G1 X73.521 Y136.89 E9.63535
G1 X73.988 Y134.399 E9.71965
G1 X74.379 Y131.929 E9.80282
G1 X74.706 Y129.39 E9.88797
G1 X74.954 Y126.939 E9.9699
G1 X75.138 Y124.377 E10.05534
G1 X75.246 Y121.915 E10.1373
G1 X75.286 Y119.355 E10.22246
G1 X75.254 Y116.867 E10.30522
G1 X75.15 Y114.322 E10.38993
G1 X74.977 Y111.842 E10.47262
G1 X74.729 Y109.305 E10.5574
G1 X74.418 Y106.854 E10.63958
G1 X74.028 Y104.342 E10.72413
G1 X73.568 Y101.852 E10.80835
G1 X73.05 Y99.427 E10.89082
G1 X72.451 Y96.973 E10.97484
G1 X71.843 Y94.775 E11.05069
G1 X71.678 Y94.153 E11.07209
G1 X71.475 Y93.229 E11.10356
G1 X71.363 Y92.589 E11.12517
G1 X71.308 Y92.245 E11.13675
G1 X71.246 Y91.81 E11.15137
G1 X71.153 Y90.877 E11.18255
G1 X71.141 Y89.939 E11.21376
G1 X71.245 Y88.71 E11.25478
G1 X71.326 Y88.14 E11.27393
G1 X71.376 Y87.826 E11.2845
G1 X71.455 Y87.366 E11.30003
G1 X71.516 Y87.04 E11.31106
G1 X71.549 Y86.879 E11.31652
G1 X72.029 Y84.317 E11.40322
G1 X72.424 Y81.811 E11.4876
G1 X72.745 Y79.331 E11.57077
G1 X72.999 Y76.805 E11.65521
G1 X73.178 Y74.336 E11.73754
G1 X73.288 Y71.795 E11.82214
G1 X73.328 Y69.263 E11.90636
G1 X73.296 Y66.776 E11.98909
G1 X73.172 Y63.871 E12.0858
G1 X73.13 Y63.155 E12.10965
G1 X73.115 Y62.217 E12.14085
G1 X73.221 Y60.964 E12.18268
G1 X73.316 Y60.296 E12.20512
G1 X73.366 Y59.975 E12.21592
G1 X73.459 Y59.436 E12.23412
G1 X73.658 Y58.519 E12.26532
G1 X73.934 Y57.623 E12.29651
G1 X74.424 Y56.461 E12.33845
G1 X74.712 Y55.874 E12.3602
G1 X74.852 Y55.597 E12.37052
G1 X75.113 Y55.101 E12.38916
G1 X75.585 Y54.29 E12.42037
G1 X76.124 Y53.523 E12.45155
G0 F3000 X76.462 Y53.739
G1 F600 X77.229 Y52.853 E12.49053
G1 X77.703 Y52.363 E12.5132
G1 X77.946 Y52.12 E12.52463
G1 X78.332 Y51.746 E12.54251
G1 X79.02 Y51.135 E12.57311
G1 X79.759 Y50.586 E12.60373
G1 X80.738 Y49.996 E12.64175
G1 X81.305 Y49.695 E12.6631
G1 X81.586 Y49.551 E12.6736
G1 X82.103 Y49.296 E12.69278
G1 X82.946 Y48.925 E12.72341
G1 X83.817 Y48.629 E12.75401
G1 X84.979 Y48.359 E12.79369
G1 X85.624 Y48.247 E12.81546
G1 X85.922 Y48.2 E12.82549
G1 X86.476 Y48.12 E12.84411
G1 X87.392 Y48.028 E12.87473
G1 X88.313 Y48.016 E12.90537
G1 X89.492 Y48.118 E12.94473
G1 X90.156 Y48.213 E12.96704
G1 X90.461 Y48.261 E12.9773
G1 X90.993 Y48.353 E12.99526
G1 X91.289 Y48.408 E13.00528
G1 X92.218 Y48.596 E13.0368
G1 X94.753 Y49.072 E13.12259
G1 X97.249 Y49.468 E13.20664
G1 X99.754 Y49.794 E13.29066
G1 X102.251 Y50.046 E13.37414
G1 X104.804 Y50.231 E13.45927
G1 X107.285 Y50.342 E13.54187
G1 X109.86 Y50.383 E13.62753
G1 X112.369 Y50.352 E13.71098
G1 X114.89 Y50.249 E13.7949
G1 X117.411 Y50.076 E13.87895
G1 X119.946 Y49.828 E13.96367
G1 X122.459 Y49.512 E14.04791
G1 X124.917 Y49.131 E14.13064
G1 X128.138 Y48.526 E14.23964
G1 X128.607 Y48.43 E14.25556
G1 X128.914 Y48.371 E14.26596
G1 X129.612 Y48.249 E14.28953
G1 X129.925 Y48.199 E14.30007
G1 X130.48 Y48.119 E14.31872
G1 X131.396 Y48.028 E14.34934
G1 X132.316 Y48.016 E14.37994
G1 X133.495 Y48.118 E14.4193
G1 X134.158 Y48.213 E14.44158
G1 X134.457 Y48.26 E14.45164
G1 X134.996 Y48.353 E14.46984
G1 X135.896 Y48.549 E14.50047
G1 X136.775 Y48.822 E14.53108
G1 X137.863 Y49.283 E14.57039
G1 X138.45 Y49.571 E14.59213
G1 X138.731 Y49.714 E14.60262
G1 X139.229 Y49.977 E14.62135
G1 X140.024 Y50.442 E14.65198
G1 X140.775 Y50.974 E14.68259
G1 X141.648 Y51.731 E14.72103
G1 X142.136 Y52.203 E14.74361
G1 X142.38 Y52.446 E14.75506
G1 X142.754 Y52.832 E14.77294
G1 X143.365 Y53.52 E14.80354
G1 X143.914 Y54.259 E14.83416
G1 X144.504 Y55.238 E14.87218
G1 X144.805 Y55.805 E14.89353
G1 X144.952 Y56.094 E14.90431
G1 X145.205 Y56.608 E14.92337
G1 X145.576 Y57.451 E14.954
G1 X145.871 Y58.323 E14.98462
G1 X146.135 Y59.452 E15.02318
G1 X146.249 Y60.1 E15.04507
G1 X146.302 Y60.438 E15.05645
G1 X146.383 Y61.005 E15.0755
G1 X146.474 Y61.921 E15.10611
G1 X146.474 Y63.081 E15.14469
G1 X146.414 Y64.186 E15.1815
G1 X146.306 Y66.809 E15.26882
G1 X146.275 Y69.294 E15.35147
G1 X146.316 Y71.86 E15.43683
G1 X146.429 Y74.412 E15.52179
G1 X146.608 Y76.897 E15.60466
G1 X146.865 Y79.434 E15.68947
G1 X147.187 Y81.921 E15.77288
G1 X147.585 Y84.428 E15.85731
G1 X148.074 Y87.014 E15.94484
G1 X148.243 Y87.98 E15.97746
G1 X148.296 Y88.315 E15.98874
G1 X148.358 Y88.751 E16.00339
G1 X148.448 Y89.667 E16.034
G1 X148.458 Y90.588 E16.06463
G1 X148.358 Y91.737 E16.10299
G1 X148.277 Y92.306 E16.12211
G1 X148.228 Y92.618 E16.13261
G1 X148.145 Y93.098 E16.14882
G1 X147.916 Y94.118 E16.18359
G1 X147.229 Y96.603 E16.26934
G1 X146.618 Y99.08 E16.35419
G1 X146.082 Y101.553 E16.43835
G1 X145.618 Y104.035 E16.52234
G1 X145.224 Y106.525 E16.60618
G1 X144.897 Y109.059 E16.69116
G1 X144.648 Y111.523 E16.77354
G1 X144.464 Y114.077 E16.8587
G1 X144.354 Y116.597 E16.9426
G1 X144.314 Y119.143 E17.02729
G1 X144.346 Y121.654 E17.11081
G1 X144.45 Y124.188 E17.19516
G1 X144.625 Y126.688 E17.27852
G1 X144.871 Y129.213 E17.3629
G1 X145.195 Y131.762 E17.44836
G1 X145.577 Y134.221 E17.53113
G1 X146.036 Y136.71 E17.61531
G1 X146.567 Y139.192 E17.69973
G1 X147.151 Y141.591 E17.78185
G1 X147.771 Y143.827 E17.85902
G1 X147.936 Y144.449 E17.88043
G1 X148.131 Y145.34 E17.91076
G1 X148.243 Y145.98 E17.93237
G1 X148.296 Y146.315 E17.94365
G1 X148.358 Y146.751 E17.9583
G1 X148.448 Y147.667 E17.98891
G1 X148.458 Y148.588 E18.01955
G1 X148.358 Y149.737 E18.05791
G1 X148.277 Y150.306 E18.07702
G1 X148.223 Y150.646 E18.08847
G1 X148.138 Y151.13 E18.10482
G1 X147.989 Y151.836 E18.12882
G1 X147.321 Y154.542 E18.22152
G1 X146.782 Y157.024 E18.306
G1 X146.308 Y159.562 E18.39187
G1 X146.144 Y160.507 E18.42377
G1 X145.948 Y161.406 E18.45437
G1 X145.674 Y162.285 E18.485
G1 X145.216 Y163.365 E18.52402
G1 X144.929 Y163.95 E18.54569
G1 X144.786 Y164.231 E18.55617
G1 X144.523 Y164.729 E18.57491
G1 X144.058 Y165.524 E18.60554
G1 X143.526 Y166.275 E18.63615
G1 X142.769 Y167.148 E18.67458
G1 X142.297 Y167.636 E18.69716
G1 X142.054 Y167.88 E18.70862
G1 X141.668 Y168.254 E18.72649
G1 X140.98 Y168.865 E18.7571
G1 X140.241 Y169.414 E18.78772
G1 X139.263 Y170.003 E18.82569
G1 X138.698 Y170.303 E18.84696
G1 X138.416 Y170.447 E18.8575
G1 X137.897 Y170.703 E18.87674
G1 X137.055 Y171.074 E18.90735
G1 X136.183 Y171.371 E18.93799
G1 X135.021 Y171.641 E18.97766
G1 X134.376 Y171.753 E18.99944
G1 X134.075 Y171.801 E19.00958
G1 X133.52 Y171.881 E19.02823
G1 X132.604 Y171.972 E19.05884
G1 X131.684 Y171.984 E19.08944
G1 X130.505 Y171.882 E19.1288
G1 X129.842 Y171.787 E19.15108
G1 X129.539 Y171.739 E19.16128
G1 X129.007 Y171.647 E19.17924
G1 X128.709 Y171.591 E19.18933
G1 X127.823 Y171.412 E19.21939
G1 X125.248 Y170.928 E19.30653
G1 X122.752 Y170.532 E19.39059
G1 X120.246 Y170.206 E19.47464
G1 X117.747 Y169.954 E19.55818
G1 X115.197 Y169.769 E19.64322
G1 X112.714 Y169.658 E19.72588
G1 X110.139 Y169.617 E19.81154
G1 X107.63 Y169.648 E19.895
G1 X105.11 Y169.751 E19.97888
G1 X102.591 Y169.924 E20.06286
G1 X100.051 Y170.172 E20.14774
G1 X97.551 Y170.486 E20.23155
G1 X95.075 Y170.871 E20.31489
G1 X91.863 Y171.474 E20.42359
G1 X91.394 Y171.57 E20.43951
G1 X91.087 Y171.629 E20.44991
G1 X90.389 Y171.751 E20.47347
G1 X90.076 Y171.801 E20.48402
G1 X89.521 Y171.881 E20.50267
G1 X88.605 Y171.972 E20.53328
G1 X87.685 Y171.984 E20.56389
G1 X86.508 Y171.882 E20.60318
G1 X85.844 Y171.787 E20.62549
G1 X85.556 Y171.742 E20.63518
G1 X85.013 Y171.649 E20.65351
G1 X84.113 Y171.454 E20.68414
G1 X83.233 Y171.182 E20.71477
G1 X82.107 Y170.705 E20.75544
G1 X81.524 Y170.417 E20.77707
G1 X81.269 Y170.286 E20.78661
G1 X80.771 Y170.023 E20.80534
G1 X79.976 Y169.558 E20.83597
G1 X79.225 Y169.026 E20.86658
G1 X78.352 Y168.269 E20.90501
G1 X77.864 Y167.797 E20.92759
G1 X77.621 Y167.554 E20.93902
G1 X77.246 Y167.167 E20.95695
G1 X76.634 Y166.479 E20.98757
G1 X76.085 Y165.74 E21.01819
G1 X75.492 Y164.755 E21.05643
G1 X75.192 Y164.189 E21.07774
G1 X75.048 Y163.906 E21.0883
G1 X74.794 Y163.39 E21.10743
G1 X74.423 Y162.548 E21.13803
G1 X74.128 Y161.676 E21.16865
G1 X73.862 Y160.531 E21.20775
G1 X73.679 Y159.482 E21.24316
G1 X73.184 Y156.859 E21.33195
G1 X72.659 Y154.455 E21.41379
G1 X72.087 Y152.167 E21.49223
G1 X71.993 Y151.769 E21.50583
G1 X71.869 Y151.162 E21.52644
G1 X71.756 Y150.514 E21.54831
G1 X71.704 Y150.189 E21.55926
G1 X71.642 Y149.754 E21.57388
G1 X71.552 Y148.837 E21.60452
G1 X71.541 Y147.917 E21.63512
G1 X71.641 Y146.767 E21.67352
G1 X71.722 Y146.197 E21.69267
G1 X71.775 Y145.864 E21.70388
G1 X71.859 Y145.383 E21.72012
G1 X71.969 Y144.84 E21.73855
G1 X72.095 Y144.336 E21.75583
G1 X72.776 Y141.88 E21.8406
G1 X73.388 Y139.401 E21.92552
