;FLAVOR:Marlin
;TIME:5182
;Filament used: 2.01411m
;Layer height: 0.2
;MINX:55.262
;MINY:29.986
;MINZ:0.2
;MAXX:162.263
;MAXY:194.987
;MAXZ:5.6
;Generated with Cura_SteamEngine 4.9.0
M140 S85
M105
M190 S85
M104 S252
M105
M109 S252
M82 ;absolute extrusion mode
; Ender 3 Custom Start G-code
G92 E0 ; Reset Extruder
G28 ; Home all axes
M117 Auto bed-level GO!
G29 ; Auto bed-level (BL-Touch)
G92 E0 ; Reset Extruder
G1 Z2.0 F3000 ; Move Z Axis up little to prevent scratching of Heat Bed
G1 X0.1 Y20 Z0.3 F5000.0 ; Move to start position
G1 X0.1 Y200.0 Z0.3 F1500.0 E15 ; Draw the first line
G1 X0.4 Y200.0 Z0.3 F5000.0 ; Move to side a little
G1 X0.4 Y20 Z0.3 F1500.0 E30 ; Draw the second line
G92 E0 ; Reset Extruder
G1 Z2.0 F3000 ; Move Z Axis up little to prevent scratching of Heat Bed
G1 X5 Y20 Z0.3 F5000.0 ; Move over to prevent blob squish
G92 E0
G92 E0
G1 F3000 E-8
;LAYER_COUNT:27
;LAYER:0
M107
G1 F300 Z0.4
G0 F3000 X56.762 Y35.47 Z0.4
;TYPE:SKIRT
G1 F300 Z0.2
G1 F3000 E0.41575
G1 F600 X57.268 Y34.68 E0.44695
G1 X57.839 Y33.936 E0.47815
G1 X58.471 Y33.243 E0.50934
G1 X59.16 Y32.606 E0.54055
G1 X59.9 Y32.031 E0.57172
G1 X60.687 Y31.521 E0.60291
G1 X61.515 Y31.079 E0.63413
G1 X62.377 Y30.71 E0.66532
G1 X63.267 Y30.416 E0.69649
G1 X64.18 Y30.198 E0.72771
G1 X65.107 Y30.059 E0.75889
G1 X65.896 Y30.003 E0.7852
G1 X66.217 Y29.992 E0.79588
G1 X66.594 Y29.986 E0.80842
G1 X150.714 Y29.988 E3.60626
G1 X151.412 Y29.998 E3.62948
G1 X152.348 Y30.052 E3.66066
G1 X153.276 Y30.184 E3.69184
G1 X154.19 Y30.396 E3.72305
G1 X155.082 Y30.685 E3.75423
G1 X155.947 Y31.048 E3.78543
G1 X156.777 Y31.484 E3.81662
G1 X157.568 Y31.989 E3.84783
G1 X158.312 Y32.56 E3.87902
G1 X159.005 Y33.192 E3.91022
G1 X159.642 Y33.88 E3.9414
G1 X160.217 Y34.621 E3.9726
G1 X160.728 Y35.407 E4.00378
G1 X161.17 Y36.235 E4.035
G1 X161.539 Y37.097 E4.06619
G1 X161.834 Y37.987 E4.09737
G1 X162.052 Y38.899 E4.12856
G1 X162.192 Y39.827 E4.15977
G1 X162.25 Y40.688 E4.18848
G1 X162.259 Y41.008 E4.19912
G1 X162.263 Y41.317 E4.2094
G1 X162.261 Y183.412 E8.9355
G1 X162.251 Y184.129 E8.95935
G1 X162.198 Y185.066 E8.99056
G1 X162.065 Y185.994 E9.02174
G1 X161.854 Y186.908 E9.05294
G1 X161.566 Y187.8 E9.08412
G1 X161.202 Y188.665 E9.11533
G1 X160.767 Y189.496 E9.14653
G1 X160.262 Y190.286 E9.17772
G1 X159.692 Y191.031 E9.20892
G1 X159.06 Y191.724 E9.24011
G1 X158.372 Y192.361 E9.2713
G1 X157.632 Y192.937 E9.30249
G1 X156.845 Y193.448 E9.33369
G1 X156.018 Y193.89 E9.36488
G1 X155.156 Y194.26 E9.39608
G1 X154.266 Y194.555 E9.42727
G1 X153.354 Y194.773 E9.45846
G1 X152.426 Y194.913 E9.48967
G1 X151.629 Y194.97 E9.51625
G1 X151.308 Y194.981 E9.52693
G1 X150.931 Y194.987 E9.53947
G1 X66.807 Y194.985 E12.33745
G1 X66.128 Y194.975 E12.36003
G1 X65.192 Y194.921 E12.39121
G1 X64.263 Y194.788 E12.42243
G1 X63.35 Y194.576 E12.4536
G1 X62.457 Y194.287 E12.48482
G1 X61.593 Y193.923 E12.516
G1 X60.763 Y193.487 E12.54719
G1 X59.973 Y192.981 E12.57839
G1 X59.229 Y192.41 E12.60958
G1 X58.315 Y191.552 E12.65128
G1 X57.68 Y190.825 E12.68338
G1 X57.126 Y190.069 E12.71456
G1 X56.638 Y189.267 E12.74578
G1 X56.221 Y188.427 E12.77697
G1 X55.876 Y187.555 E12.80816
G1 X55.608 Y186.657 E12.83933
G1 X55.416 Y185.738 E12.87056
G1 X55.304 Y184.807 E12.90175
G1 X55.275 Y184.251 E12.92027
G1 X55.266 Y183.916 E12.93141
G1 X55.262 Y183.621 E12.94122
G1 X55.264 Y41.514 E17.66772
G1 X55.274 Y40.835 E17.69031
G1 X55.328 Y39.899 E17.72149
G1 X55.461 Y38.97 E17.75271
G1 X55.673 Y38.057 E17.78388
G1 X55.962 Y37.164 E17.8151
G1 X56.326 Y36.3 E17.84628
G1 X56.762 Y35.47 E17.87746
G0 F3000 X57.16 Y35.583
G1 F600 X57.664 Y34.813 E17.90807
G1 X58.233 Y34.089 E17.9387
G1 X58.863 Y33.418 E17.96931
G1 X59.548 Y32.803 E17.99993
G1 X60.285 Y32.251 E18.03056
G1 X61.066 Y31.764 E18.06117
G1 X61.887 Y31.347 E18.0918
G1 X62.741 Y31.003 E18.12242
G1 X63.621 Y30.734 E18.15302
G1 X64.522 Y30.543 E18.18366
G1 X65.436 Y30.43 E18.21429
G1 X65.91 Y30.403 E18.23008
G1 X66.231 Y30.392 E18.24076
G1 X66.594 Y30.386 E18.25284
G1 X150.708 Y30.388 E21.05048
G1 X151.406 Y30.398 E21.0737
G1 X152.325 Y30.451 E21.10431
G1 X153.236 Y30.584 E21.13494
G1 X154.132 Y30.795 E21.16555
G1 X155.006 Y31.083 E21.19616
G1 X155.853 Y31.446 E21.22681
G1 X156.664 Y31.881 E21.25742
G1 X157.434 Y32.385 E21.28803
G1 X158.158 Y32.954 E21.31865
G1 X158.83 Y33.584 E21.34929
G1 X159.445 Y34.269 E21.37991
G1 X159.998 Y35.005 E21.41053
G1 X160.485 Y35.786 E21.44114
G1 X160.902 Y36.607 E21.47177
G1 X161.247 Y37.461 E21.5024
G1 X161.516 Y38.341 E21.53301
G1 X161.708 Y39.242 E21.56365
G1 X161.821 Y40.155 E21.59425
G1 X161.85 Y40.699 E21.61237
G1 X161.859 Y41.019 E21.62301
G1 X161.863 Y41.317 E21.63293
G1 X161.861 Y183.407 E26.35886
G1 X161.851 Y184.124 E26.38271
G1 X161.798 Y185.043 E26.41332
G1 X161.666 Y185.954 E26.44394
G1 X161.455 Y186.85 E26.47456
G1 X161.167 Y187.725 E26.5052
G1 X160.804 Y188.571 E26.53581
G1 X160.37 Y189.382 E26.56641
G1 X159.866 Y190.153 E26.59704
G1 X159.298 Y190.877 E26.62765
G1 X158.668 Y191.549 E26.65829
G1 X157.983 Y192.164 E26.68891
G1 X157.247 Y192.718 E26.71955
G1 X156.466 Y193.205 E26.75016
G1 X155.646 Y193.623 E26.78077
G1 X154.792 Y193.967 E26.81139
G1 X153.912 Y194.237 E26.84201
G1 X153.011 Y194.429 E26.87265
G1 X152.098 Y194.542 E26.90325
G1 X151.615 Y194.57 E26.91934
G1 X151.294 Y194.581 E26.93002
G1 X150.931 Y194.587 E26.9421
G1 X66.813 Y194.585 E29.73987
G1 X66.134 Y194.575 E29.76246
G1 X65.215 Y194.521 E29.79308
G1 X64.304 Y194.388 E29.8237
G1 X63.408 Y194.177 E29.85431
G1 X62.534 Y193.888 E29.88493
G1 X61.688 Y193.525 E29.91555
G1 X60.876 Y193.089 E29.9462
G1 X60.106 Y192.585 E29.97681
G1 X59.382 Y192.016 E30.00744
G1 X58.586 Y191.257 E30.04402
G1 X57.981 Y190.562 E30.07467
G1 X57.44 Y189.818 E30.10527
G1 X56.964 Y189.03 E30.13588
G1 X56.559 Y188.203 E30.16651
G1 X56.227 Y187.344 E30.19714
G1 X55.971 Y186.46 E30.22775
G1 X55.793 Y185.557 E30.25836
G1 X55.675 Y184.241 E30.30231
G1 X55.666 Y183.906 E30.31346
G1 X55.662 Y183.621 E30.32294
G1 X55.664 Y41.52 E35.04923
G1 X55.674 Y40.841 E35.07182
G1 X55.728 Y39.922 E35.10244
G1 X55.861 Y39.011 E35.13306
G1 X56.072 Y38.115 E35.16368
G1 X56.361 Y37.241 E35.19429
G1 X56.724 Y36.395 E35.22491
G1 X57.16 Y35.583 E35.25557
G0 F3000 X57.557 Y35.699
G1 F600 X58.059 Y34.949 E35.28558
G1 X58.627 Y34.246 E35.31565
G1 X59.254 Y33.596 E35.34568
G1 X59.936 Y33.004 E35.37572
G1 X60.668 Y32.475 E35.40576
G1 X61.443 Y32.013 E35.43577
G1 X62.257 Y31.621 E35.46582
G1 X63.102 Y31.302 E35.49586
G1 X63.972 Y31.06 E35.52589
G1 X64.86 Y30.895 E35.55593
G1 X65.924 Y30.803 E35.59145
G1 X66.245 Y30.792 E35.60214
G1 X66.594 Y30.786 E35.61375
G1 X150.702 Y30.788 E38.41119
G1 X151.4 Y30.798 E38.43441
G1 X152.302 Y30.851 E38.46446
G1 X153.195 Y30.983 E38.49448
G1 X154.073 Y31.194 E38.52452
G1 X154.929 Y31.482 E38.55456
G1 X155.756 Y31.844 E38.58458
G1 X156.548 Y32.279 E38.61464
G1 X157.299 Y32.781 E38.64468
G1 X158.002 Y33.348 E38.67472
G1 X158.652 Y33.975 E38.70476
G1 X159.244 Y34.657 E38.7348
G1 X159.774 Y35.388 E38.76483
G1 X160.236 Y36.164 E38.79487
G1 X160.629 Y36.977 E38.8249
G1 X160.947 Y37.822 E38.85493
G1 X161.19 Y38.692 E38.88497
G1 X161.355 Y39.58 E38.91501
G1 X161.45 Y40.71 E38.95273
G1 X161.459 Y41.03 E38.96338
G1 X161.463 Y41.317 E38.97292
G1 X161.461 Y183.401 E43.69866
G1 X161.451 Y184.118 E43.72251
G1 X161.398 Y185.02 E43.75256
G1 X161.266 Y185.913 E43.78258
G1 X161.056 Y186.791 E43.81261
G1 X160.768 Y187.648 E43.84268
G1 X160.406 Y188.475 E43.87271
G1 X159.972 Y189.267 E43.90274
G1 X159.47 Y190.018 E43.93279
G1 X158.904 Y190.721 E43.96281
G1 X158.277 Y191.371 E43.99284
G1 X157.595 Y191.964 E44.0229
G1 X156.864 Y192.493 E44.05291
G1 X156.089 Y192.956 E44.08294
G1 X155.275 Y193.349 E44.11301
G1 X154.43 Y193.668 E44.14305
G1 X153.561 Y193.911 E44.17306
G1 X152.673 Y194.077 E44.2031
G1 X151.601 Y194.17 E44.23889
G1 X151.28 Y194.181 E44.24958
G1 X150.931 Y194.187 E44.26119
G1 X66.819 Y194.185 E47.05876
G1 X66.14 Y194.175 E47.08135
G1 X65.238 Y194.122 E47.1114
G1 X64.345 Y193.989 E47.14143
G1 X63.467 Y193.778 E47.17146
G1 X62.611 Y193.489 E47.20151
G1 X61.784 Y193.127 E47.23154
G1 X60.992 Y192.692 E47.26159
G1 X60.242 Y192.19 E47.29161
G1 X59.539 Y191.622 E47.32167
G1 X58.876 Y190.981 E47.35234
G1 X58.284 Y190.3 E47.38235
G1 X57.754 Y189.568 E47.41241
G1 X57.291 Y188.793 E47.44244
G1 X56.898 Y187.98 E47.47247
G1 X56.579 Y187.135 E47.50251
G1 X56.336 Y186.265 E47.53256
G1 X56.17 Y185.377 E47.5626
G1 X56.075 Y184.23 E47.60088
G1 X56.066 Y183.895 E47.61203
G1 X56.062 Y183.621 E47.62114
G1 X56.064 Y41.526 E52.34724
G1 X56.074 Y40.847 E52.36983
G1 X56.127 Y39.945 E52.39988
G1 X56.26 Y39.052 E52.42991
G1 X56.471 Y38.174 E52.45994
G1 X56.76 Y37.318 E52.48999
G1 X57.122 Y36.491 E52.52002
G1 X57.557 Y35.699 E52.55007
G1 F3000 E44.55007
G1 F300 Z0.4
;MESH:HIK_Connections-pimount_v3.stl
G0 F3000 X87.263 Y49.448 Z0.4
;TYPE:WALL-INNER
G1 F300 Z0.2
G1 F3000 E52.96583
G1 F600 X88.409 Y49.267 E53.00441
G1 X89.445 Y48.741 E53.04306
G1 X90.267 Y47.918 E53.08175
G1 X90.794 Y46.884 E53.12035
G1 X90.975 Y45.736 E53.159
G1 X90.794 Y44.59 E53.19759
G1 X90.268 Y43.554 E53.23623
G1 X89.445 Y42.732 E53.27492
G1 X88.744 Y42.374 E53.3011
G1 X88.411 Y42.205 E53.31352
G1 X87.263 Y42.024 E53.35218
G1 X86.116 Y42.205 E53.3908
G1 X85.782 Y42.375 E53.40326
G1 X85.081 Y42.732 E53.42943
G1 X84.259 Y43.554 E53.46809
G1 X83.732 Y44.589 E53.50672
G1 X83.551 Y45.736 E53.54534
G1 X83.732 Y46.884 E53.584
G1 X84.259 Y47.918 E53.6226
G1 X85.081 Y48.741 E53.66129
G1 X86.117 Y49.267 E53.69993
G1 X87.263 Y49.448 E53.73852
G0 F3000 X87.263 Y49.043
G1 F600 X88.284 Y48.882 E53.7729
G1 X89.207 Y48.413 E53.80733
G1 X89.939 Y47.68 E53.84179
G1 X90.409 Y46.759 E53.87618
G1 X90.57 Y45.736 E53.91062
G1 X90.409 Y44.715 E53.945
G1 X89.94 Y43.792 E53.97943
G1 X89.207 Y43.06 E54.01389
G1 X88.286 Y42.59 E54.04828
G1 X87.263 Y42.429 E54.08272
G1 X86.241 Y42.59 E54.11713
G1 X85.319 Y43.06 E54.15155
G1 X84.587 Y43.792 E54.18599
G1 X84.117 Y44.714 E54.22041
G1 X83.956 Y45.736 E54.25482
G1 X84.117 Y46.759 E54.28926
G1 X84.587 Y47.68 E54.32365
G1 X85.319 Y48.413 E54.35811
G1 X86.242 Y48.882 E54.39254
G1 X87.263 Y49.043 E54.42692
G0 F3000 X87.263 Y48.638
;TYPE:WALL-OUTER
G1 F600 X88.159 Y48.497 E54.45709
G1 X88.969 Y48.085 E54.48731
G1 X89.611 Y47.442 E54.51753
G1 X90.024 Y46.634 E54.54772
G1 X90.165 Y45.736 E54.57795
G1 X90.024 Y44.84 E54.60812
G1 X89.612 Y44.03 E54.63834
G1 X88.969 Y43.388 E54.66856
G1 X88.161 Y42.975 E54.69874
G1 X87.263 Y42.834 E54.72898
G1 X86.366 Y42.975 E54.75918
G1 X85.557 Y43.388 E54.78939
G1 X84.915 Y44.03 E54.81959
G1 X84.502 Y44.839 E54.8498
G1 X84.361 Y45.736 E54.88
G1 X84.502 Y46.634 E54.91023
G1 X84.915 Y47.442 E54.94041
G1 X85.557 Y48.085 E54.97063
G1 X86.367 Y48.497 E55.00086
G1 X87.263 Y48.638 E55.03103
G0 F3000 X87.263 Y49.078
G1 F3000 E47.03103
G1 F300 Z0.4
G0 F3000 X141.116 Y49.268 Z0.4
;TYPE:WALL-INNER
G1 F300 Z0.2
G1 F3000 E55.44678
G1 F600 X142.263 Y49.449 E55.4854
G1 X143.41 Y49.268 E55.52402
G1 X144.445 Y48.741 E55.56265
G1 X145.267 Y47.919 E55.60132
G1 X145.794 Y46.884 E55.63995
G1 X145.975 Y45.737 E55.67857
G1 X145.794 Y44.591 E55.71716
G1 X145.268 Y43.555 E55.7558
G1 X144.445 Y42.733 E55.79449
G1 X143.742 Y42.375 E55.82073
G1 X143.411 Y42.206 E55.83309
G1 X142.263 Y42.025 E55.87174
G1 X141.116 Y42.206 E55.91037
G1 X140.784 Y42.375 E55.92276
G1 X140.081 Y42.733 E55.94899
G1 X139.259 Y43.555 E55.98766
G1 X139.039 Y43.987 E56.00378
G1 X92.462 Y43.986 E57.55294
G1 X92.263 Y43.986 E57.55956
G1 X92.263 Y44.185 E57.56384
G1 X92.263 Y50.986 E57.79004
G1 X80.763 Y50.986 E58.17254
G1 X80.763 Y43.986 E58.40536
G1 X68.763 Y43.986 E58.80448
G1 X68.762 Y180.787 E63.3545
G1 X68.762 Y180.986 E63.36112
G1 X68.961 Y180.986 E63.3654
G1 X80.762 Y180.986 E63.7579
G1 X80.762 Y169.986 E64.12376
G1 X84.896 Y169.986 E64.26126
G1 X85.08 Y169.986 E64.26738
G1 X85.563 Y169.986 E64.28345
G1 X85.08 Y170.232 E64.29002
G1 X84.95 Y170.362 E64.29504
G1 X84.258 Y171.054 E64.32759
G1 X83.731 Y172.089 E64.36622
G1 X83.55 Y173.236 E64.40485
G1 X83.731 Y174.384 E64.4435
G1 X84.258 Y175.418 E64.4821
G1 X85.08 Y176.241 E64.52079
G1 X86.116 Y176.767 E64.55943
G1 X87.262 Y176.948 E64.59802
G1 X88.408 Y176.767 E64.63661
G1 X89.444 Y176.241 E64.67525
G1 X90.266 Y175.418 E64.71394
G1 X90.793 Y174.384 E64.75254
G1 X90.974 Y173.236 E64.7912
G1 X90.793 Y172.089 E64.82982
G1 X90.266 Y171.054 E64.86845
G1 X89.574 Y170.362 E64.901
G1 X89.444 Y170.232 E64.90711
G1 X88.961 Y169.986 E64.92514
G1 X89.444 Y169.986 E64.92975
G1 X89.628 Y169.986 E64.93479
G1 X92.262 Y169.986 E65.02239
G1 X92.262 Y180.986 E65.38825
G1 X139.038 Y180.987 E66.94403
G1 X139.258 Y181.419 E66.96015
G1 X140.08 Y182.241 E66.99882
G1 X140.781 Y182.598 E67.02498
G1 X141.115 Y182.768 E67.03745
G1 X142.262 Y182.949 E67.07607
G1 X143.409 Y182.768 E67.11469
G1 X143.743 Y182.598 E67.12716
G1 X144.444 Y182.241 E67.15332
G1 X145.266 Y181.419 E67.19199
G1 X145.793 Y180.384 E67.23062
G1 X145.974 Y179.237 E67.26924
G1 X145.793 Y178.09 E67.30786
G1 X145.266 Y177.055 E67.34649
G1 X144.444 Y176.233 E67.38515
G1 X143.409 Y175.706 E67.42378
G1 X142.262 Y175.525 E67.4624
G1 X141.115 Y175.706 E67.50103
G1 X140.08 Y176.233 E67.53966
G1 X139.602 Y176.712 E67.56216
G1 X139.262 Y177.053 E67.57818
G1 X139.262 Y176.572 E67.58678
G1 X139.262 Y176.571 E67.58682
G1 X139.262 Y169.987 E67.8058
G1 X149.762 Y169.987 E68.15503
G1 X149.763 Y51.186 E72.10637
G1 X149.763 Y50.987 E72.11299
G1 X149.564 Y50.987 E72.11727
G1 X139.263 Y50.987 E72.45989
G1 X139.263 Y48.404 E72.5458
G1 X139.263 Y48.403 E72.54583
G1 X139.263 Y47.923 E72.56179
G1 X139.603 Y48.263 E72.5704
G1 X140.081 Y48.741 E72.59288
G1 X141.116 Y49.268 E72.63151
G0 F3000 X141.241 Y48.883
G1 F600 X142.263 Y49.044 E72.66592
G1 X143.285 Y48.883 E72.70033
G1 X144.207 Y48.413 E72.73475
G1 X144.939 Y47.681 E72.76919
G1 X145.409 Y46.759 E72.80361
G1 X145.57 Y45.737 E72.83802
G1 X145.409 Y44.716 E72.8724
G1 X144.94 Y43.793 E72.90683
G1 X144.207 Y43.061 E72.94128
G1 X143.286 Y42.591 E72.97568
G1 X142.263 Y42.43 E73.01012
G1 X141.241 Y42.591 E73.04453
G1 X140.319 Y43.061 E73.07895
G1 X139.587 Y43.793 E73.11338
G1 X139.198 Y44.557 E73.1419
G1 X139.117 Y44.715 E73.1478
G1 X138.956 Y45.737 E73.18221
G1 X139.117 Y46.759 E73.21662
G1 X139.253 Y47.027 E73.22662
G1 X139.587 Y47.681 E73.25104
G1 X140.319 Y48.413 E73.28548
G1 X141.241 Y48.883 E73.3199
G0 F3000 X141.366 Y48.498
;TYPE:WALL-OUTER
G1 F600 X142.263 Y48.639 E73.3501
G1 X143.16 Y48.498 E73.3803
G1 X143.969 Y48.085 E73.41051
G1 X144.611 Y47.443 E73.44071
G1 X145.024 Y46.634 E73.47092
G1 X145.165 Y45.737 E73.50112
G1 X145.024 Y44.841 E73.53129
G1 X144.612 Y44.031 E73.56151
G1 X143.969 Y43.389 E73.59173
G1 X143.161 Y42.976 E73.62191
G1 X142.263 Y42.835 E73.65215
G1 X141.366 Y42.976 E73.68235
G1 X140.557 Y43.389 E73.71256
G1 X139.915 Y44.031 E73.74276
G1 X139.502 Y44.84 E73.77297
G1 X139.361 Y45.737 E73.80317
G1 X139.502 Y46.634 E73.83337
G1 X139.915 Y47.443 E73.86358
G1 X140.557 Y48.085 E73.89378
G1 X141.366 Y48.498 E73.92399
G0 F3000 X141.231 Y48.916
G1 F3000 E65.92399
G1 F300 Z0.4
G0 F3000 X140.318 Y181.913 Z0.4
;TYPE:WALL-INNER
G1 F300 Z0.2
G1 F3000 E74.33974
G1 F600 X141.24 Y182.383 E74.37416
G1 X142.262 Y182.544 E74.40857
G1 X143.284 Y182.383 E74.44298
G1 X144.206 Y181.913 E74.4774
G1 X144.938 Y181.181 E74.51183
G1 X145.408 Y180.259 E74.54625
G1 X145.569 Y179.237 E74.58067
G1 X145.408 Y178.215 E74.61508
G1 X144.938 Y177.293 E74.6495
G1 X144.206 Y176.561 E74.68393
G1 X143.284 Y176.091 E74.71835
G1 X142.262 Y175.93 E74.75276
G1 X141.24 Y176.091 E74.78717
G1 X140.318 Y176.561 E74.82159
G1 X139.587 Y177.293 E74.856
G1 X139.252 Y177.947 E74.88044
G1 X139.116 Y178.214 E74.8904
G1 X138.955 Y179.237 E74.92485
G1 X139.108 Y180.212 E74.95767
G1 X139.111 Y180.225 E74.95812
G1 X139.116 Y180.259 E74.95926
G1 X139.196 Y180.416 E74.96512
G1 X139.586 Y181.181 E74.99368
G1 X140.318 Y181.913 E75.02811
G0 F3000 X140.556 Y181.585
;TYPE:WALL-OUTER
G1 F600 X141.365 Y181.998 E75.05832
G1 X142.262 Y182.139 E75.08852
G1 X143.159 Y181.998 E75.11872
G1 X143.968 Y181.585 E75.14893
G1 X144.61 Y180.943 E75.17913
G1 X145.023 Y180.134 E75.20934
