;FLAVOR:Marlin
;TIME:9271
;Filament used: 3.61808m
;Layer height: 0.2
;MINX:87
;MINY:68.5
;MINZ:0.2
;MAXX:133
;MAXY:151.5
;MAXZ:42
;Generated with Cura_SteamEngine 4.9.0
M140 S80
M105
M190 S80
M104 S250
M105
M109 S250
M82 ;absolute extrusion mode
; Ender 3 Custom Start G-code
G92 E0 ; Reset Extruder
G28 ; Home all axes
M117 Auto bed-level GO!
G29 ; Auto bed-level (BL-Touch)
G92 E0 ; Reset Extruder
G1 Z2.0 F3000 ; Move Z Axis up little to prevent scratching of Heat Bed
G1 X0.1 Y20 Z0.3 F5000.0 ; Move to start position
G1 X0.1 Y200.0 Z0.3 F1500.0 E15 ; Draw the first line
G1 X0.4 Y200.0 Z0.3 F5000.0 ; Move to side a little
G1 X0.4 Y20 Z0.3 F1500.0 E30 ; Draw the second line
G92 E0 ; Reset Extruder
G1 Z2.0 F3000 ; Move Z Axis up little to prevent scratching of Heat Bed
G1 X5 Y20 Z0.3 F5000.0 ; Move over to prevent blob squish
G92 E0
G92 E0
G1 F2700 E-6
;LAYER_COUNT:210
;LAYER:0
M107
G0 F3000 X89.566 Y72.458 Z0.2
;TYPE:SKIRT
G1 F2700 E0
G1 F600 X90.198 Y71.764 E0.03122
G1 X90.886 Y71.127 E0.0624
G1 X91.626 Y70.551 E0.09359
G1 X92.412 Y70.039 E0.12479
G1 X93.239 Y69.597 E0.15598
G1 X94.101 Y69.227 E0.18718
G1 X94.991 Y68.931 E0.21838
G1 X95.903 Y68.713 E0.24957
G1 X96.83 Y68.572 E0.28075
G1 X97.701 Y68.513 E0.30979
G1 X98.022 Y68.504 E0.32047
G1 X98.33 Y68.5 E0.33071
G1 X121.293 Y68.5 E1.09447
G1 X122.149 Y68.511 E1.12294
G1 X123.085 Y68.565 E1.15412
G1 X124.013 Y68.697 E1.1853
G1 X124.927 Y68.909 E1.21651
G1 X125.819 Y69.198 E1.24769
G1 X126.684 Y69.561 E1.27889
G1 X127.514 Y69.997 E1.31008
G1 X128.305 Y70.502 E1.34129
G1 X129.049 Y71.073 E1.37248
G1 X129.742 Y71.705 E1.40368
G1 X130.379 Y72.393 E1.43486
G1 X130.954 Y73.134 E1.46606
G1 X131.465 Y73.92 E1.49724
G1 X131.907 Y74.748 E1.52846
G1 X132.276 Y75.61 E1.55964
G1 X132.571 Y76.5 E1.59083
G1 X132.789 Y77.412 E1.62202
G1 X132.929 Y78.34 E1.65323
G1 X132.987 Y79.201 E1.68193
G1 X132.996 Y79.521 E1.69258
G1 X133 Y79.83 E1.70286
G1 X132.999 Y88.95 E2.00619
G1 X132.989 Y89.651 E2.02951
G1 X132.936 Y90.587 E2.06069
G1 X132.804 Y91.506 E2.09157
G1 X132.545 Y92.893 E2.1385
G1 X132.494 Y93.147 E2.14712
G1 X132.072 Y95.617 E2.23046
G1 X131.716 Y98.126 E2.31474
G1 X131.436 Y100.603 E2.39765
G1 X131.221 Y103.133 E2.48211
G1 X131.082 Y105.607 E2.56452
G1 X131 Y109.519 E2.69466
G1 X131 Y110.567 E2.72952
G1 X131.037 Y113.176 E2.8163
G1 X131.144 Y115.698 E2.90026
G1 X131.321 Y118.192 E2.98342
G1 X131.569 Y120.69 E3.06691
G1 X131.887 Y123.179 E3.15037
G1 X132.282 Y125.694 E3.23505
G1 X132.803 Y128.483 E3.32941
G1 X132.936 Y129.412 E3.36063
G1 X132.985 Y130.167 E3.38579
G1 X132.995 Y130.495 E3.39671
G1 X133 Y130.83 E3.40785
G1 X132.999 Y139.9 E3.70952
G1 X132.99 Y140.627 E3.7337
G1 X132.939 Y141.564 E3.76491
G1 X132.807 Y142.492 E3.79609
G1 X132.598 Y143.406 E3.82727
G1 X132.311 Y144.299 E3.85847
G1 X131.949 Y145.165 E3.88969
G1 X131.515 Y145.996 E3.92087
G1 X131.011 Y146.787 E3.95206
G1 X130.442 Y147.532 E3.98324
G1 X129.811 Y148.227 E4.01447
G1 X129.124 Y148.865 E4.04565
G1 X128.385 Y149.442 E4.07683
G1 X127.599 Y149.954 E4.10803
G1 X126.773 Y150.397 E4.13921
G1 X125.911 Y150.769 E4.17043
G1 X125.022 Y151.065 E4.2016
G1 X124.11 Y151.285 E4.2328
G1 X123.183 Y151.426 E4.26399
G1 X122.299 Y151.487 E4.29346
G1 X121.978 Y151.496 E4.30414
G1 X121.67 Y151.5 E4.31438
G1 X98.565 Y151.499 E5.08286
G1 X97.867 Y151.49 E5.10608
G1 X96.931 Y151.438 E5.13726
G1 X96.002 Y151.306 E5.16847
G1 X95.088 Y151.096 E5.19966
G1 X94.195 Y150.809 E5.23086
G1 X93.33 Y150.446 E5.26206
G1 X92.499 Y150.012 E5.29324
G1 X91.708 Y149.508 E5.32443
G1 X90.963 Y148.938 E5.35563
G1 X90.269 Y148.307 E5.38683
G1 X89.632 Y147.62 E5.41799
G1 X89.055 Y146.88 E5.4492
G1 X88.543 Y146.094 E5.4804
G1 X88.1 Y145.267 E5.5116
G1 X87.729 Y144.406 E5.54279
G1 X87.433 Y143.516 E5.57398
G1 X87.214 Y142.604 E5.60518
G1 X87.073 Y141.677 E5.63636
G1 X87.013 Y140.788 E5.666
G1 X87.004 Y140.455 E5.67708
G1 X87 Y140.158 E5.68696
G1 X87.001 Y130.536 E6.00699
G1 X87.012 Y129.83 E6.03047
G1 X87.067 Y128.893 E6.06169
G1 X87.197 Y127.989 E6.09207
G1 X87.423 Y126.776 E6.13311
G1 X87.523 Y126.275 E6.1501
G1 X87.944 Y123.826 E6.23275
G1 X88.307 Y121.288 E6.31802
G1 X88.587 Y118.825 E6.40047
G1 X88.803 Y116.3 E6.48476
G1 X88.945 Y113.815 E6.56754
G1 X89.017 Y111.264 E6.65242
G1 X89.018 Y108.764 E6.73557
G1 X88.949 Y106.25 E6.81922
G1 X88.806 Y103.726 E6.9033
G1 X88.593 Y101.203 E6.98752
G1 X88.314 Y98.74 E7.06996
G1 X87.954 Y96.208 E7.15502
G1 X87.534 Y93.752 E7.2379
G1 X87.21 Y92.084 E7.29441
G1 X87.071 Y91.156 E7.32562
G1 X87.013 Y90.299 E7.35419
G1 X87.004 Y89.981 E7.36477
G1 X87 Y89.67 E7.37512
G1 X87.001 Y80.025 E7.69591
G1 X87.01 Y79.36 E7.71803
G1 X87.063 Y78.424 E7.74921
G1 X87.195 Y77.495 E7.78042
G1 X87.406 Y76.581 E7.81162
G1 X87.694 Y75.689 E7.8428
G1 X88.057 Y74.824 E7.874
G1 X88.492 Y73.993 E7.90519
G1 X88.996 Y73.203 E7.93636
G1 X89.566 Y72.458 E7.96756
G0 F3000 X89.961 Y72.611
G1 F600 X90.589 Y71.939 E7.99815
G1 X91.274 Y71.323 E8.02879
G1 X92.01 Y70.77 E8.05941
G1 X92.791 Y70.282 E8.09004
G1 X93.611 Y69.864 E8.12065
G1 X94.465 Y69.519 E8.15129
G1 X95.345 Y69.249 E8.1819
G1 X96.245 Y69.057 E8.21251
G1 X97.159 Y68.943 E8.24315
G1 X97.712 Y68.913 E8.26157
G1 X98.033 Y68.904 E8.27225
G1 X98.33 Y68.9 E8.28213
G1 X121.293 Y68.9 E9.04588
G1 X122.143 Y68.911 E9.07415
G1 X123.062 Y68.964 E9.10477
G1 X123.973 Y69.097 E9.13539
G1 X124.869 Y69.308 E9.16601
G1 X125.743 Y69.596 E9.19661
G1 X126.59 Y69.959 E9.22726
G1 X127.401 Y70.394 E9.25787
G1 X128.171 Y70.898 E9.28848
G1 X128.895 Y71.467 E9.31911
G1 X129.567 Y72.097 E9.34974
G1 X130.182 Y72.782 E9.38036
G1 X130.735 Y73.518 E9.41098
G1 X131.222 Y74.299 E9.44159
G1 X131.639 Y75.12 E9.47222
G1 X131.984 Y75.974 E9.50286
G1 X132.253 Y76.854 E9.53346
G1 X132.445 Y77.755 E9.5641
G1 X132.558 Y78.668 E9.5947
G1 X132.587 Y79.212 E9.61282
G1 X132.596 Y79.532 E9.62347
G1 X132.6 Y79.83 E9.63338
G1 X132.599 Y88.944 E9.93651
G1 X132.589 Y89.645 E9.95983
G1 X132.536 Y90.564 E9.99045
G1 X132.411 Y91.433 E10.01965
G1 X132.153 Y92.815 E10.06641
G1 X132.102 Y93.073 E10.07515
G1 X131.675 Y95.565 E10.15925
G1 X131.321 Y98.061 E10.24309
G1 X131.035 Y100.596 E10.32794
G1 X130.821 Y103.111 E10.4119
G1 X130.682 Y105.576 E10.49401
G1 X130.6 Y109.511 E10.62492
G1 X130.6 Y110.573 E10.66024
G1 X130.637 Y113.198 E10.74756
G1 X130.744 Y115.707 E10.83108
G1 X130.922 Y118.223 E10.91498
G1 X131.172 Y120.747 E10.99933
G1 X131.493 Y123.255 E11.08343
G1 X131.882 Y125.731 E11.16679
G1 X132.41 Y128.557 E11.26241
G1 X132.539 Y129.468 E11.29302
G1 X132.585 Y130.179 E11.31671
G1 X132.595 Y130.507 E11.32763
G1 X132.6 Y130.83 E11.33837
G1 X132.599 Y139.895 E11.63987
G1 X132.59 Y140.622 E11.66406
G1 X132.539 Y141.541 E11.69467
G1 X132.408 Y142.453 E11.72531
G1 X132.198 Y143.349 E11.75592
G1 X131.912 Y144.224 E11.78654
G1 X131.551 Y145.071 E11.81716
G1 X131.117 Y145.883 E11.84779
G1 X130.615 Y146.655 E11.87841
G1 X130.047 Y147.38 E11.90905
G1 X129.419 Y148.053 E11.93966
G1 X128.735 Y148.669 E11.97028
G1 X128 Y149.223 E12.00089
G1 X127.22 Y149.712 E12.03151
G1 X126.4 Y150.131 E12.06214
G1 X125.547 Y150.477 E12.09276
G1 X124.667 Y150.748 E12.12338
G1 X123.767 Y150.941 E12.154
G1 X122.853 Y151.056 E12.18463
G1 X122.288 Y151.087 E12.20345
G1 X121.967 Y151.096 E12.21414
G1 X121.67 Y151.1 E12.22401
G1 X98.57 Y151.099 E12.99232
G1 X97.872 Y151.09 E13.01554
G1 X96.953 Y151.038 E13.04616
G1 X96.042 Y150.907 E13.07677
G1 X95.146 Y150.697 E13.10738
G1 X94.271 Y150.41 E13.138
G1 X93.424 Y150.048 E13.16864
G1 X92.612 Y149.614 E13.19926
G1 X91.841 Y149.112 E13.22986
G1 X91.116 Y148.544 E13.2605
G1 X90.443 Y147.915 E13.29114
G1 X89.828 Y147.231 E13.32173
G1 X89.274 Y146.496 E13.35234
G1 X88.786 Y145.715 E13.38297
G1 X88.367 Y144.895 E13.4136
G1 X88.021 Y144.042 E13.44422
G1 X87.751 Y143.162 E13.47483
G1 X87.558 Y142.261 E13.50548
G1 X87.444 Y141.348 E13.53608
G1 X87.413 Y140.777 E13.5551
G1 X87.404 Y140.444 E13.56618
G1 X87.4 Y140.158 E13.57569
G1 X87.401 Y130.542 E13.89552
G1 X87.412 Y129.836 E13.91901
G1 X87.467 Y128.917 E13.94963
G1 X87.59 Y128.062 E13.97836
G1 X87.815 Y126.855 E14.01919
G1 X87.916 Y126.35 E14.03632
G1 X88.34 Y123.884 E14.11955
G1 X88.702 Y121.352 E14.20462
G1 X88.989 Y118.833 E14.28894
G1 X89.2 Y116.358 E14.37156
G1 X89.345 Y113.813 E14.45634
G1 X89.417 Y111.275 E14.54079
G1 X89.418 Y108.753 E14.62467
G1 X89.348 Y106.215 E14.70912
G1 X89.207 Y103.706 E14.7927
G1 X88.994 Y101.195 E14.87652
G1 X88.709 Y98.675 E14.96087
G1 X88.35 Y96.15 E15.04569
G1 X87.922 Y93.651 E15.13002
G1 X87.603 Y92.007 E15.18572
G1 X87.467 Y91.097 E15.21632
G1 X87.413 Y90.288 E15.24329
G1 X87.404 Y89.97 E15.25387
G1 X87.4 Y89.67 E15.26385
G1 X87.401 Y80.031 E15.58445
G1 X87.41 Y79.366 E15.60657
G1 X87.462 Y78.446 E15.63721
G1 X87.594 Y77.535 E15.66783
G1 X87.805 Y76.639 E15.69845
G1 X88.092 Y75.764 E15.72907
G1 X88.455 Y74.918 E15.75969
G1 X88.889 Y74.106 E15.79032
G1 X89.392 Y73.335 E15.82093
G1 X89.961 Y72.611 E15.85156
G0 F3000 X90.355 Y72.767
G1 F600 X90.981 Y72.117 E15.88158
G1 X91.662 Y71.524 E15.91161
G1 X92.394 Y70.994 E15.94167
G1 X93.169 Y70.531 E15.97169
G1 X93.982 Y70.138 E16.00173
G1 X94.827 Y69.818 E16.03178
G1 X95.696 Y69.575 E16.06179
G1 X96.584 Y69.409 E16.09184
G1 X97.723 Y69.313 E16.12986
G1 X98.044 Y69.304 E16.14054
G1 X98.33 Y69.3 E16.15005
G1 X121.293 Y69.3 E16.9138
G1 X122.137 Y69.311 E16.94188
G1 X123.039 Y69.364 E16.97193
G1 X123.932 Y69.496 E17.00195
G1 X124.81 Y69.707 E17.03199
G1 X125.666 Y69.995 E17.06203
G1 X126.493 Y70.357 E17.09205
G1 X127.285 Y70.792 E17.12211
G1 X128.036 Y71.294 E17.15215
G1 X128.739 Y71.861 E17.18219
G1 X129.389 Y72.488 E17.21223
G1 X129.981 Y73.17 E17.24227
G1 X130.511 Y73.901 E17.2723
G1 X130.973 Y74.677 E17.30233
G1 X131.366 Y75.49 E17.33237
G1 X131.684 Y76.335 E17.3624
G1 X131.927 Y77.205 E17.39244
G1 X132.092 Y78.093 E17.42248
G1 X132.187 Y79.223 E17.4602
G1 X132.196 Y79.543 E17.47085
G1 X132.2 Y79.83 E17.48039
G1 X132.199 Y88.938 E17.78333
G1 X132.189 Y89.639 E17.80664
G1 X132.136 Y90.541 E17.8367
G1 X132.018 Y91.36 E17.86422
G1 X131.761 Y92.737 E17.91081
G1 X131.708 Y93.005 E17.91989
G1 X131.279 Y95.512 E18.00449
G1 X130.922 Y98.027 E18.08898
G1 X130.64 Y100.518 E18.17236
G1 X130.422 Y103.09 E18.25821
G1 X130.282 Y105.573 E18.34092
G1 X130.2 Y109.503 E18.47167
G1 X130.2 Y110.579 E18.50745
G1 X130.237 Y113.185 E18.59414
G1 X130.346 Y115.751 E18.67956
G1 X130.524 Y118.258 E18.76315
G1 X130.772 Y120.767 E18.84701
G1 X131.1 Y123.33 E18.93295
G1 X131.488 Y125.794 E19.01591
G1 X132.017 Y128.63 E19.11187
G1 X132.143 Y129.524 E19.14189
G1 X132.185 Y130.191 E19.16412
G1 X132.195 Y130.519 E19.17504
G1 X132.2 Y130.83 E19.18538
G1 X132.199 Y139.89 E19.48672
G1 X132.19 Y140.617 E19.5109
G1 X132.139 Y141.519 E19.54095
G1 X132.008 Y142.413 E19.571
G1 X131.799 Y143.291 E19.60102
G1 X131.513 Y144.148 E19.63107
G1 X131.152 Y144.976 E19.66111
G1 X130.72 Y145.768 E19.69112
G1 X130.219 Y146.52 E19.72117
G1 X129.653 Y147.224 E19.75122
G1 X129.028 Y147.875 E19.78123
G1 X128.347 Y148.469 E19.81129
G1 X127.616 Y149 E19.84134
G1 X126.842 Y149.464 E19.87135
G1 X126.029 Y149.858 E19.9014
G1 X125.185 Y150.178 E19.93142
G1 X124.315 Y150.423 E19.96149
G1 X123.428 Y150.589 E19.9915
G1 X122.277 Y150.687 E20.02992
G1 X121.956 Y150.696 E20.0406
G1 X121.67 Y150.7 E20.05012
G1 X98.575 Y150.699 E20.81826
G1 X97.877 Y150.69 E20.84148
G1 X96.976 Y150.639 E20.87149
G1 X96.082 Y150.507 E20.90155
G1 X95.204 Y150.298 E20.93157
G1 X94.347 Y150.011 E20.96163
G1 X93.52 Y149.65 E20.99164
G1 X92.727 Y149.217 E21.02169
G1 X91.976 Y148.716 E21.05172
G1 X91.272 Y148.15 E21.08176
G1 X90.621 Y147.524 E21.1118
G1 X90.028 Y146.843 E21.14183
G1 X89.498 Y146.112 E21.17186
G1 X89.034 Y145.337 E21.20191
G1 X88.64 Y144.524 E21.23196
G1 X88.32 Y143.68 E21.26198
G1 X88.076 Y142.81 E21.29203
G1 X87.91 Y141.922 E21.32208
G1 X87.813 Y140.767 E21.36063
G1 X87.804 Y140.434 E21.37171
G1 X87.8 Y140.158 E21.38089
G1 X87.801 Y130.548 E21.70052
G1 X87.812 Y129.842 E21.724
G1 X87.866 Y128.941 E21.75402
G1 X87.983 Y128.135 E21.78111
G1 X88.208 Y126.934 E21.82175
G1 X88.302 Y126.466 E21.83763
G1 X88.737 Y123.931 E21.92318
G1 X89.101 Y121.387 E22.00865
G1 X89.383 Y118.911 E22.09154
G1 X89.602 Y116.344 E22.17723
G1 X89.745 Y113.847 E22.26041
G1 X89.817 Y111.288 E22.34556
G1 X89.818 Y108.742 E22.43024
G1 X89.748 Y106.218 E22.51422
G1 X89.606 Y103.686 E22.59857
G1 X89.388 Y101.115 E22.68438
G1 X89.108 Y98.645 E22.76706
G1 X88.746 Y96.098 E22.85263
G1 X88.311 Y93.552 E22.93854
G1 X87.996 Y91.931 E22.99346
G1 X87.863 Y91.038 E23.02349
G1 X87.813 Y90.277 E23.04885
G1 X87.804 Y89.959 E23.05943
G1 X87.8 Y89.67 E23.06905
G1 X87.801 Y80.036 E23.38948
G1 X87.81 Y79.371 E23.4116
G1 X87.862 Y78.469 E23.44165
G1 X87.994 Y77.576 E23.47167
G1 X88.204 Y76.698 E23.5017
G1 X88.491 Y75.841 E23.53176
G1 X88.853 Y75.014 E23.56178
G1 X89.286 Y74.222 E23.5918
G1 X89.788 Y73.471 E23.62185
G1 X90.355 Y72.767 E23.65191
G1 F2700 E17.65191
G0 F3000 X97.339 Y90.157
G0 X111.171 Y110.38
G1 F2700 E23.65191
G1 F600 X111.395 Y110.217 E23.66113
G1 X111.639 Y110.217 E23.66924
G1 X111.843 Y110.366 E23.67765
G1 X111.912 Y110.577 E23.68503
G1 X111.818 Y110.855 E23.69479
G1 X111.594 Y111.018 E23.704
G1 X111.35 Y111.018 E23.71212
G1 X111.146 Y110.869 E23.72052
G1 X111.077 Y110.658 E23.7279
G1 X111.171 Y110.38 E23.73767
G0 F3000 X110.832 Y110.132
G1 F600 X111.265 Y109.817 E23.75547
G1 X111.769 Y109.817 E23.77224
G1 X112.183 Y110.118 E23.78926
G1 X112.334 Y110.58 E23.80543
G1 X112.157 Y111.103 E23.82379
G1 X111.724 Y111.418 E23.8416
G1 X111.22 Y111.418 E23.85837
G1 X110.806 Y111.117 E23.87539
G1 X110.655 Y110.655 E23.89156
G1 X110.832 Y110.132 E23.90992
G0 F3000 X110.496 Y109.882
G1 F600 X111.134 Y109.417 E23.93618
G1 X111.9 Y109.417 E23.96166
G1 X112.523 Y109.871 E23.98729
G1 X112.754 Y110.582 E24.01216
G1 X112.493 Y111.353 E24.03923
G1 X111.855 Y111.818 E24.06549
G1 X111.089 Y111.818 E24.09097
G1 X110.466 Y111.364 E24.11661
G1 X110.235 Y110.653 E24.14147
G1 X110.496 Y109.882 E24.16854
G0 F3000 X110.157 Y109.633
G1 F600 X111.004 Y109.017 E24.20338
G1 X112.03 Y109.017 E24.2375
G1 X112.864 Y109.624 E24.27181
G1 X113.176 Y110.583 E24.30535
G1 X112.832 Y111.602 E24.34112
G1 X111.985 Y112.218 E24.37596
G1 X110.959 Y112.218 E24.41008
G1 X110.125 Y111.611 E24.44439
G1 X109.813 Y110.652 E24.47793
G1 X110.157 Y109.633 E24.5137
G0 F3000 X109.819 Y109.386
G1 F600 X110.875 Y108.617 E24.55715
G1 X112.159 Y108.617 E24.59986
G1 X113.204 Y109.378 E24.64286
G1 X113.598 Y110.587 E24.68515
G1 X113.17 Y111.849 E24.72947
G1 X112.114 Y112.618 E24.77292
G1 X110.83 Y112.618 E24.81563
G1 X109.785 Y111.857 E24.85862
G1 X109.391 Y110.648 E24.90092
G1 X109.819 Y109.386 E24.94524
G0 F3000 X109.481 Y109.136
G1 F600 X110.743 Y108.217 E24.99716
G1 X112.291 Y108.217 E25.04865
G1 X113.543 Y109.129 E25.10017
G1 X114.019 Y110.59 E25.15127
G1 X113.508 Y112.099 E25.20426
G1 X112.246 Y113.018 E25.25619
G1 X110.698 Y113.018 E25.30767
G1 X109.446 Y112.106 E25.35919
G1 X108.97 Y110.645 E25.4103
G1 X109.481 Y109.136 E25.46329
G0 F3000 X109.142 Y108.888
G1 F600 X110.614 Y107.817 E25.52384
G1 X112.42 Y107.817 E25.5839
G1 X113.884 Y108.883 E25.64414
G1 X114.441 Y110.591 E25.70389
G1 X113.847 Y112.347 E25.76555
G1 X112.375 Y113.418 E25.82609
G1 X110.569 Y113.418 E25.88616
G1 X109.105 Y112.352 E25.94639
G1 X108.548 Y110.644 E26.00615
G1 X109.142 Y108.888 E26.0678
G0 F3000 X108.804 Y108.639
G1 F600 X110.483 Y107.417 E26.13687
G1 X112.551 Y107.417 E26.20565
G1 X114.224 Y108.635 E26.27448
G1 X114.862 Y110.594 E26.34301
G1 X114.185 Y112.596 E26.4133
G1 X112.506 Y113.818 E26.48236
G1 X110.438 Y113.818 E26.55115
G1 X108.765 Y112.6 E26.61998
G1 X108.127 Y110.641 E26.6885
G1 X108.804 Y108.639 E26.75879
G0 F3000 X108.466 Y108.391
G1 F600 X110.353 Y107.017 E26.83643
G1 X112.681 Y107.017 E26.91386
G1 X114.564 Y108.388 E26.99133
G1 X115.284 Y110.598 E27.06864
G1 X114.523 Y112.844 E27.14751
G1 X112.636 Y114.218 E27.22515
G1 X110.308 Y114.218 E27.30258
G1 X108.425 Y112.847 E27.38005
G1 X107.705 Y110.637 E27.45735
G1 X108.466 Y108.391 E27.53623
G0 F3000 X108.127 Y108.143
G1 F600 X110.224 Y106.617 E27.62249
G1 X112.81 Y106.617 E27.7085
