;FLAVOR:Marlin
;TIME:4821
;Filament used: 1.67789m
;Layer height: 0.2
;MINX:27.5
;MINY:56.467
;MINZ:0.2
;MAXX:192.5
;MAXY:163.467
;MAXZ:5.4
;Generated with Cura_SteamEngine 4.9.0
M140 S80
M105
M190 S80
M104 S250
M105
M109 S250
M82 ;absolute extrusion mode
; Ender 3 Custom Start G-code
G92 E0 ; Reset Extruder
G28 ; Home all axes
M117 Auto bed-level GO!
G29 ; Auto bed-level (BL-Touch)
G92 E0 ; Reset Extruder
G1 Z2.0 F3000 ; Move Z Axis up little to prevent scratching of Heat Bed
G1 X0.1 Y20 Z0.3 F5000.0 ; Move to start position
G1 X0.1 Y200.0 Z0.3 F1500.0 E15 ; Draw the first line
G1 X0.4 Y200.0 Z0.3 F5000.0 ; Move to side a little
G1 X0.4 Y20 Z0.3 F1500.0 E30 ; Draw the second line
G92 E0 ; Reset Extruder
G1 Z2.0 F3000 ; Move Z Axis up little to prevent scratching of Heat Bed
G1 X5 Y20 Z0.3 F5000.0 ; Move over to prevent blob squish
G92 E0
G92 E0
G1 F2700 E-6
;LAYER_COUNT:27
;LAYER:0
M107
G0 F3000 X32.912 Y58.006 Z0.2
;TYPE:SKIRT
G1 F2700 E0
G1 F600 X33.739 Y57.564 E0.03119
G1 X34.601 Y57.194 E0.06239
G1 X35.491 Y56.898 E0.09358
G1 X36.403 Y56.68 E0.12477
G1 X37.33 Y56.539 E0.15596
G1 X38.201 Y56.48 E0.18499
G1 X38.522 Y56.471 E0.19567
G1 X38.83 Y56.467 E0.20592
G1 X180.793 Y56.467 E4.92763
G1 X181.649 Y56.478 E4.9561
G1 X182.585 Y56.532 E4.98728
G1 X183.513 Y56.664 E5.01846
G1 X184.427 Y56.876 E5.04967
G1 X185.319 Y57.165 E5.08085
G1 X186.184 Y57.528 E5.11205
G1 X187.014 Y57.964 E5.14324
G1 X187.805 Y58.469 E5.17445
G1 X188.549 Y59.04 E5.20564
G1 X189.242 Y59.672 E5.23684
G1 X189.879 Y60.36 E5.26802
G1 X190.454 Y61.101 E5.29922
G1 X190.965 Y61.887 E5.3304
G1 X191.407 Y62.715 E5.36162
G1 X191.776 Y63.577 E5.39281
G1 X192.071 Y64.467 E5.42399
G1 X192.289 Y65.379 E5.45518
G1 X192.429 Y66.307 E5.48639
G1 X192.487 Y67.168 E5.5151
G1 X192.496 Y67.488 E5.52574
G1 X192.5 Y67.797 E5.53602
G1 X192.499 Y151.867 E8.3322
G1 X192.49 Y152.594 E8.35638
G1 X192.439 Y153.531 E8.38759
G1 X192.307 Y154.459 E8.41877
G1 X192.098 Y155.373 E8.44995
G1 X191.811 Y156.266 E8.48115
G1 X191.449 Y157.132 E8.51237
G1 X191.015 Y157.963 E8.54355
G1 X190.511 Y158.754 E8.57475
G1 X189.942 Y159.499 E8.60593
G1 X189.311 Y160.194 E8.63715
G1 X188.624 Y160.832 E8.66833
G1 X187.885 Y161.409 E8.69952
G1 X187.099 Y161.921 E8.73071
G1 X186.273 Y162.364 E8.76189
G1 X185.411 Y162.736 E8.79312
G1 X184.522 Y163.032 E8.82428
G1 X183.61 Y163.252 E8.85548
G1 X182.683 Y163.393 E8.88667
G1 X181.799 Y163.454 E8.91614
G1 X181.478 Y163.463 E8.92682
G1 X181.17 Y163.467 E8.93707
G1 X39.065 Y163.466 E13.6635
G1 X38.367 Y163.457 E13.68672
G1 X37.431 Y163.405 E13.7179
G1 X36.502 Y163.273 E13.7491
G1 X35.588 Y163.063 E13.7803
G1 X34.695 Y162.776 E13.81149
G1 X33.83 Y162.413 E13.84269
G1 X32.999 Y161.979 E13.87388
G1 X32.208 Y161.475 E13.90507
G1 X31.463 Y160.905 E13.93627
G1 X30.769 Y160.274 E13.96747
G1 X30.132 Y159.587 E13.99863
G1 X29.555 Y158.847 E14.02984
G1 X29.043 Y158.061 E14.06104
G1 X28.6 Y157.234 E14.09224
G1 X28.229 Y156.373 E14.12343
G1 X27.933 Y155.483 E14.15462
G1 X27.714 Y154.571 E14.18582
G1 X27.573 Y153.644 E14.217
G1 X27.513 Y152.755 E14.24664
G1 X27.504 Y152.422 E14.25772
G1 X27.5 Y152.125 E14.2676
G1 X27.501 Y67.992 E17.06587
G1 X27.51 Y67.327 E17.08799
G1 X27.563 Y66.391 E17.11917
G1 X27.695 Y65.462 E17.15038
G1 X27.906 Y64.548 E17.18158
G1 X28.194 Y63.656 E17.21276
G1 X28.557 Y62.791 E17.24396
G1 X28.992 Y61.96 E17.27516
G1 X29.496 Y61.17 E17.30632
G1 X30.066 Y60.425 E17.33752
G1 X30.698 Y59.731 E17.36874
G1 X31.386 Y59.094 E17.39993
G1 X32.126 Y58.518 E17.43112
G1 X32.912 Y58.006 E17.46232
G0 F3000 X33.291 Y58.249
G1 F600 X34.111 Y57.831 E17.49293
G1 X34.965 Y57.486 E17.52356
G1 X35.845 Y57.216 E17.55418
G1 X36.745 Y57.024 E17.58479
G1 X37.659 Y56.91 E17.61542
G1 X38.212 Y56.88 E17.63384
G1 X38.533 Y56.871 E17.64452
G1 X38.83 Y56.867 E17.6544
G1 X180.793 Y56.867 E22.37611
G1 X181.643 Y56.878 E22.40438
G1 X182.562 Y56.931 E22.435
G1 X183.473 Y57.064 E22.46562
G1 X184.369 Y57.275 E22.49624
G1 X185.243 Y57.563 E22.52685
G1 X186.09 Y57.926 E22.55749
G1 X186.901 Y58.361 E22.5881
G1 X187.671 Y58.865 E22.61871
G1 X188.395 Y59.434 E22.64934
G1 X189.067 Y60.064 E22.67998
G1 X189.682 Y60.749 E22.71059
G1 X190.235 Y61.485 E22.74121
G1 X190.722 Y62.266 E22.77183
G1 X191.139 Y63.087 E22.80245
G1 X191.484 Y63.941 E22.83309
G1 X191.753 Y64.821 E22.86369
G1 X191.945 Y65.722 E22.89433
G1 X192.058 Y66.635 E22.92493
G1 X192.087 Y67.179 E22.94305
G1 X192.096 Y67.499 E22.9537
G1 X192.1 Y67.797 E22.96361
G1 X192.099 Y151.862 E25.75962
G1 X192.09 Y152.589 E25.78381
G1 X192.039 Y153.508 E25.81442
G1 X191.908 Y154.42 E25.84506
G1 X191.698 Y155.316 E25.87567
G1 X191.412 Y156.191 E25.90629
G1 X191.051 Y157.038 E25.93691
G1 X190.617 Y157.85 E25.96754
G1 X190.115 Y158.622 E25.99816
G1 X189.547 Y159.347 E26.0288
G1 X188.919 Y160.02 E26.05941
G1 X188.235 Y160.636 E26.09003
G1 X187.5 Y161.19 E26.12064
G1 X186.72 Y161.679 E26.15126
G1 X185.9 Y162.098 E26.18189
G1 X185.047 Y162.444 E26.21251
G1 X184.167 Y162.715 E26.24313
G1 X183.267 Y162.908 E26.27375
G1 X182.353 Y163.023 E26.30438
G1 X181.788 Y163.054 E26.3232
G1 X181.467 Y163.063 E26.33389
G1 X181.17 Y163.067 E26.34376
G1 X39.07 Y163.066 E31.07003
G1 X38.372 Y163.057 E31.09325
G1 X37.453 Y163.005 E31.12386
G1 X36.542 Y162.874 E31.15447
G1 X35.646 Y162.664 E31.18508
G1 X34.771 Y162.377 E31.21571
G1 X33.924 Y162.015 E31.24635
G1 X33.112 Y161.581 E31.27697
G1 X32.341 Y161.079 E31.30757
G1 X31.616 Y160.511 E31.3382
G1 X30.943 Y159.882 E31.36884
G1 X30.328 Y159.198 E31.39943
G1 X29.774 Y158.463 E31.43005
G1 X29.286 Y157.682 E31.46068
G1 X28.867 Y156.862 E31.49131
G1 X28.521 Y156.009 E31.52192
G1 X28.251 Y155.129 E31.55254
G1 X28.058 Y154.228 E31.58318
G1 X27.944 Y153.315 E31.61379
G1 X27.913 Y152.744 E31.63281
G1 X27.904 Y152.411 E31.64389
G1 X27.9 Y152.125 E31.6534
G1 X27.901 Y67.998 E34.45147
G1 X27.91 Y67.333 E34.47359
G1 X27.962 Y66.413 E34.50424
G1 X28.094 Y65.502 E34.53486
G1 X28.305 Y64.606 E34.56548
G1 X28.592 Y63.731 E34.5961
G1 X28.955 Y62.885 E34.62672
G1 X29.389 Y62.073 E34.65735
G1 X29.892 Y61.302 E34.68796
G1 X30.461 Y60.578 E34.71859
G1 X31.089 Y59.906 E34.74918
G1 X31.774 Y59.29 E34.77982
G1 X32.51 Y58.737 E34.81044
G1 X33.291 Y58.249 E34.84107
G0 F3000 X33.669 Y58.498
G1 F600 X34.482 Y58.105 E34.87111
G1 X35.327 Y57.785 E34.90116
G1 X36.196 Y57.542 E34.93117
G1 X37.084 Y57.376 E34.96122
G1 X38.223 Y57.28 E34.99923
G1 X38.544 Y57.271 E35.00992
G1 X38.83 Y57.267 E35.01943
G1 X180.793 Y57.267 E39.74114
G1 X181.637 Y57.278 E39.76921
G1 X182.539 Y57.331 E39.79926
G1 X183.432 Y57.463 E39.82929
G1 X184.31 Y57.674 E39.85932
G1 X185.166 Y57.962 E39.88936
G1 X185.993 Y58.324 E39.91939
G1 X186.785 Y58.759 E39.94944
G1 X187.536 Y59.261 E39.97948
G1 X188.239 Y59.828 E40.00952
G1 X188.889 Y60.455 E40.03956
G1 X189.481 Y61.137 E40.0696
G1 X190.011 Y61.868 E40.09963
G1 X190.473 Y62.644 E40.12967
G1 X190.866 Y63.457 E40.1597
G1 X191.184 Y64.302 E40.18973
G1 X191.427 Y65.172 E40.21978
G1 X191.592 Y66.06 E40.24982
G1 X191.687 Y67.19 E40.28753
G1 X191.696 Y67.51 E40.29818
G1 X191.7 Y67.797 E40.30773
G1 X191.699 Y151.857 E43.10357
G1 X191.69 Y152.584 E43.12776
G1 X191.639 Y153.486 E43.1578
G1 X191.508 Y154.38 E43.18786
G1 X191.299 Y155.258 E43.21787
G1 X191.013 Y156.115 E43.24792
G1 X190.652 Y156.943 E43.27797
G1 X190.22 Y157.735 E43.30797
G1 X189.719 Y158.487 E43.33803
G1 X189.153 Y159.191 E43.36807
G1 X188.528 Y159.842 E43.39809
G1 X187.847 Y160.436 E43.42814
G1 X187.116 Y160.967 E43.45819
G1 X186.342 Y161.431 E43.48821
G1 X185.529 Y161.825 E43.51826
G1 X184.685 Y162.145 E43.54828
G1 X183.815 Y162.39 E43.57834
G1 X182.928 Y162.556 E43.60835
G1 X181.777 Y162.654 E43.64677
G1 X181.456 Y162.663 E43.65746
G1 X181.17 Y162.667 E43.66697
G1 X39.075 Y162.666 E48.39307
G1 X38.377 Y162.657 E48.41628
G1 X37.476 Y162.606 E48.4463
G1 X36.582 Y162.474 E48.47636
G1 X35.704 Y162.265 E48.50638
G1 X34.847 Y161.978 E48.53644
G1 X34.02 Y161.617 E48.56645
G1 X33.227 Y161.184 E48.5965
G1 X32.476 Y160.683 E48.62653
G1 X31.772 Y160.117 E48.65657
G1 X31.121 Y159.491 E48.68661
G1 X30.528 Y158.81 E48.71664
G1 X29.998 Y158.079 E48.74667
G1 X29.534 Y157.304 E48.77672
G1 X29.14 Y156.491 E48.80677
G1 X28.82 Y155.647 E48.83679
G1 X28.576 Y154.777 E48.86684
G1 X28.41 Y153.889 E48.89689
G1 X28.313 Y152.734 E48.93544
G1 X28.304 Y152.401 E48.94652
G1 X28.3 Y152.125 E48.9557
G1 X28.301 Y68.003 E51.75361
G1 X28.31 Y67.338 E51.77573
G1 X28.362 Y66.436 E51.80578
G1 X28.494 Y65.543 E51.8358
G1 X28.704 Y64.665 E51.86583
G1 X28.991 Y63.808 E51.89589
G1 X29.353 Y62.981 E51.92591
G1 X29.786 Y62.189 E51.95593
G1 X30.288 Y61.438 E51.98598
G1 X30.855 Y60.734 E52.01604
G1 X31.481 Y60.084 E52.04606
G1 X32.162 Y59.491 E52.07609
G1 X32.894 Y58.961 E52.10615
G1 X33.669 Y58.498 E52.13618
G1 F2700 E46.13618
;MESH:HIK_Connections-pimount.stl
G0 F3000 X50.153 Y70.62
G0 X49.1 Y69.567
G0 X166.928 Y69.539
G0 X166.939 Y74.478
G0 X175.973 Y74.856
;TYPE:WALL-INNER
G1 F2700 E52.13618
G1 F600 X176.669 Y74.967 E52.15962
G1 X175.973 Y74.967 E52.16278
G1 X175.373 Y74.967 E52.18274
G1 X167.5 Y74.967 E52.4446
G1 X167.5 Y68.967 E52.64416
G1 X48.5 Y68.967 E56.60211
G1 X48.5 Y74.967 E56.80167
G1 X44.627 Y74.967 E56.93049
G1 X44.027 Y74.967 E56.95045
G1 X43.331 Y74.967 E56.97359
G1 X44.027 Y74.856 E56.97703
G1 X44.562 Y74.584 E56.98998
G1 X44.727 Y74.5 E56.99614
G1 X45.284 Y73.943 E57.02234
G1 X45.64 Y73.243 E57.04846
G1 X45.762 Y72.467 E57.07459
G1 X45.64 Y71.691 E57.10071
G1 X45.284 Y70.99 E57.12686
G1 X44.727 Y70.433 E57.15306
G1 X44.026 Y70.077 E57.17921
G1 X43.25 Y69.955 E57.20534
G1 X42.474 Y70.077 E57.23147
G1 X41.773 Y70.433 E57.25762
G1 X41.216 Y70.99 E57.28382
G1 X40.86 Y71.691 E57.30997
G1 X40.738 Y72.467 E57.33609
G1 X40.86 Y73.242 E57.36219
G1 X41.183 Y73.877 E57.38588
G1 X41.29 Y74.016 E57.39172
G1 X41.773 Y74.5 E57.41446
G1 X41.938 Y74.584 E57.42062
G1 X42.473 Y74.856 E57.44058
G1 X43.169 Y74.967 E57.46402
G1 X42.473 Y74.967 E57.46718
G1 X41.873 Y74.967 E57.48014
G1 X41.5 Y74.967 E57.49254
G1 X41.5 Y124.967 E59.15555
G1 X41.871 Y124.967 E59.16789
G1 X42.474 Y124.967 E59.18794
G1 X43.174 Y124.967 E59.21123
G1 X42.474 Y125.077 E59.21465
G1 X41.937 Y125.35 E59.22762
G1 X41.773 Y125.433 E59.23373
G1 X41.216 Y125.99 E59.25993
G1 X40.86 Y126.691 E59.28608
G1 X40.738 Y127.467 E59.31221
G1 X40.86 Y128.242 E59.3383
G1 X41.183 Y128.877 E59.362
G1 X41.29 Y129.016 E59.36783
G1 X41.773 Y129.5 E59.39058
G1 X42.473 Y129.856 E59.4167
G1 X43.25 Y129.98 E59.44287
G1 X44.027 Y129.856 E59.46904
G1 X44.727 Y129.5 E59.49516
G1 X45.284 Y128.943 E59.52136
G1 X45.64 Y128.243 E59.54748
G1 X45.762 Y127.467 E59.5736
G1 X45.64 Y126.691 E59.59973
G1 X45.284 Y125.99 E59.62588
G1 X44.727 Y125.433 E59.65208
G1 X44.563 Y125.35 E59.65819
G1 X44.026 Y125.077 E59.67823
G1 X43.326 Y124.967 E59.7018
G1 X44.026 Y124.967 E59.70495
G1 X44.629 Y124.967 E59.71795
G1 X48.5 Y124.967 E59.84669
G1 X48.5 Y130.467 E60.02963
G1 X41.5 Y130.467 E60.26245
G1 X41.5 Y149.467 E60.89439
G1 X178.5 Y149.467 E65.45103
G1 X178.5 Y130.467 E66.08297
G1 X167.5 Y130.467 E66.44883
G1 X167.5 Y124.967 E66.63176
G1 X169.371 Y124.967 E66.69399
G1 X169.974 Y124.967 E66.71405
G1 X170.674 Y124.967 E66.73733
G1 X169.974 Y125.077 E66.74075
G1 X169.437 Y125.35 E66.75372
G1 X169.273 Y125.433 E66.75984
G1 X168.716 Y125.99 E66.78604
G1 X168.36 Y126.691 E66.81219
G1 X168.238 Y127.467 E66.83831
G1 X168.36 Y128.243 E66.86444
G1 X168.716 Y128.943 E66.89056
G1 X169.273 Y129.5 E66.91676
G1 X169.973 Y129.856 E66.94288
G1 X170.75 Y129.98 E66.96905
G1 X171.527 Y129.856 E66.99522
G1 X172.227 Y129.5 E67.02134
G1 X172.784 Y128.943 E67.04754
G1 X173.14 Y128.243 E67.07366
G1 X173.262 Y127.467 E67.09979
G1 X173.14 Y126.691 E67.12591
G1 X172.784 Y125.99 E67.15206
G1 X172.227 Y125.433 E67.17826
G1 X172.063 Y125.35 E67.18438
G1 X171.526 Y125.077 E67.20441
G1 X170.826 Y124.967 E67.22798
G1 X171.526 Y124.967 E67.23113
G1 X172.129 Y124.967 E67.24413
G1 X178.5 Y124.967 E67.45603
G1 X178.5 Y74.967 E69.11904
G1 X178.127 Y74.967 E69.13144
G1 X177.527 Y74.967 E69.1514
G1 X176.831 Y74.967 E69.17455
G1 X177.527 Y74.856 E69.17798
G1 X178.062 Y74.584 E69.19094
G1 X178.227 Y74.5 E69.19709
G1 X178.784 Y73.943 E69.22329
G1 X179.14 Y73.243 E69.24941
G1 X179.262 Y72.467 E69.27554
G1 X179.14 Y71.691 E69.30167
G1 X178.784 Y70.99 E69.32782
G1 X178.227 Y70.433 E69.35402
G1 X177.526 Y70.077 E69.38017
G1 X176.75 Y69.955 E69.40629
G1 X175.974 Y70.077 E69.43242
G1 X175.273 Y70.433 E69.45857
G1 X174.716 Y70.99 E69.48477
G1 X174.36 Y71.691 E69.51092
G1 X174.238 Y72.467 E69.53705
G1 X174.36 Y73.243 E69.56317
G1 X174.716 Y73.943 E69.58929
G1 X175.273 Y74.5 E69.61549
G1 X175.438 Y74.584 E69.62165
G1 X175.973 Y74.856 E69.63461
G0 F3000 X176.098 Y74.471
G1 F600 X176.75 Y74.575 E69.65657
G1 X177.402 Y74.471 E69.67853
G1 X177.989 Y74.172 E69.70044
G1 X178.456 Y73.705 E69.7224
G1 X178.755 Y73.118 E69.74431
G1 X178.857 Y72.467 E69.76623
G1 X178.755 Y71.816 E69.78815
G1 X178.456 Y71.228 E69.81009
G1 X177.989 Y70.761 E69.83205
G1 X177.401 Y70.462 E69.85399
G1 X176.75 Y70.36 E69.87591
G1 X176.099 Y70.462 E69.89783
G1 X175.511 Y70.761 E69.91977
G1 X175.044 Y71.228 E69.94173
G1 X174.745 Y71.816 E69.96367
G1 X174.643 Y72.467 E69.98559
G1 X174.745 Y73.118 E70.00751
G1 X175.044 Y73.705 E70.02942
G1 X175.511 Y74.172 E70.05138
G1 X176.098 Y74.471 E70.07329
G0 F3000 X176.223 Y74.086
;TYPE:WALL-OUTER
G1 F600 X176.75 Y74.17 E70.09104
G1 X177.277 Y74.086 E70.10879
G1 X177.751 Y73.844 E70.12649
G1 X178.128 Y73.467 E70.14423
G1 X178.37 Y72.993 E70.16193
G1 X178.452 Y72.467 E70.17963
G1 X178.37 Y71.941 E70.19734
G1 X178.128 Y71.466 E70.21507
G1 X177.751 Y71.089 E70.2328
G1 X177.276 Y70.847 E70.25053
G1 X176.75 Y70.765 E70.26824
G1 X176.224 Y70.847 E70.28595
G1 X175.749 Y71.089 E70.30368
G1 X175.372 Y71.466 E70.32141
G1 X175.13 Y71.941 E70.33914
G1 X175.048 Y72.467 E70.35685
G1 X175.13 Y72.993 E70.37455
G1 X175.372 Y73.467 E70.39225
G1 X175.749 Y73.844 E70.40999
G1 X176.223 Y74.086 E70.42769
G0 F3000 X176.087 Y74.504
G1 F2700 E64.42769
G0 F3000 X177.928 Y75.539
G0 X177.928 Y124.395
G0 X170.083 Y124.407
G0 X168.899 Y126.867
G0 X168.806 Y127.467
G0 X168.88 Y127.953
G0 X169.511 Y129.172
;TYPE:WALL-INNER
G1 F2700 E70.42769
G1 F600 X170.098 Y129.471 E70.4496
G1 X170.75 Y129.575 E70.47156
G1 X171.402 Y129.471 E70.49352
G1 X171.989 Y129.172 E70.51543
G1 X172.456 Y128.705 E70.5374
G1 X172.755 Y128.118 E70.55931
G1 X172.857 Y127.467 E70.58122
G1 X172.755 Y126.816 E70.60314
G1 X172.456 Y126.228 E70.62508
G1 X171.989 Y125.761 E70.64705
G1 X171.401 Y125.462 E70.66899
G1 X170.75 Y125.36 E70.6909
G1 X170.099 Y125.462 E70.71282
G1 X169.511 Y125.761 E70.73476
G1 X169.044 Y126.228 E70.75673
G1 X168.745 Y126.816 E70.77867
G1 X168.643 Y127.467 E70.80058
G1 X168.745 Y128.118 E70.8225
G1 X169.044 Y128.705 E70.84441
G1 X169.511 Y129.172 E70.86638
G0 F3000 X169.749 Y128.844
;TYPE:WALL-OUTER
G1 F600 X170.223 Y129.086 E70.88408
G1 X170.75 Y129.17 E70.90183
G1 X171.277 Y129.086 E70.91958
G1 X171.751 Y128.844 E70.93728
G1 X172.128 Y128.467 E70.95501
G1 X172.37 Y127.993 E70.97271
G1 X172.452 Y127.467 E70.99042
G1 X172.37 Y126.941 E71.00812
G1 X172.128 Y126.466 E71.02585
G1 X171.751 Y126.089 E71.04359
G1 X171.276 Y125.847 E71.06132
G1 X170.75 Y125.765 E71.07902
G1 X170.224 Y125.847 E71.09673
G1 X169.749 Y126.089 E71.11446
G1 X169.372 Y126.466 E71.13219
G1 X169.13 Y126.941 E71.14992
G1 X169.048 Y127.467 E71.16763
G1 X169.13 Y127.993 E71.18534
G1 X169.372 Y128.467 E71.20304
G1 X169.749 Y128.844 E71.22077
G0 F3000 X169.491 Y129.199
G1 F2700 E65.22077
G0 F3000 X177.928 Y131.039
G0 X177.928 Y148.895
G0 X41.9 Y149.067
;TYPE:WALL-INNER
G1 F2700 E71.22077
G1 F600 X178.1 Y149.067 E75.7508
G1 X178.1 Y130.867 E76.35614
G1 X167.1 Y130.867 E76.722
G1 X167.1 Y124.567 E76.93154
G1 X178.1 Y124.567 E77.2974
G1 X178.1 Y75.367 E78.9338
G1 X167.1 Y75.367 E79.29966
G1 X167.1 Y69.367 E79.49922
G1 X48.9 Y69.367 E83.43057
G1 X48.9 Y75.367 E83.63013
G1 X41.9 Y75.367 E83.86295
G1 X41.9 Y124.567 E85.49935
G1 X48.9 Y124.567 E85.73217
G1 X48.9 Y130.867 E85.94171
G1 X41.9 Y130.867 E86.17453
G1 X41.9 Y149.067 E86.77986
G0 F3000 X42.3 Y148.667
;TYPE:WALL-OUTER
