;FLAVOR:Marlin
;TIME:5349
;Filament used: 2.72811m
;Layer height: 0.2
;MINX:70.545
;MINY:47.02
;MINZ:0.2
;MAXX:149.455
;MAXY:172.983
;MAXZ:7.2
;Generated with Cura_SteamEngine 4.10.0
M140 S85
M105
M190 S85
M104 S235
M105
M109 S235
M82 ;absolute extrusion mode
; Ender 3 Custom Start G-code
G92 E0 ; Reset Extruder
G28 ; Home all axes
M117 Auto bed-level GO!
G29 ; Auto bed-level (BL-Touch)
G92 E0 ; Reset Extruder
G1 Z2.0 F3000 ; Move Z Axis up little to prevent scratching of Heat Bed
G1 X0.1 Y20 Z0.3 F5000.0 ; Move to start position
G1 X0.1 Y200.0 Z0.3 F1500.0 E15 ; Draw the first line
G1 X0.4 Y200.0 Z0.3 F5000.0 ; Move to side a little
G1 X0.4 Y20 Z0.3 F1500.0 E30 ; Draw the second line
G92 E0 ; Reset Extruder
G1 Z2.0 F3000 ; Move Z Axis up little to prevent scratching of Heat Bed
G1 X5 Y20 Z0.3 F5000.0 ; Move over to prevent blob squish
G92 E0
G92 E0
G1 F3000 E-9
;LAYER_COUNT:35
;LAYER:0
M107
G1 F300 Z0.4
G0 F3000 X75.216 Y53.769 Z0.4
;TYPE:SKIRT
G1 F300 Z0.2
G1 F3000 E0.41575
G1 F600 X75.769 Y53.012 E0.44537
G1 X76.469 Y52.216 E0.47887
G1 X77.001 Y51.667 E0.50302
G1 X77.236 Y51.432 E0.51352
G1 X77.692 Y50.989 E0.53361
G1 X78.392 Y50.365 E0.56324
G1 X79.143 Y49.803 E0.59288
G1 X80.202 Y49.162 E0.63199
G1 X80.875 Y48.805 E0.65606
G1 X81.159 Y48.659 E0.66615
G1 X81.734 Y48.375 E0.68642
G1 X82.592 Y47.996 E0.71606
G1 X83.479 Y47.692 E0.74568
G1 X84.724 Y47.4 E0.78609
G1 X85.479 Y47.269 E0.8103
G1 X85.79 Y47.22 E0.82025
G1 X86.421 Y47.129 E0.84039
G1 X87.354 Y47.034 E0.87002
G1 X88.292 Y47.02 E0.89967
G1 X89.543 Y47.126 E0.93934
G1 X90.301 Y47.234 E0.96353
G1 X90.62 Y47.284 E0.97373
G1 X91.24 Y47.391 E0.99361
G1 X91.555 Y47.45 E1.00374
G1 X92.307 Y47.602 E1.02798
G1 X94.83 Y48.076 E1.10909
G1 X97.302 Y48.468 E1.18818
G1 X99.808 Y48.793 E1.26802
G1 X102.321 Y49.047 E1.34783
G1 X104.819 Y49.228 E1.42697
G1 X107.315 Y49.338 E1.50591
G1 X109.874 Y49.379 E1.58678
G1 X112.354 Y49.348 E1.66514
G1 X114.885 Y49.244 E1.74518
G1 X117.417 Y49.069 E1.82538
G1 X119.891 Y48.829 E1.90392
G1 X122.412 Y48.51 E1.98421
G1 X124.874 Y48.128 E2.06293
G1 X128 Y47.542 E2.16342
G1 X128.294 Y47.481 E2.17291
G1 X128.639 Y47.415 E2.18401
G1 X129.48 Y47.269 E2.21098
G1 X129.786 Y47.22 E2.22077
G1 X130.415 Y47.129 E2.24086
G1 X131.348 Y47.035 E2.27048
G1 X132.286 Y47.02 E2.30013
G1 X133.54 Y47.126 E2.33989
G1 X134.299 Y47.234 E2.36411
G1 X134.619 Y47.284 E2.37435
G1 X135.245 Y47.392 E2.39442
G1 X136.162 Y47.591 E2.42407
G1 X137.058 Y47.867 E2.45369
G1 X138.214 Y48.353 E2.49332
G1 X138.9 Y48.689 E2.51745
G1 X139.189 Y48.837 E2.52771
G1 X139.745 Y49.13 E2.54757
G1 X140.731 Y49.716 E2.58381
G1 X141.488 Y50.269 E2.61343
G1 X142.284 Y50.969 E2.64693
G1 X142.833 Y51.501 E2.67108
G1 X143.068 Y51.736 E2.68158
G1 X143.511 Y52.192 E2.70167
G1 X144.135 Y52.892 E2.7313
G1 X144.697 Y53.643 E2.76094
G1 X145.338 Y54.702 E2.80005
G1 X145.695 Y55.375 E2.82412
G1 X145.841 Y55.659 E2.83421
G1 X146.125 Y56.234 E2.85448
G1 X146.504 Y57.092 E2.88411
G1 X146.808 Y57.979 E2.91374
G1 X147.1 Y59.224 E2.95415
G1 X147.231 Y59.979 E2.97836
G1 X147.281 Y60.295 E2.98847
G1 X147.371 Y60.921 E3.00845
G1 X147.442 Y61.533 E3.02792
G1 X147.478 Y61.946 E3.04102
G1 X147.732 Y64.466 E3.12105
G1 X148.056 Y66.965 E3.20067
G1 X148.449 Y69.449 E3.28013
G1 X149 Y72.365 E3.3739
G1 X149.085 Y72.8 E3.3879
G1 X149.214 Y73.538 E3.41158
G1 X149.265 Y73.863 E3.42197
G1 X149.346 Y74.425 E3.43991
G1 X149.441 Y75.358 E3.46954
G1 X149.455 Y76.296 E3.49919
G1 X149.349 Y77.545 E3.53879
G1 X149.254 Y78.212 E3.56008
G1 X149.199 Y78.558 E3.57115
G1 X149.098 Y79.135 E3.58966
G1 X148.906 Y80.02 E3.61827
G1 X148.821 Y80.338 E3.62867
G1 X148.218 Y82.525 E3.70036
G1 X147.608 Y85.002 E3.78096
G1 X147.084 Y87.431 E3.85947
G1 X146.621 Y89.92 E3.93947
G1 X146.231 Y92.397 E4.0187
G1 X145.911 Y94.88 E4.0978
G1 X145.658 Y97.415 E4.1783
G1 X145.479 Y99.911 E4.25737
G1 X145.372 Y102.422 E4.33678
G1 X145.334 Y104.938 E4.41629
G1 X145.368 Y107.468 E4.49624
G1 X145.473 Y109.967 E4.57527
G1 X145.649 Y112.477 E4.65477
G1 X145.899 Y115.003 E4.73498
G1 X146.216 Y117.499 E4.81448
G1 X146.599 Y119.948 E4.8928
G1 X147.068 Y122.479 E4.97413
G1 X147.582 Y124.874 E5.05153
G1 X148.186 Y127.348 E5.132
G1 X148.676 Y129.116 E5.18997
G1 X148.888 Y129.914 E5.21606
G1 X149.094 Y130.849 E5.24631
G1 X149.215 Y131.543 E5.26857
G1 X149.265 Y131.86 E5.27871
G1 X149.346 Y132.421 E5.29662
G1 X149.44 Y133.354 E5.32625
G1 X149.455 Y134.292 E5.35589
G1 X149.349 Y135.542 E5.39553
G1 X149.254 Y136.21 E5.41685
G1 X149.203 Y136.536 E5.42727
G1 X148.955 Y137.966 E5.47313
G1 X148.722 Y139.217 E5.51334
G1 X148.336 Y141.661 E5.59152
G1 X148.012 Y144.181 E5.6718
G1 X147.763 Y146.665 E5.75068
G1 X147.583 Y149.18 E5.83035
G1 X147.473 Y151.71 E5.91037
G1 X147.435 Y154.211 E5.9894
G1 X147.48 Y157.145 E6.08212
G1 X147.469 Y158.083 E6.11176
G1 X147.376 Y159.03 E6.14182
G1 X147.267 Y159.797 E6.1663
G1 X147.216 Y160.119 E6.1766
G1 X147.108 Y160.745 E6.19667
G1 X146.909 Y161.662 E6.22632
G1 X146.633 Y162.558 E6.25595
G1 X146.147 Y163.714 E6.29557
G1 X145.811 Y164.4 E6.31971
G1 X145.655 Y164.705 E6.33053
G1 X145.355 Y165.272 E6.3508
G1 X144.881 Y166.082 E6.38045
G1 X144.341 Y166.848 E6.41007
G1 X143.531 Y167.783 E6.44915
G1 X142.998 Y168.333 E6.47335
G1 X142.764 Y168.568 E6.48383
G1 X142.308 Y169.011 E6.50392
G1 X141.608 Y169.635 E6.53355
G1 X140.857 Y170.197 E6.56319
G1 X139.798 Y170.838 E6.6023
G1 X139.125 Y171.195 E6.62637
G1 X138.841 Y171.341 E6.63646
G1 X138.266 Y171.625 E6.65673
G1 X137.408 Y172.004 E6.68636
G1 X136.521 Y172.308 E6.71599
G1 X135.276 Y172.6 E6.7564
G1 X134.521 Y172.731 E6.78061
G1 X134.186 Y172.784 E6.79133
G1 X133.545 Y172.875 E6.81178
G1 X132.612 Y172.967 E6.84141
G1 X131.719 Y172.98 E6.86963
G1 X131.501 Y172.974 E6.87652
G1 X128.887 Y172.941 E6.95912
G1 X126.186 Y172.983 E7.04447
G1 X125.249 Y172.957 E7.07409
G1 X124.478 Y172.876 E7.09859
G1 X121.333 Y172.434 E7.19893
G1 X118.836 Y172.149 E7.27835
G1 X116.321 Y171.934 E7.3581
G1 X113.804 Y171.79 E7.43776
G1 X111.316 Y171.719 E7.51641
G1 X108.793 Y171.717 E7.59613
G1 X106.273 Y171.788 E7.67578
G1 X103.737 Y171.93 E7.75604
G1 X101.237 Y172.141 E7.83531
G1 X98.743 Y172.424 E7.91462
G1 X95.549 Y172.875 E8.01654
G1 X94.615 Y172.967 E8.0462
G1 X93.78 Y172.981 E8.07259
G1 X93.451 Y172.974 E8.08298
G1 X90.887 Y172.941 E8.16401
G1 X88.186 Y172.983 E8.24936
G1 X87.249 Y172.957 E8.27898
G1 X86.478 Y172.876 E8.30347
G1 X85.713 Y172.768 E8.32788
G1 X85.381 Y172.716 E8.3385
G1 X84.755 Y172.608 E8.35857
G1 X83.838 Y172.409 E8.38822
G1 X82.942 Y172.133 E8.41785
G1 X81.786 Y171.647 E8.45747
G1 X81.1 Y171.311 E8.48161
G1 X80.807 Y171.162 E8.49199
G1 X80.242 Y170.864 E8.51218
G1 X79.432 Y170.391 E8.54181
G1 X78.665 Y169.851 E8.57145
G1 X77.718 Y169.033 E8.61099
G1 X77.166 Y168.498 E8.63528
G1 X76.932 Y168.264 E8.64574
G1 X76.488 Y167.807 E8.66587
G1 X75.864 Y167.107 E8.6955
G1 X75.302 Y166.357 E8.72511
G1 X74.658 Y165.291 E8.76447
G1 X74.302 Y164.619 E8.78849
G1 X74.159 Y164.341 E8.79837
G1 X73.875 Y163.766 E8.81864
G1 X73.496 Y162.908 E8.84827
G1 X73.192 Y162.021 E8.8779
G1 X72.9 Y160.776 E8.91831
G1 X72.769 Y160.021 E8.94252
G1 X72.718 Y159.698 E8.95285
G1 X72.626 Y159.055 E8.97338
G1 X72.533 Y158.122 E9.003
G1 X72.519 Y157.192 E9.03239
G1 X72.531 Y156.747 E9.04646
G1 X72.564 Y154.195 E9.1271
G1 X72.524 Y151.635 E9.208
G1 X72.415 Y149.15 E9.28659
G1 X72.235 Y146.658 E9.36554
G1 X71.979 Y144.118 E9.4462
G1 X71.659 Y141.644 E9.52502
G1 X71.268 Y139.173 E9.60407
G1 X71.134 Y138.459 E9.62702
G1 X70.785 Y136.456 E9.69127
G1 X70.735 Y136.14 E9.70138
G1 X70.654 Y135.579 E9.71929
G1 X70.56 Y134.646 E9.74892
G1 X70.545 Y133.708 E9.77856
G1 X70.652 Y132.447 E9.81854
G1 X70.748 Y131.777 E9.83993
G1 X70.794 Y131.484 E9.8493
G1 X70.888 Y130.934 E9.86693
G1 X71.095 Y129.981 E9.89775
G1 X71.188 Y129.63 E9.90922
G1 X71.785 Y127.465 E9.98018
G1 X72.384 Y125.025 E10.05957
G1 X72.917 Y122.563 E10.13916
G1 X73.384 Y120.052 E10.21986
G1 X73.769 Y117.609 E10.29801
G1 X74.089 Y115.12 E10.3773
G1 X74.342 Y112.585 E10.4578
G1 X74.521 Y110.089 E10.53686
G1 X74.628 Y107.578 E10.61628
G1 X74.666 Y105.047 E10.69626
G1 X74.632 Y102.532 E10.77573
G1 X74.527 Y100.033 E10.85476
G1 X74.351 Y97.523 E10.93427
G1 X74.102 Y95 E11.01437
G1 X73.782 Y92.492 E11.09426
G1 X73.398 Y90.028 E11.17306
G1 X72.938 Y87.549 E11.25272
G1 X72.418 Y85.126 E11.33103
G1 X71.814 Y82.651 E11.41152
G1 X71.324 Y80.884 E11.46946
G1 X71.112 Y80.086 E11.49555
G1 X70.906 Y79.151 E11.5258
G1 X70.785 Y78.457 E11.54806
G1 X70.735 Y78.14 E11.5582
G1 X70.654 Y77.579 E11.57611
G1 X70.56 Y76.646 E11.60574
G1 X70.545 Y75.708 E11.63538
G1 X70.651 Y74.458 E11.67502
G1 X70.746 Y73.79 E11.69634
G1 X70.798 Y73.459 E11.70693
G1 X70.896 Y72.894 E11.72505
G1 X70.952 Y72.593 E11.73472
G1 X71.078 Y71.97 E11.75481
G1 X71.555 Y69.428 E11.83653
G1 X71.949 Y66.931 E11.9164
G1 X72.268 Y64.466 E11.99494
G1 X72.565 Y61.464 E12.09026
G1 X72.62 Y61.007 E12.1048
G1 X72.733 Y60.209 E12.13027
G1 X72.784 Y59.881 E12.14075
G1 X72.892 Y59.255 E12.16083
G1 X73.091 Y58.338 E12.19048
G1 X73.367 Y57.442 E12.2201
G1 X73.853 Y56.286 E12.25972
G1 X74.189 Y55.6 E12.28386
G1 X74.337 Y55.311 E12.29412
G1 X74.63 Y54.755 E12.31398
G1 X74.807 Y54.457 E12.32493
G0 F540 X75.216 Y53.769
G0 F3000 X75.549 Y53.991
G1 F600 X76.093 Y53.248 E12.35402
G1 X76.757 Y52.494 E12.38577
G1 X77.289 Y51.945 E12.40992
G1 X77.515 Y51.719 E12.42002
G1 X77.971 Y51.276 E12.44011
G1 X78.658 Y50.664 E12.46918
G1 X79.397 Y50.114 E12.49829
G1 X80.39 Y49.515 E12.53493
G1 X81.063 Y49.158 E12.559
G1 X81.336 Y49.018 E12.5687
G1 X81.911 Y48.734 E12.58896
G1 X82.753 Y48.363 E12.61803
G1 X83.625 Y48.066 E12.64714
G1 X84.793 Y47.794 E12.68503
G1 X85.548 Y47.663 E12.70925
G1 X85.847 Y47.616 E12.71881
G1 X86.478 Y47.525 E12.73895
G1 X87.394 Y47.433 E12.76804
G1 X88.315 Y47.421 E12.79715
G1 X89.486 Y47.522 E12.83428
G1 X90.244 Y47.63 E12.85848
G1 X90.552 Y47.678 E12.86833
G1 X91.172 Y47.785 E12.88821
G1 X91.475 Y47.842 E12.89795
G1 X92.218 Y47.993 E12.9219
G1 X94.765 Y48.471 E13.00379
G1 X97.254 Y48.866 E13.08342
G1 X99.753 Y49.189 E13.16303
G1 X102.288 Y49.446 E13.24354
G1 X104.773 Y49.625 E13.32227
G1 X107.325 Y49.738 E13.40298
G1 X109.873 Y49.779 E13.4835
G1 X112.375 Y49.748 E13.56256
G1 X114.895 Y49.645 E13.64225
G1 X117.444 Y49.468 E13.72299
G1 X119.951 Y49.224 E13.80258
G1 X122.447 Y48.909 E13.88207
G1 X124.948 Y48.521 E13.96204
G1 X128.044 Y47.94 E14.06157
G1 X128.375 Y47.872 E14.07225
G1 X128.707 Y47.809 E14.08293
G1 X129.548 Y47.663 E14.1099
G1 X129.843 Y47.616 E14.11934
G1 X130.472 Y47.525 E14.13942
G1 X131.388 Y47.433 E14.16851
G1 X132.309 Y47.421 E14.19761
G1 X133.483 Y47.522 E14.23484
G1 X134.242 Y47.63 E14.25906
G1 X134.551 Y47.678 E14.26895
G1 X135.177 Y47.786 E14.28902
G1 X136.077 Y47.982 E14.31812
G1 X136.956 Y48.255 E14.3472
G1 X138.038 Y48.713 E14.38433
G1 X138.724 Y49.049 E14.40846
G1 X139.003 Y49.19 E14.41834
G1 X139.559 Y49.483 E14.4382
G1 X140.509 Y50.049 E14.47314
G1 X141.252 Y50.593 E14.50224
G1 X142.006 Y51.257 E14.53398
G1 X142.555 Y51.789 E14.55814
G1 X142.781 Y52.015 E14.56824
G1 X143.224 Y52.471 E14.58833
G1 X143.836 Y53.158 E14.6174
G1 X144.386 Y53.897 E14.6465
G1 X144.985 Y54.89 E14.68315
G1 X145.342 Y55.563 E14.70722
G1 X145.482 Y55.836 E14.71691
G1 X145.766 Y56.411 E14.73718
G1 X146.137 Y57.253 E14.76625
G1 X146.434 Y58.125 E14.79536
G1 X146.706 Y59.293 E14.83325
G1 X146.837 Y60.048 E14.85746
G1 X146.885 Y60.352 E14.86719
G1 X146.975 Y60.978 E14.88717
G1 X147.043 Y61.568 E14.90593
G1 X147.076 Y61.952 E14.91811
G1 X147.336 Y64.522 E14.99973
G1 X147.658 Y67.008 E15.07894
G1 X148.054 Y69.515 E15.15913
G1 X148.61 Y72.454 E15.25365
G1 X148.691 Y72.869 E15.26701
G1 X148.82 Y73.607 E15.29068
G1 X148.87 Y73.92 E15.30069
G1 X148.951 Y74.482 E15.31863
G1 X149.042 Y75.398 E15.34772
G1 X149.054 Y76.319 E15.37682
G1 X148.953 Y77.489 E15.41393
G1 X148.858 Y78.156 E15.43522
G1 X148.805 Y78.489 E15.44587
G1 X148.704 Y79.066 E15.46438
G1 X148.519 Y79.918 E15.49193
G1 X148.436 Y80.231 E15.50216
G1 X147.83 Y82.427 E15.57414
G1 X147.217 Y84.92 E15.65526
G1 X146.694 Y87.345 E15.73364
G1 X146.226 Y89.856 E15.81435
G1 X145.832 Y92.355 E15.89429
G1 X145.516 Y94.813 E15.97259
G1 X145.259 Y97.38 E16.05411
G1 X145.079 Y99.901 E16.13397
G1 X144.972 Y102.399 E16.21297
G1 X144.934 Y104.938 E16.2932
G1 X144.967 Y107.437 E16.37217
G1 X145.075 Y110.011 E16.45357
G1 X145.251 Y112.508 E16.53267
G1 X145.503 Y115.06 E16.61369
G1 X145.818 Y117.54 E16.69269
G1 X146.209 Y120.046 E16.77283
G1 X146.67 Y122.53 E16.85265
G1 X147.193 Y124.968 E16.93144
G1 X147.792 Y127.423 E17.01129
G1 X148.29 Y129.218 E17.07015
G1 X148.502 Y130.016 E17.09623
G1 X148.699 Y130.917 E17.12538
G1 X148.82 Y131.611 E17.14764
G1 X148.869 Y131.917 E17.15743
G1 X148.95 Y132.478 E17.17534
G1 X149.042 Y133.394 E17.20443
G1 X149.054 Y134.315 E17.23353
G1 X148.953 Y135.485 E17.27064
G1 X148.858 Y136.153 E17.29195
G1 X148.809 Y136.468 E17.30203
G1 X148.561 Y137.893 E17.34773
G1 X148.333 Y139.118 E17.3871
G1 X147.938 Y141.619 E17.4671
G1 X147.616 Y144.123 E17.54688
G1 X147.364 Y146.636 E17.62668
G1 X147.182 Y149.168 E17.70689
G1 X147.073 Y151.688 E17.78659
G1 X147.035 Y154.211 E17.86632
G1 X147.077 Y157.058 E17.95628
G1 X147.08 Y157.158 E17.95944
G1 X147.068 Y158.078 E17.98852
G1 X146.98 Y158.973 E18.01693
G1 X146.871 Y159.74 E18.04141
G1 X146.822 Y160.051 E18.05136
G1 X146.714 Y160.677 E18.07143
G1 X146.518 Y161.577 E18.10053
G1 X146.245 Y162.456 E18.12962
G1 X145.787 Y163.538 E18.16674
G1 X145.451 Y164.224 E18.19088
G1 X145.301 Y164.518 E18.20131
G1 X145.001 Y165.085 E18.22157
G1 X144.536 Y165.88 E18.25068
G1 X144.003 Y166.631 E18.27977
G1 X143.244 Y167.505 E18.31635
G1 X142.711 Y168.055 E18.34055
G1 X142.485 Y168.281 E18.35065
G1 X142.029 Y168.724 E18.37074
G1 X141.342 Y169.336 E18.39981
G1 X140.603 Y169.886 E18.42892
G1 X139.61 Y170.485 E18.46556
G1 X138.937 Y170.842 E18.48963
G1 X138.664 Y170.982 E18.49932
G1 X138.089 Y171.266 E18.51959
G1 X137.247 Y171.637 E18.54866
G1 X136.375 Y171.934 E18.57777
G1 X135.207 Y172.206 E18.61566
G1 X134.452 Y172.337 E18.63987
G1 X134.13 Y172.388 E18.65017
G1 X133.489 Y172.479 E18.67063
G1 X132.573 Y172.568 E18.69971
G1 X131.729 Y172.581 E18.72638
G1 X131.437 Y172.574 E18.73561
G1 X128.886 Y172.541 E18.81622
G1 X126.18 Y172.583 E18.90173
G1 X125.26 Y172.557 E18.93081
G1 X124.534 Y172.48 E18.95388
G1 X121.437 Y172.044 E19.0527
G1 X118.844 Y171.748 E19.13517
G1 X116.377 Y171.537 E19.2134
G1 X113.839 Y171.392 E19.29373
G1 X111.292 Y171.319 E19.37424
G1 X108.782 Y171.317 E19.45355
G1 X106.238 Y171.388 E19.53396
G1 X103.717 Y171.53 E19.61374
G1 X101.229 Y171.74 E19.69264
G1 X98.678 Y172.029 E19.77376
G1 X95.493 Y172.479 E19.87539
G1 X94.577 Y172.568 E19.90447
G1 X93.789 Y172.581 E19.92937
G1 X93.46 Y172.574 E19.93977
G1 X90.886 Y172.541 E20.02111
G1 X88.18 Y172.583 E20.10662
G1 X87.26 Y172.557 E20.1357
G1 X86.534 Y172.48 E20.15877
G1 X85.769 Y172.372 E20.18318
G1 X85.449 Y172.322 E20.19341
G1 X84.823 Y172.214 E20.21349
G1 X83.923 Y172.018 E20.24259
G1 X83.044 Y171.745 E20.27167
G1 X81.962 Y171.287 E20.3088
G1 X81.276 Y170.951 E20.33293
G1 X80.994 Y170.808 E20.34292
G1 X80.429 Y170.51 E20.36311
G1 X79.634 Y170.045 E20.39221
G1 X78.882 Y169.514 E20.4213
G1 X77.997 Y168.746 E20.45832
G1 X77.445 Y168.211 E20.48261
G1 X77.219 Y167.985 E20.49271
G1 X76.775 Y167.528 E20.51284
G1 X76.163 Y166.841 E20.54191
G1 X75.613 Y166.103 E20.571
G1 X75.011 Y165.104 E20.60785
G1 X74.655 Y164.432 E20.63188
G1 X74.518 Y164.164 E20.64139
G1 X74.234 Y163.589 E20.66165
G1 X73.863 Y162.747 E20.69073
G1 X73.566 Y161.875 E20.71983
G1 X73.294 Y160.707 E20.75773
G1 X73.163 Y159.952 E20.78194
G1 X73.114 Y159.641 E20.79189
G1 X73.022 Y158.998 E20.81241
G1 X72.931 Y158.082 E20.84149
G1 X72.919 Y157.203 E20.86927
G1 X72.931 Y156.763 E20.88318
G1 X72.964 Y154.194 E20.96436
G1 X72.924 Y151.647 E21.04485
G1 X72.813 Y149.105 E21.12524
G1 X72.633 Y146.623 E21.20387
G1 X72.376 Y144.064 E21.28514
G1 X72.057 Y141.602 E21.36358
G1 X71.661 Y139.097 E21.44371
G1 X71.528 Y138.391 E21.46641
G1 X71.179 Y136.388 E21.53066
G1 X71.131 Y136.083 E21.54041
G1 X71.05 Y135.522 E21.55832
